(G-CODE GENERATED BY FLATCAM v8.994 - www.flatcam.org - Version Date: 2020/11/7)

(Name: Beecounter-B_Cu.gbr_iso_combined_cnc)
(Type: G-code from Geometry)
(Units: MM)

(Created on Saturday, 25 January 2025 at 13:35)

(This preprocessor is the default preprocessor used by FlatCAM.)
(It is made to work with MACH3 compatible motion controllers.)

(TOOL DIAMETER: 0.4 mm)
(Feedrate_XY: 100.0 mm/min)
(Feedrate_Z: 60.0 mm/min)
(Feedrate rapids 1500.0 mm/min)

(Z_Cut: -0.1 mm)
(Z_Move: 2.0 mm)
(Z Start: None mm)
(Z End: 15.0 mm)
(X,Y End: None mm)
(Steps per circle: 64)
(Preprocessor Geometry: default)

(X range:   -0.3000 ...   55.3100  mm)
(Y range:   -0.2900 ...  160.3100  mm)

(Spindle Speed: 0.0 RPM)
G21
G90
G94

G01 F100.00

M5
G00 Z15.0000
G00 X0.0000 Y0.0000
T1
M6    
(MSG, Change to Tool Dia = 0.4000)
M0
G00 Z15.0000

M03
G01 F100.00
G00 X6.6730 Y3.0532
G01 F60.00
G01 Z-0.1000
G01 F100.00
G01 X6.6448 Y3.2677
G01 X6.5888 Y3.4767
G01 X6.5060 Y3.6766
G01 X6.3978 Y3.8639
G01 X6.2661 Y4.0356
G01 X6.1131 Y4.1886
G01 X5.9414 Y4.3203
G01 X5.7541 Y4.4285
G01 X5.5542 Y4.5113
G01 X5.3452 Y4.5673
G01 X5.1307 Y4.5955
G01 X4.9143 Y4.5955
G01 X4.6998 Y4.5673
G01 X4.4908 Y4.5113
G01 X4.2909 Y4.4285
G01 X4.1036 Y4.3203
G01 X3.9319 Y4.1886
G01 X3.7789 Y4.0356
G01 X3.6472 Y3.8639
G01 X3.5390 Y3.6766
G01 X3.4562 Y3.4767
G01 X3.4002 Y3.2677
G01 X3.3720 Y3.0532
G01 X3.3720 Y2.8368
G01 X3.4002 Y2.6223
G01 X3.4562 Y2.4133
G01 X3.5390 Y2.2134
G01 X3.6472 Y2.0261
G01 X3.7789 Y1.8544
G01 X3.9319 Y1.7014
G01 X4.1036 Y1.5697
G01 X4.2909 Y1.4615
G01 X4.4908 Y1.3787
G01 X4.6998 Y1.3227
G01 X4.9143 Y1.2945
G01 X5.1307 Y1.2945
G01 X5.3452 Y1.3227
G01 X5.5542 Y1.3787
G01 X5.7541 Y1.4615
G01 X5.9414 Y1.5697
G01 X6.1131 Y1.7014
G01 X6.2661 Y1.8544
G01 X6.3978 Y2.0261
G01 X6.5060 Y2.2134
G01 X6.5888 Y2.4133
G01 X6.6450 Y2.6238
G01 X6.6730 Y2.8368
G01 X6.6730 Y3.0532
G00 Z2.0000
G00 X5.0900 Y6.9524
G01 F60.00
G01 Z-0.1000
G01 F100.00
G01 X5.0900 Y6.8410
G01 X5.2172 Y6.9003
G01 X5.3820 Y7.0157
G01 X5.5243 Y7.1580
G01 X5.6397 Y7.3228
G01 X5.6990 Y7.4500
G01 X5.5876 Y7.4500
G01 X5.5704 Y7.4138
G01 X5.5637 Y7.4007
G01 X5.5183 Y7.3249
G01 X5.5103 Y7.3126
G01 X5.4517 Y7.2339
G01 X5.3825 Y7.1575
G01 X5.3061 Y7.0883
G01 X5.2274 Y7.0297
G01 X5.2151 Y7.0217
G01 X5.1393 Y6.9763
G01 X5.1262 Y6.9696
G01 X5.0900 Y6.9524
G00 Z2.0000
G00 X3.5810 Y7.4500
G01 F60.00
G01 Z-0.1000
G01 F100.00
G01 X3.6403 Y7.3228
G01 X3.7557 Y7.1580
G01 X3.8980 Y7.0157
G01 X4.0628 Y6.9003
G01 X4.1900 Y6.8410
G01 X4.1900 Y6.9524
G01 X4.1538 Y6.9696
G01 X4.1407 Y6.9763
G01 X4.0649 Y7.0217
G01 X4.0526 Y7.0297
G01 X3.9739 Y7.0883
G01 X3.8975 Y7.1575
G01 X3.8283 Y7.2339
G01 X3.7697 Y7.3126
G01 X3.7617 Y7.3249
G01 X3.7163 Y7.4007
G01 X3.7096 Y7.4138
G01 X3.6924 Y7.4500
G01 X3.5810 Y7.4500
G00 Z2.0000
G00 X3.5810 Y8.3500
G01 F60.00
G01 Z-0.1000
G01 F100.00
G01 X3.5934 Y8.3500
G01 X3.5849 Y8.3585
G01 X3.5810 Y8.3500
G00 Z2.0000
G00 X5.4900 Y11.9300
G01 F60.00
G01 Z-0.1000
G01 F100.00
G01 X5.5096 Y11.9310
G01 X5.5242 Y11.9329
G01 X5.5433 Y11.9372
G01 X5.5620 Y11.9434
G01 X5.5799 Y11.9514
G01 X5.5970 Y11.9610
G01 X5.6130 Y11.9723
G01 X5.6243 Y11.9818
G01 X5.6348 Y11.9921
G01 X5.6477 Y12.0070
G01 X5.6590 Y12.0230
G01 X5.6686 Y12.0401
G01 X5.6766 Y12.0580
G01 X5.6828 Y12.0767
G01 X5.6871 Y12.0958
G01 X5.6895 Y12.1153
G01 X5.6900 Y12.1300
G01 X5.6899 Y13.8349
G01 X5.6890 Y13.8496
G01 X5.6862 Y13.8690
G01 X5.6814 Y13.8881
G01 X5.6748 Y13.9065
G01 X5.6664 Y13.9243
G01 X5.6590 Y13.9370
G01 X5.6477 Y13.9530
G01 X5.6382 Y13.9643
G01 X5.6243 Y13.9782
G01 X5.6130 Y13.9877
G01 X5.6052 Y13.9935
G01 X5.5886 Y14.0040
G01 X5.5710 Y14.0128
G01 X5.5620 Y14.0166
G01 X5.5481 Y14.0214
G01 X5.5290 Y14.0262
G01 X5.5096 Y14.0290
G01 X5.4900 Y14.0300
G01 X3.7851 Y14.0299
G01 X3.7655 Y14.0285
G01 X3.7510 Y14.0262
G01 X3.7319 Y14.0214
G01 X3.7180 Y14.0166
G01 X3.7001 Y14.0086
G01 X3.6830 Y13.9990
G01 X3.6709 Y13.9906
G01 X3.6557 Y13.9782
G01 X3.6418 Y13.9643
G01 X3.6294 Y13.9491
G01 X3.6210 Y13.9370
G01 X3.6160 Y13.9286
G01 X3.6072 Y13.9110
G01 X3.6001 Y13.8927
G01 X3.5949 Y13.8738
G01 X3.5929 Y13.8642
G01 X3.5910 Y13.8496
G01 X3.5900 Y13.8300
G01 X3.5901 Y12.1251
G01 X3.5910 Y12.1104
G01 X3.5938 Y12.0910
G01 X3.5986 Y12.0719
G01 X3.6052 Y12.0535
G01 X3.6114 Y12.0401
G01 X3.6210 Y12.0230
G01 X3.6294 Y12.0109
G01 X3.6418 Y11.9957
G01 X3.6557 Y11.9818
G01 X3.6709 Y11.9694
G01 X3.6872 Y11.9585
G01 X3.7045 Y11.9492
G01 X3.7226 Y11.9417
G01 X3.7414 Y11.9360
G01 X3.7607 Y11.9322
G01 X3.7704 Y11.9310
G01 X3.7851 Y11.9301
G01 X5.4900 Y11.9300
G00 Z2.0000
G00 X4.2909 Y19.4285
G01 F60.00
G01 Z-0.1000
G01 F100.00
G01 X4.1036 Y19.3203
G01 X3.9319 Y19.1886
G01 X3.7789 Y19.0356
G01 X3.6472 Y18.8639
G01 X3.5390 Y18.6766
G01 X3.4562 Y18.4767
G01 X3.4002 Y18.2677
G01 X3.3720 Y18.0532
G01 X3.3720 Y17.8368
G01 X3.4002 Y17.6223
G01 X3.4562 Y17.4133
G01 X3.5390 Y17.2134
G01 X3.6472 Y17.0261
G01 X3.7789 Y16.8544
G01 X3.9319 Y16.7014
G01 X4.1036 Y16.5697
G01 X4.2909 Y16.4615
G01 X4.4908 Y16.3787
G01 X4.6998 Y16.3227
G01 X4.9143 Y16.2945
G01 X5.1307 Y16.2945
G01 X5.3452 Y16.3227
G01 X5.5542 Y16.3787
G01 X5.7541 Y16.4615
G01 X5.9414 Y16.5697
G01 X6.1131 Y16.7014
G01 X6.2661 Y16.8544
G01 X6.3978 Y17.0261
G01 X6.4904 Y17.1866
G01 X6.5060 Y17.2134
G01 X6.5888 Y17.4133
G01 X6.6448 Y17.6223
G01 X6.6730 Y17.8368
G01 X6.6730 Y18.0532
G01 X6.6448 Y18.2677
G01 X6.5888 Y18.4767
G01 X6.5060 Y18.6766
G01 X6.3978 Y18.8639
G01 X6.2661 Y19.0356
G01 X6.1131 Y19.1886
G01 X5.9414 Y19.3203
G01 X5.9246 Y19.3300
G01 X5.7541 Y19.4285
G01 X5.5542 Y19.5113
G01 X5.3452 Y19.5673
G01 X5.1307 Y19.5955
G01 X4.9143 Y19.5955
G01 X4.6998 Y19.5673
G01 X4.4908 Y19.5113
G01 X4.2909 Y19.4285
G00 Z2.0000
G00 X6.6730 Y23.0532
G01 F60.00
G01 Z-0.1000
G01 F100.00
G01 X6.6448 Y23.2677
G01 X6.5888 Y23.4767
G01 X6.5060 Y23.6766
G01 X6.3978 Y23.8639
G01 X6.2661 Y24.0356
G01 X6.1131 Y24.1886
G01 X5.9414 Y24.3203
G01 X5.7541 Y24.4285
G01 X5.5542 Y24.5113
G01 X5.3452 Y24.5673
G01 X5.1307 Y24.5955
G01 X4.9143 Y24.5955
G01 X4.6998 Y24.5673
G01 X4.4908 Y24.5113
G01 X4.2909 Y24.4285
G01 X4.1036 Y24.3203
G01 X3.9319 Y24.1886
G01 X3.7789 Y24.0356
G01 X3.6472 Y23.8639
G01 X3.5390 Y23.6766
G01 X3.4562 Y23.4767
G01 X3.4002 Y23.2677
G01 X3.3720 Y23.0532
G01 X3.3720 Y22.8368
G01 X3.4002 Y22.6223
G01 X3.4562 Y22.4133
G01 X3.5390 Y22.2134
G01 X3.6472 Y22.0261
G01 X3.7789 Y21.8544
G01 X3.9319 Y21.7014
G01 X4.1036 Y21.5697
G01 X4.2909 Y21.4615
G01 X4.4908 Y21.3787
G01 X4.6998 Y21.3227
G01 X4.9143 Y21.2945
G01 X5.1307 Y21.2945
G01 X5.3452 Y21.3227
G01 X5.5542 Y21.3787
G01 X5.7541 Y21.4615
G01 X5.9414 Y21.5697
G01 X6.1131 Y21.7014
G01 X6.2661 Y21.8544
G01 X6.3978 Y22.0261
G01 X6.5060 Y22.2134
G01 X6.5888 Y22.4133
G01 X6.6450 Y22.6238
G01 X6.6730 Y22.8368
G01 X6.6730 Y23.0532
G00 Z2.0000
G00 X5.0900 Y26.9524
G01 F60.00
G01 Z-0.1000
G01 F100.00
G01 X5.0900 Y26.8410
G01 X5.2172 Y26.9003
G01 X5.3820 Y27.0157
G01 X5.5243 Y27.1580
G01 X5.6397 Y27.3228
G01 X5.6990 Y27.4500
G01 X5.5876 Y27.4500
G01 X5.5704 Y27.4138
G01 X5.5637 Y27.4007
G01 X5.5183 Y27.3249
G01 X5.5103 Y27.3126
G01 X5.4517 Y27.2339
G01 X5.3825 Y27.1575
G01 X5.3061 Y27.0883
G01 X5.2274 Y27.0297
G01 X5.2151 Y27.0217
G01 X5.1393 Y26.9763
G01 X5.1262 Y26.9696
G01 X5.0900 Y26.9524
G00 Z2.0000
G00 X3.6090 Y27.3899
G01 F60.00
G01 Z-0.1000
G01 F100.00
G01 X3.6403 Y27.3228
G01 X3.7557 Y27.1580
G01 X3.8980 Y27.0157
G01 X4.0628 Y26.9003
G01 X4.1900 Y26.8410
G01 X4.1900 Y26.9524
G01 X4.1538 Y26.9696
G01 X4.1407 Y26.9763
G01 X4.0649 Y27.0217
G01 X4.0526 Y27.0297
G01 X3.9739 Y27.0883
G01 X3.9011 Y27.1541
G01 X3.8908 Y27.1646
G01 X3.8348 Y27.2265
G01 X3.8223 Y27.2416
G01 X3.7670 Y27.3167
G01 X3.7228 Y27.3899
G01 X3.6090 Y27.3899
G00 Z2.0000
G00 X5.4900 Y31.9300
G01 F60.00
G01 Z-0.1000
G01 F100.00
G01 X5.5096 Y31.9310
G01 X5.5242 Y31.9329
G01 X5.5433 Y31.9372
G01 X5.5620 Y31.9434
G01 X5.5799 Y31.9514
G01 X5.5970 Y31.9610
G01 X5.6091 Y31.9694
G01 X5.6243 Y31.9818
G01 X5.6382 Y31.9957
G01 X5.6506 Y32.0109
G01 X5.6615 Y32.0272
G01 X5.6708 Y32.0445
G01 X5.6766 Y32.0580
G01 X5.6828 Y32.0767
G01 X5.6871 Y32.0958
G01 X5.6895 Y32.1153
G01 X5.6900 Y32.1300
G01 X5.6899 Y33.8349
G01 X5.6885 Y33.8545
G01 X5.6862 Y33.8690
G01 X5.6814 Y33.8881
G01 X5.6748 Y33.9065
G01 X5.6686 Y33.9199
G01 X5.6590 Y33.9370
G01 X5.6506 Y33.9491
G01 X5.6382 Y33.9643
G01 X5.6243 Y33.9782
G01 X5.6091 Y33.9906
G01 X5.5928 Y34.0015
G01 X5.5843 Y34.0064
G01 X5.5710 Y34.0128
G01 X5.5527 Y34.0199
G01 X5.5433 Y34.0228
G01 X5.5290 Y34.0262
G01 X5.5096 Y34.0290
G01 X5.4900 Y34.0300
G01 X3.7851 Y34.0299
G01 X3.7704 Y34.0290
G01 X3.7510 Y34.0262
G01 X3.7319 Y34.0214
G01 X3.7180 Y34.0166
G01 X3.7001 Y34.0086
G01 X3.6830 Y33.9990
G01 X3.6670 Y33.9877
G01 X3.6557 Y33.9782
G01 X3.6418 Y33.9643
G01 X3.6354 Y33.9569
G01 X3.6265 Y33.9452
G01 X3.6160 Y33.9286
G01 X3.6072 Y33.9110
G01 X3.6017 Y33.8974
G01 X3.5986 Y33.8881
G01 X3.5938 Y33.8690
G01 X3.5910 Y33.8496
G01 X3.5900 Y33.8300
G01 X3.5901 Y32.1251
G01 X3.5915 Y32.1055
G01 X3.5938 Y32.0910
G01 X3.5972 Y32.0767
G01 X3.6034 Y32.0580
G01 X3.6114 Y32.0401
G01 X3.6185 Y32.0272
G01 X3.6294 Y32.0109
G01 X3.6418 Y31.9957
G01 X3.6557 Y31.9818
G01 X3.6670 Y31.9723
G01 X3.6748 Y31.9665
G01 X3.6914 Y31.9560
G01 X3.7090 Y31.9472
G01 X3.7273 Y31.9401
G01 X3.7462 Y31.9349
G01 X3.7655 Y31.9315
G01 X3.7851 Y31.9301
G01 X5.4900 Y31.9300
G00 Z2.0000
G00 X4.2909 Y39.4285
G01 F60.00
G01 Z-0.1000
G01 F100.00
G01 X4.1036 Y39.3203
G01 X3.9319 Y39.1886
G01 X3.7789 Y39.0356
G01 X3.6472 Y38.8639
G01 X3.5390 Y38.6766
G01 X3.4562 Y38.4767
G01 X3.4002 Y38.2677
G01 X3.3720 Y38.0532
G01 X3.3720 Y37.8368
G01 X3.4002 Y37.6223
G01 X3.4562 Y37.4133
G01 X3.5390 Y37.2134
G01 X3.6472 Y37.0261
G01 X3.7789 Y36.8544
G01 X3.9319 Y36.7014
G01 X4.1036 Y36.5697
G01 X4.2909 Y36.4615
G01 X4.4908 Y36.3787
G01 X4.6998 Y36.3227
G01 X4.9143 Y36.2945
G01 X5.1307 Y36.2945
G01 X5.3452 Y36.3227
G01 X5.5542 Y36.3787
G01 X5.7541 Y36.4615
G01 X5.9414 Y36.5697
G01 X6.1131 Y36.7014
G01 X6.2661 Y36.8544
G01 X6.3978 Y37.0261
G01 X6.4904 Y37.1866
G01 X6.5060 Y37.2134
G01 X6.5888 Y37.4133
G01 X6.6448 Y37.6223
G01 X6.6730 Y37.8368
G01 X6.6730 Y38.0532
G01 X6.6448 Y38.2677
G01 X6.5888 Y38.4767
G01 X6.5060 Y38.6766
G01 X6.3978 Y38.8639
G01 X6.2661 Y39.0356
G01 X6.1131 Y39.1886
G01 X5.9414 Y39.3203
G01 X5.9246 Y39.3300
G01 X5.7541 Y39.4285
G01 X5.5542 Y39.5113
G01 X5.3452 Y39.5673
G01 X5.1307 Y39.5955
G01 X4.9143 Y39.5955
G01 X4.6998 Y39.5673
G01 X4.4908 Y39.5113
G01 X4.2909 Y39.4285
G00 Z2.0000
G00 X6.6730 Y43.0532
G01 F60.00
G01 Z-0.1000
G01 F100.00
G01 X6.6448 Y43.2677
G01 X6.5888 Y43.4767
G01 X6.5060 Y43.6766
G01 X6.3978 Y43.8639
G01 X6.2661 Y44.0356
G01 X6.1131 Y44.1886
G01 X5.9414 Y44.3203
G01 X5.7541 Y44.4285
G01 X5.5542 Y44.5113
G01 X5.3452 Y44.5673
G01 X5.1307 Y44.5955
G01 X4.9143 Y44.5955
G01 X4.6998 Y44.5673
G01 X4.4908 Y44.5113
G01 X4.2909 Y44.4285
G01 X4.1036 Y44.3203
G01 X3.9319 Y44.1886
G01 X3.7789 Y44.0356
G01 X3.6472 Y43.8639
G01 X3.5390 Y43.6766
G01 X3.4562 Y43.4767
G01 X3.4002 Y43.2677
G01 X3.3720 Y43.0532
G01 X3.3720 Y42.8368
G01 X3.4002 Y42.6223
G01 X3.4562 Y42.4133
G01 X3.5390 Y42.2134
G01 X3.6472 Y42.0261
G01 X3.7789 Y41.8544
G01 X3.9319 Y41.7014
G01 X4.1036 Y41.5697
G01 X4.2909 Y41.4615
G01 X4.4908 Y41.3787
G01 X4.6998 Y41.3227
G01 X4.9143 Y41.2945
G01 X5.1307 Y41.2945
G01 X5.3452 Y41.3227
G01 X5.5542 Y41.3787
G01 X5.7541 Y41.4615
G01 X5.9414 Y41.5697
G01 X6.1131 Y41.7014
G01 X6.2661 Y41.8544
G01 X6.3978 Y42.0261
G01 X6.5060 Y42.2134
G01 X6.5888 Y42.4133
G01 X6.6450 Y42.6238
G01 X6.6730 Y42.8368
G01 X6.6730 Y43.0532
G00 Z2.0000
G00 X5.0900 Y46.9524
G01 F60.00
G01 Z-0.1000
G01 F100.00
G01 X5.0900 Y46.8410
G01 X5.2172 Y46.9003
G01 X5.3820 Y47.0157
G01 X5.5243 Y47.1580
G01 X5.6397 Y47.3228
G01 X5.6990 Y47.4500
G01 X5.5876 Y47.4500
G01 X5.5704 Y47.4138
G01 X5.5637 Y47.4007
G01 X5.5183 Y47.3249
G01 X5.5103 Y47.3126
G01 X5.4517 Y47.2339
G01 X5.3825 Y47.1575
G01 X5.3061 Y47.0883
G01 X5.2274 Y47.0297
G01 X5.2151 Y47.0217
G01 X5.1393 Y46.9763
G01 X5.1262 Y46.9696
G01 X5.0900 Y46.9524
G00 Z2.0000
G00 X3.6090 Y47.3899
G01 F60.00
G01 Z-0.1000
G01 F100.00
G01 X3.6403 Y47.3228
G01 X3.7557 Y47.1580
G01 X3.8980 Y47.0157
G01 X4.0628 Y46.9003
G01 X4.1900 Y46.8410
G01 X4.1900 Y46.9524
G01 X4.1538 Y46.9696
G01 X4.1407 Y46.9763
G01 X4.0649 Y47.0217
G01 X4.0526 Y47.0297
G01 X3.9739 Y47.0883
G01 X3.9011 Y47.1541
G01 X3.8908 Y47.1646
G01 X3.8348 Y47.2265
G01 X3.8223 Y47.2416
G01 X3.7670 Y47.3167
G01 X3.7228 Y47.3899
G01 X3.6090 Y47.3899
G00 Z2.0000
G00 X5.4900 Y51.9300
G01 F60.00
G01 Z-0.1000
G01 F100.00
G01 X5.5047 Y51.9305
G01 X5.5242 Y51.9329
G01 X5.5433 Y51.9372
G01 X5.5620 Y51.9434
G01 X5.5799 Y51.9514
G01 X5.5928 Y51.9585
G01 X5.6091 Y51.9694
G01 X5.6243 Y51.9818
G01 X5.6382 Y51.9957
G01 X5.6506 Y52.0109
G01 X5.6615 Y52.0272
G01 X5.6708 Y52.0445
G01 X5.6766 Y52.0580
G01 X5.6828 Y52.0767
G01 X5.6871 Y52.0958
G01 X5.6895 Y52.1153
G01 X5.6900 Y52.1300
G01 X5.6899 Y53.8349
G01 X5.6885 Y53.8545
G01 X5.6862 Y53.8690
G01 X5.6814 Y53.8881
G01 X5.6748 Y53.9065
G01 X5.6686 Y53.9199
G01 X5.6590 Y53.9370
G01 X5.6506 Y53.9491
G01 X5.6382 Y53.9643
G01 X5.6243 Y53.9782
G01 X5.6091 Y53.9906
G01 X5.5928 Y54.0015
G01 X5.5843 Y54.0064
G01 X5.5710 Y54.0128
G01 X5.5527 Y54.0199
G01 X5.5433 Y54.0228
G01 X5.5290 Y54.0262
G01 X5.5096 Y54.0290
G01 X5.4900 Y54.0300
G01 X3.7851 Y54.0299
G01 X3.7704 Y54.0290
G01 X3.7510 Y54.0262
G01 X3.7319 Y54.0214
G01 X3.7180 Y54.0166
G01 X3.7001 Y54.0086
G01 X3.6830 Y53.9990
G01 X3.6670 Y53.9877
G01 X3.6557 Y53.9782
G01 X3.6418 Y53.9643
G01 X3.6354 Y53.9569
G01 X3.6265 Y53.9452
G01 X3.6160 Y53.9286
G01 X3.6072 Y53.9110
G01 X3.6017 Y53.8974
G01 X3.5986 Y53.8881
G01 X3.5938 Y53.8690
G01 X3.5910 Y53.8496
G01 X3.5900 Y53.8300
G01 X3.5901 Y52.1251
G01 X3.5915 Y52.1055
G01 X3.5938 Y52.0910
G01 X3.5972 Y52.0767
G01 X3.6034 Y52.0580
G01 X3.6114 Y52.0401
G01 X3.6185 Y52.0272
G01 X3.6294 Y52.0109
G01 X3.6418 Y51.9957
G01 X3.6486 Y51.9886
G01 X3.6594 Y51.9786
G01 X3.6748 Y51.9665
G01 X3.6914 Y51.9560
G01 X3.7090 Y51.9472
G01 X3.7273 Y51.9401
G01 X3.7462 Y51.9349
G01 X3.7655 Y51.9315
G01 X3.7851 Y51.9301
G01 X5.4900 Y51.9300
G00 Z2.0000
G00 X4.2909 Y59.4285
G01 F60.00
G01 Z-0.1000
G01 F100.00
G01 X4.1036 Y59.3203
G01 X3.9319 Y59.1886
G01 X3.7789 Y59.0356
G01 X3.6472 Y58.8639
G01 X3.5390 Y58.6766
G01 X3.4562 Y58.4767
G01 X3.4002 Y58.2677
G01 X3.3720 Y58.0532
G01 X3.3720 Y57.8368
G01 X3.4002 Y57.6223
G01 X3.4562 Y57.4133
G01 X3.5390 Y57.2134
G01 X3.6472 Y57.0261
G01 X3.7789 Y56.8544
G01 X3.9319 Y56.7014
G01 X4.1036 Y56.5697
G01 X4.2909 Y56.4615
G01 X4.4908 Y56.3787
G01 X4.6998 Y56.3227
G01 X4.9143 Y56.2945
G01 X5.1307 Y56.2945
G01 X5.3452 Y56.3227
G01 X5.5542 Y56.3787
G01 X5.7541 Y56.4615
G01 X5.9414 Y56.5697
G01 X6.1131 Y56.7014
G01 X6.2661 Y56.8544
G01 X6.3978 Y57.0261
G01 X6.4904 Y57.1866
G01 X6.5060 Y57.2134
G01 X6.5888 Y57.4133
G01 X6.6448 Y57.6223
G01 X6.6730 Y57.8368
G01 X6.6730 Y58.0532
G01 X6.6448 Y58.2677
G01 X6.5888 Y58.4767
G01 X6.5060 Y58.6766
G01 X6.3978 Y58.8639
G01 X6.2661 Y59.0356
G01 X6.1131 Y59.1886
G01 X5.9414 Y59.3203
G01 X5.9246 Y59.3300
G01 X5.7541 Y59.4285
G01 X5.5542 Y59.5113
G01 X5.3452 Y59.5673
G01 X5.1307 Y59.5955
G01 X4.9143 Y59.5955
G01 X4.6998 Y59.5673
G01 X4.4908 Y59.5113
G01 X4.2909 Y59.4285
G00 Z2.0000
G00 X6.6730 Y63.0532
G01 F60.00
G01 Z-0.1000
G01 F100.00
G01 X6.6448 Y63.2677
G01 X6.5888 Y63.4767
G01 X6.5060 Y63.6766
G01 X6.3978 Y63.8639
G01 X6.2661 Y64.0356
G01 X6.1131 Y64.1886
G01 X5.9414 Y64.3203
G01 X5.7541 Y64.4285
G01 X5.5542 Y64.5113
G01 X5.3452 Y64.5673
G01 X5.1307 Y64.5955
G01 X4.9143 Y64.5955
G01 X4.6998 Y64.5673
G01 X4.4908 Y64.5113
G01 X4.2909 Y64.4285
G01 X4.1036 Y64.3203
G01 X3.9319 Y64.1886
G01 X3.7789 Y64.0356
G01 X3.6472 Y63.8639
G01 X3.5390 Y63.6766
G01 X3.4562 Y63.4767
G01 X3.4002 Y63.2677
G01 X3.3720 Y63.0532
G01 X3.3720 Y62.8368
G01 X3.4002 Y62.6223
G01 X3.4562 Y62.4133
G01 X3.5390 Y62.2134
G01 X3.6472 Y62.0261
G01 X3.7789 Y61.8544
G01 X3.9319 Y61.7014
G01 X4.1036 Y61.5697
G01 X4.2909 Y61.4615
G01 X4.4908 Y61.3787
G01 X4.6998 Y61.3227
G01 X4.9143 Y61.2945
G01 X5.1307 Y61.2945
G01 X5.3452 Y61.3227
G01 X5.5542 Y61.3787
G01 X5.7541 Y61.4615
G01 X5.9414 Y61.5697
G01 X6.1131 Y61.7014
G01 X6.2661 Y61.8544
G01 X6.3978 Y62.0261
G01 X6.5060 Y62.2134
G01 X6.5888 Y62.4133
G01 X6.6450 Y62.6238
G01 X6.6730 Y62.8368
G01 X6.6730 Y63.0532
G00 Z2.0000
G00 X5.0900 Y66.9524
G01 F60.00
G01 Z-0.1000
G01 F100.00
G01 X5.0900 Y66.8410
G01 X5.2172 Y66.9003
G01 X5.3820 Y67.0157
G01 X5.5243 Y67.1580
G01 X5.6397 Y67.3228
G01 X5.6990 Y67.4500
G01 X5.5876 Y67.4500
G01 X5.5704 Y67.4138
G01 X5.5637 Y67.4007
G01 X5.5183 Y67.3249
G01 X5.5103 Y67.3126
G01 X5.4517 Y67.2339
G01 X5.3825 Y67.1575
G01 X5.3061 Y67.0883
G01 X5.2274 Y67.0297
G01 X5.2151 Y67.0217
G01 X5.1393 Y66.9763
G01 X5.1262 Y66.9696
G01 X5.0900 Y66.9524
G00 Z2.0000
G00 X3.6090 Y67.3899
G01 F60.00
G01 Z-0.1000
G01 F100.00
G01 X3.6403 Y67.3228
G01 X3.7557 Y67.1580
G01 X3.8980 Y67.0157
G01 X4.0628 Y66.9003
G01 X4.1900 Y66.8410
G01 X4.1900 Y66.9524
G01 X4.1538 Y66.9696
G01 X4.1407 Y66.9763
G01 X4.0649 Y67.0217
G01 X4.0526 Y67.0297
G01 X3.9739 Y67.0883
G01 X3.9011 Y67.1541
G01 X3.8908 Y67.1646
G01 X3.8348 Y67.2265
G01 X3.8223 Y67.2416
G01 X3.7670 Y67.3167
G01 X3.7228 Y67.3899
G01 X3.6090 Y67.3899
G00 Z2.0000
G00 X5.4900 Y71.9300
G01 F60.00
G01 Z-0.1000
G01 F100.00
G01 X5.5047 Y71.9305
G01 X5.5242 Y71.9329
G01 X5.5433 Y71.9372
G01 X5.5620 Y71.9434
G01 X5.5799 Y71.9514
G01 X5.5970 Y71.9610
G01 X5.6130 Y71.9723
G01 X5.6279 Y71.9852
G01 X5.6414 Y71.9994
G01 X5.6506 Y72.0109
G01 X5.6615 Y72.0272
G01 X5.6708 Y72.0445
G01 X5.6783 Y72.0626
G01 X5.6840 Y72.0814
G01 X5.6871 Y72.0958
G01 X5.6895 Y72.1153
G01 X5.6900 Y72.1300
G01 X5.6899 Y73.8349
G01 X5.6885 Y73.8545
G01 X5.6851 Y73.8738
G01 X5.6814 Y73.8881
G01 X5.6748 Y73.9065
G01 X5.6664 Y73.9243
G01 X5.6590 Y73.9370
G01 X5.6506 Y73.9491
G01 X5.6382 Y73.9643
G01 X5.6243 Y73.9782
G01 X5.6091 Y73.9906
G01 X5.5928 Y74.0015
G01 X5.5799 Y74.0086
G01 X5.5710 Y74.0128
G01 X5.5527 Y74.0199
G01 X5.5338 Y74.0251
G01 X5.5145 Y74.0285
G01 X5.4998 Y74.0298
G01 X5.4900 Y74.0300
G01 X3.7851 Y74.0299
G01 X3.7655 Y74.0285
G01 X3.7462 Y74.0251
G01 X3.7273 Y74.0199
G01 X3.7135 Y74.0148
G01 X3.6957 Y74.0064
G01 X3.6830 Y73.9990
G01 X3.6670 Y73.9877
G01 X3.6557 Y73.9782
G01 X3.6418 Y73.9643
G01 X3.6294 Y73.9491
G01 X3.6185 Y73.9328
G01 X3.6136 Y73.9243
G01 X3.6072 Y73.9110
G01 X3.6034 Y73.9020
G01 X3.5986 Y73.8881
G01 X3.5938 Y73.8690
G01 X3.5910 Y73.8496
G01 X3.5900 Y73.8300
G01 X3.5901 Y72.1251
G01 X3.5910 Y72.1104
G01 X3.5938 Y72.0910
G01 X3.5986 Y72.0719
G01 X3.6034 Y72.0580
G01 X3.6092 Y72.0445
G01 X3.6185 Y72.0272
G01 X3.6294 Y72.0109
G01 X3.6418 Y71.9957
G01 X3.6486 Y71.9886
G01 X3.6594 Y71.9786
G01 X3.6748 Y71.9665
G01 X3.6914 Y71.9560
G01 X3.7090 Y71.9472
G01 X3.7273 Y71.9401
G01 X3.7462 Y71.9349
G01 X3.7655 Y71.9315
G01 X3.7851 Y71.9301
G01 X5.4900 Y71.9300
G00 Z2.0000
G00 X4.2909 Y79.4285
G01 F60.00
G01 Z-0.1000
G01 F100.00
G01 X4.1036 Y79.3203
G01 X3.9319 Y79.1886
G01 X3.7789 Y79.0356
G01 X3.6472 Y78.8639
G01 X3.5390 Y78.6766
G01 X3.4562 Y78.4767
G01 X3.4002 Y78.2677
G01 X3.3720 Y78.0532
G01 X3.3720 Y77.8368
G01 X3.4002 Y77.6223
G01 X3.4562 Y77.4133
G01 X3.5390 Y77.2134
G01 X3.6472 Y77.0261
G01 X3.7789 Y76.8544
G01 X3.9319 Y76.7014
G01 X4.1036 Y76.5697
G01 X4.2909 Y76.4615
G01 X4.4908 Y76.3787
G01 X4.6998 Y76.3227
G01 X4.9143 Y76.2945
G01 X5.1307 Y76.2945
G01 X5.3452 Y76.3227
G01 X5.5542 Y76.3787
G01 X5.7541 Y76.4615
G01 X5.9414 Y76.5697
G01 X6.1131 Y76.7014
G01 X6.2661 Y76.8544
G01 X6.3978 Y77.0261
G01 X6.4904 Y77.1866
G01 X6.5060 Y77.2134
G01 X6.5888 Y77.4133
G01 X6.6448 Y77.6223
G01 X6.6730 Y77.8368
G01 X6.6730 Y78.0532
G01 X6.6448 Y78.2677
G01 X6.5888 Y78.4767
G01 X6.5060 Y78.6766
G01 X6.3978 Y78.8639
G01 X6.2661 Y79.0356
G01 X6.1131 Y79.1886
G01 X5.9414 Y79.3203
G01 X5.9246 Y79.3300
G01 X5.7541 Y79.4285
G01 X5.5542 Y79.5113
G01 X5.3452 Y79.5673
G01 X5.1307 Y79.5955
G01 X4.9143 Y79.5955
G01 X4.6998 Y79.5673
G01 X4.4908 Y79.5113
G01 X4.2909 Y79.4285
G00 Z2.0000
G00 X6.6730 Y83.0532
G01 F60.00
G01 Z-0.1000
G01 F100.00
G01 X6.6448 Y83.2677
G01 X6.5888 Y83.4767
G01 X6.5060 Y83.6766
G01 X6.3978 Y83.8639
G01 X6.2661 Y84.0356
G01 X6.1131 Y84.1886
G01 X5.9414 Y84.3203
G01 X5.7541 Y84.4285
G01 X5.5542 Y84.5113
G01 X5.3452 Y84.5673
G01 X5.1307 Y84.5955
G01 X4.9143 Y84.5955
G01 X4.6998 Y84.5673
G01 X4.4908 Y84.5113
G01 X4.2909 Y84.4285
G01 X4.1036 Y84.3203
G01 X3.9319 Y84.1886
G01 X3.7789 Y84.0356
G01 X3.6472 Y83.8639
G01 X3.5390 Y83.6766
G01 X3.4562 Y83.4767
G01 X3.4002 Y83.2677
G01 X3.3720 Y83.0532
G01 X3.3720 Y82.8368
G01 X3.4002 Y82.6223
G01 X3.4562 Y82.4133
G01 X3.5390 Y82.2134
G01 X3.6472 Y82.0261
G01 X3.7789 Y81.8544
G01 X3.9319 Y81.7014
G01 X4.1036 Y81.5697
G01 X4.2909 Y81.4615
G01 X4.4908 Y81.3787
G01 X4.6998 Y81.3227
G01 X4.9143 Y81.2945
G01 X5.1307 Y81.2945
G01 X5.3452 Y81.3227
G01 X5.5542 Y81.3787
G01 X5.7541 Y81.4615
G01 X5.9414 Y81.5697
G01 X6.1131 Y81.7014
G01 X6.2661 Y81.8544
G01 X6.3978 Y82.0261
G01 X6.5060 Y82.2134
G01 X6.5888 Y82.4133
G01 X6.6450 Y82.6238
G01 X6.6730 Y82.8368
G01 X6.6730 Y83.0532
G00 Z2.0000
G00 X5.0900 Y86.9524
G01 F60.00
G01 Z-0.1000
G01 F100.00
G01 X5.0900 Y86.8410
G01 X5.2172 Y86.9003
G01 X5.3820 Y87.0157
G01 X5.5243 Y87.1580
G01 X5.6397 Y87.3228
G01 X5.6990 Y87.4500
G01 X5.5876 Y87.4500
G01 X5.5704 Y87.4138
G01 X5.5637 Y87.4007
G01 X5.5183 Y87.3249
G01 X5.5103 Y87.3126
G01 X5.4517 Y87.2339
G01 X5.3825 Y87.1575
G01 X5.3061 Y87.0883
G01 X5.2274 Y87.0297
G01 X5.2151 Y87.0217
G01 X5.1393 Y86.9763
G01 X5.1262 Y86.9696
G01 X5.0900 Y86.9524
G00 Z2.0000
G00 X3.5857 Y87.4399
G01 F60.00
G01 Z-0.1000
G01 F100.00
G01 X3.6403 Y87.3228
G01 X3.7557 Y87.1580
G01 X3.8980 Y87.0157
G01 X4.0628 Y86.9003
G01 X4.1900 Y86.8410
G01 X4.1900 Y86.9524
G01 X4.1538 Y86.9696
G01 X4.1407 Y86.9763
G01 X4.0649 Y87.0217
G01 X4.0526 Y87.0297
G01 X3.9739 Y87.0883
G01 X3.8975 Y87.1575
G01 X3.8283 Y87.2339
G01 X3.7697 Y87.3126
G01 X3.7617 Y87.3249
G01 X3.7163 Y87.4007
G01 X3.7117 Y87.4094
G01 X3.6972 Y87.4399
G01 X3.5857 Y87.4399
G00 Z2.0000
G00 X5.6108 Y90.0399
G01 F60.00
G01 Z-0.1000
G01 F100.00
G01 X7.7340 Y90.0399
G01 X7.7622 Y90.0193
G01 X7.7958 Y89.9989
G01 X7.8131 Y89.9896
G01 X7.8487 Y89.9731
G01 X7.8855 Y89.9596
G01 X7.9043 Y89.9539
G01 X7.9425 Y89.9446
G01 X7.9861 Y89.9379
G01 X7.9959 Y89.9370
G01 X8.0302 Y89.9352
G01 X8.0449 Y89.9351
G01 X8.0890 Y89.9374
G01 X8.1279 Y89.9429
G01 X8.1471 Y89.9468
G01 X8.1851 Y89.9565
G01 X8.2222 Y89.9695
G01 X8.2403 Y89.9770
G01 X8.2757 Y89.9940
G01 X8.3095 Y90.0140
G01 X8.3218 Y90.0220
G01 X8.3534 Y90.0454
G01 X8.3646 Y90.0549
G01 X8.3936 Y90.0814
G01 X8.4201 Y90.1104
G01 X8.4325 Y90.1255
G01 X8.4557 Y90.1572
G01 X8.4761 Y90.1908
G01 X8.4854 Y90.2081
G01 X8.5019 Y90.2437
G01 X8.5154 Y90.2805
G01 X8.5198 Y90.2946
G01 X8.5304 Y90.3375
G01 X8.5354 Y90.3696
G01 X10.0255 Y91.8597
G01 X10.0519 Y91.8888
G01 X10.0689 Y91.9113
G01 X10.0900 Y91.9270
G01 X10.1013 Y91.9365
G01 X10.1229 Y91.9564
G01 X10.1429 Y91.9781
G01 X10.1553 Y91.9933
G01 X10.1699 Y92.0130
G01 X10.1753 Y92.0212
G01 X10.1929 Y92.0507
G01 X10.2077 Y92.0817
G01 X10.2115 Y92.0908
G01 X10.2198 Y92.1139
G01 X10.2255 Y92.1327
G01 X10.2324 Y92.1613
G01 X10.2382 Y92.2001
G01 X10.2401 Y92.2394
G01 X10.2401 Y142.4243
G01 X15.4057 Y147.5899
G01 X19.0364 Y147.5899
G01 X19.0669 Y147.5825
G01 X19.1008 Y147.5773
G01 X19.1106 Y147.5763
G01 X19.1351 Y147.5751
G01 X19.1498 Y147.5749
G01 X19.1841 Y147.5767
G01 X19.2230 Y147.5825
G01 X19.2611 Y147.5920
G01 X19.2980 Y147.6053
G01 X19.3335 Y147.6221
G01 X19.3672 Y147.6422
G01 X19.3987 Y147.6656
G01 X19.4243 Y147.6886
G01 X20.7379 Y149.0021
G01 X20.7643 Y149.0312
G01 X20.7820 Y149.0547
G01 X20.7903 Y149.0668
G01 X20.8055 Y149.0921
G01 X20.8123 Y149.1052
G01 X20.8246 Y149.1319
G01 X20.8364 Y149.1642
G01 X20.8405 Y149.1783
G01 X20.8474 Y149.2069
G01 X20.8526 Y149.2409
G01 X20.8539 Y149.2556
G01 X20.8551 Y149.2850
G01 X20.8551 Y150.1233
G01 X20.8819 Y150.1360
G01 X20.8950 Y150.1427
G01 X20.9581 Y150.1806
G01 X20.9703 Y150.1889
G01 X21.0254 Y150.2299
G01 X21.0367 Y150.2394
G01 X21.0910 Y150.2890
G01 X21.1439 Y150.3470
G01 X21.1531 Y150.3585
G01 X21.1967 Y150.4178
G01 X21.2396 Y150.4893
G01 X21.2753 Y150.5647
G01 X21.3003 Y150.6339
G01 X21.3048 Y150.6480
G01 X21.3237 Y150.7242
G01 X21.3347 Y150.7969
G01 X21.3366 Y150.8165
G01 X21.3400 Y150.8900
G01 X21.3399 Y151.2949
G01 X21.3359 Y151.3733
G01 X21.3237 Y151.4558
G01 X21.3034 Y151.5367
G01 X21.2788 Y151.6061
G01 X21.2734 Y151.6198
G01 X21.2440 Y151.6819
G01 X21.2348 Y151.6992
G01 X21.1967 Y151.7622
G01 X21.1531 Y151.8215
G01 X21.1406 Y151.8367
G01 X21.0910 Y151.8910
G01 X21.0292 Y151.9471
G01 X20.9622 Y151.9967
G01 X20.8992 Y152.0348
G01 X20.8819 Y152.0440
G01 X20.8243 Y152.0713
G01 X20.8061 Y152.0788
G01 X20.7367 Y152.1034
G01 X20.6654 Y152.1215
G01 X20.6462 Y152.1253
G01 X20.5831 Y152.1347
G01 X20.5635 Y152.1366
G01 X20.4900 Y152.1400
G01 X20.4165 Y152.1366
G01 X20.3969 Y152.1347
G01 X20.3242 Y152.1237
G01 X20.2433 Y152.1034
G01 X20.1647 Y152.0753
G01 X20.0893 Y152.0396
G01 X20.0178 Y151.9967
G01 X19.9585 Y151.9531
G01 X19.9433 Y151.9406
G01 X19.8961 Y151.8978
G01 X19.8822 Y151.8839
G01 X19.8329 Y151.8292
G01 X19.7833 Y151.7622
G01 X19.7404 Y151.6907
G01 X19.7066 Y151.6198
G01 X19.7012 Y151.6061
G01 X19.6766 Y151.5367
G01 X19.6585 Y151.4654
G01 X19.6547 Y151.4462
G01 X19.6453 Y151.3831
G01 X19.6434 Y151.3635
G01 X19.6400 Y151.2900
G01 X19.6401 Y150.8851
G01 X19.6441 Y150.8067
G01 X19.6547 Y150.7338
G01 X19.6585 Y150.7146
G01 X19.6766 Y150.6433
G01 X19.7047 Y150.5647
G01 X19.7404 Y150.4893
G01 X19.7780 Y150.4261
G01 X19.7860 Y150.4137
G01 X19.8329 Y150.3508
G01 X19.8822 Y150.2961
G01 X19.8925 Y150.2855
G01 X19.9433 Y150.2394
G01 X19.9546 Y150.2299
G01 X20.0137 Y150.1860
G01 X20.0261 Y150.1780
G01 X20.0549 Y150.1607
G01 X20.0549 Y149.4507
G01 X18.9943 Y148.3901
G01 X15.2351 Y148.3900
G01 X15.2057 Y148.3886
G01 X15.1910 Y148.3870
G01 X15.1619 Y148.3824
G01 X15.1286 Y148.3742
G01 X15.1145 Y148.3698
G01 X15.0869 Y148.3596
G01 X15.0558 Y148.3451
G01 X15.0429 Y148.3380
G01 X15.0177 Y148.3227
G01 X14.9939 Y148.3053
G01 X14.9824 Y148.2961
G01 X14.9571 Y148.2729
G01 X9.7690 Y143.0848
G01 X9.7571 Y143.0825
G01 X9.7333 Y143.0766
G01 X9.7145 Y143.0709
G01 X9.6869 Y143.0608
G01 X9.6514 Y143.0440
G01 X9.6177 Y143.0238
G01 X9.5939 Y143.0065
G01 X9.5824 Y142.9973
G01 X9.5571 Y142.9740
G01 X9.5307 Y142.9450
G01 X9.5130 Y142.9214
G01 X9.5047 Y142.9093
G01 X9.4871 Y142.8797
G01 X9.4723 Y142.8488
G01 X9.4668 Y142.8351
G01 X9.4571 Y142.8073
G01 X9.4497 Y142.7788
G01 X9.4467 Y142.7644
G01 X9.4424 Y142.7352
G01 X9.4411 Y142.7206
G01 X9.4399 Y142.6911
G01 X9.4399 Y92.4057
G01 X7.9628 Y90.9287
G01 X7.9473 Y90.9263
G01 X7.9377 Y90.9244
G01 X7.8996 Y90.9148
G01 X7.8855 Y90.9104
G01 X7.8487 Y90.8969
G01 X7.8131 Y90.8804
G01 X7.8000 Y90.8736
G01 X7.7663 Y90.8534
G01 X7.7582 Y90.8480
G01 X7.7475 Y90.8401
G01 X5.6108 Y90.8401
G01 X5.6061 Y90.8508
G01 X5.5704 Y90.9262
G01 X5.5612 Y90.9435
G01 X5.5130 Y91.0233
G01 X5.4517 Y91.1061
G01 X5.3825 Y91.1825
G01 X5.3135 Y91.2452
G01 X5.2984 Y91.2577
G01 X5.2233 Y91.3130
G01 X5.1435 Y91.3612
G01 X5.1262 Y91.3704
G01 X5.0418 Y91.4101
G01 X4.9448 Y91.4448
G01 X4.8448 Y91.4698
G01 X4.7527 Y91.4837
G01 X4.7331 Y91.4857
G01 X4.6400 Y91.4900
G01 X4.5371 Y91.4849
G01 X4.4448 Y91.4715
G01 X4.4256 Y91.4677
G01 X4.3352 Y91.4448
G01 X4.2473 Y91.4136
G01 X4.2292 Y91.4061
G01 X4.1450 Y91.3660
G01 X4.0567 Y91.3130
G01 X3.9739 Y91.2517
G01 X3.9046 Y91.1892
G01 X3.8908 Y91.1754
G01 X3.8283 Y91.1061
G01 X3.7726 Y91.0314
G01 X3.7617 Y91.0151
G01 X3.7140 Y90.9350
G01 X3.6699 Y90.8418
G01 X3.6352 Y90.7448
G01 X3.6102 Y90.6448
G01 X3.5951 Y90.5429
G01 X3.5900 Y90.4400
G01 X3.5951 Y90.3371
G01 X3.6102 Y90.2352
G01 X3.6352 Y90.1352
G01 X3.6699 Y90.0382
G01 X3.7140 Y89.9450
G01 X3.7670 Y89.8567
G01 X3.8283 Y89.7739
G01 X3.8975 Y89.6975
G01 X3.9739 Y89.6283
G01 X4.0567 Y89.5670
G01 X4.1450 Y89.5140
G01 X4.2382 Y89.4699
G01 X4.3352 Y89.4352
G01 X4.4352 Y89.4102
G01 X4.5371 Y89.3951
G01 X4.6400 Y89.3900
G01 X4.7429 Y89.3951
G01 X4.8448 Y89.4102
G01 X4.9448 Y89.4352
G01 X5.0418 Y89.4699
G01 X5.1350 Y89.5140
G01 X5.2233 Y89.5670
G01 X5.3061 Y89.6283
G01 X5.3825 Y89.6975
G01 X5.4517 Y89.7739
G01 X5.5130 Y89.8567
G01 X5.5660 Y89.9450
G01 X5.6061 Y90.0292
G01 X5.6108 Y90.0399
G00 Z2.0000
G00 X5.4900 Y91.9300
G01 F60.00
G01 Z-0.1000
G01 F100.00
G01 X5.5047 Y91.9305
G01 X5.5242 Y91.9329
G01 X5.5433 Y91.9372
G01 X5.5620 Y91.9434
G01 X5.5799 Y91.9514
G01 X5.5970 Y91.9610
G01 X5.6130 Y91.9723
G01 X5.6279 Y91.9852
G01 X5.6414 Y91.9994
G01 X5.6506 Y92.0109
G01 X5.6615 Y92.0272
G01 X5.6708 Y92.0445
G01 X5.6783 Y92.0626
G01 X5.6840 Y92.0814
G01 X5.6871 Y92.0958
G01 X5.6895 Y92.1153
G01 X5.6900 Y92.1300
G01 X5.6899 Y93.8349
G01 X5.6885 Y93.8545
G01 X5.6851 Y93.8738
G01 X5.6814 Y93.8881
G01 X5.6748 Y93.9065
G01 X5.6664 Y93.9243
G01 X5.6590 Y93.9370
G01 X5.6506 Y93.9491
G01 X5.6382 Y93.9643
G01 X5.6243 Y93.9782
G01 X5.6091 Y93.9906
G01 X5.5928 Y94.0015
G01 X5.5799 Y94.0086
G01 X5.5710 Y94.0128
G01 X5.5527 Y94.0199
G01 X5.5338 Y94.0251
G01 X5.5145 Y94.0285
G01 X5.4998 Y94.0298
G01 X5.4900 Y94.0300
G01 X3.7851 Y94.0299
G01 X3.7655 Y94.0285
G01 X3.7462 Y94.0251
G01 X3.7273 Y94.0199
G01 X3.7135 Y94.0148
G01 X3.6957 Y94.0064
G01 X3.6830 Y93.9990
G01 X3.6670 Y93.9877
G01 X3.6557 Y93.9782
G01 X3.6418 Y93.9643
G01 X3.6294 Y93.9491
G01 X3.6185 Y93.9328
G01 X3.6136 Y93.9243
G01 X3.6072 Y93.9110
G01 X3.6034 Y93.9020
G01 X3.5986 Y93.8881
G01 X3.5938 Y93.8690
G01 X3.5910 Y93.8496
G01 X3.5900 Y93.8300
G01 X3.5901 Y92.1251
G01 X3.5910 Y92.1104
G01 X3.5938 Y92.0910
G01 X3.5986 Y92.0719
G01 X3.6034 Y92.0580
G01 X3.6092 Y92.0445
G01 X3.6185 Y92.0272
G01 X3.6294 Y92.0109
G01 X3.6418 Y91.9957
G01 X3.6486 Y91.9886
G01 X3.6594 Y91.9786
G01 X3.6748 Y91.9665
G01 X3.6914 Y91.9560
G01 X3.7090 Y91.9472
G01 X3.7273 Y91.9401
G01 X3.7462 Y91.9349
G01 X3.7655 Y91.9315
G01 X3.7851 Y91.9301
G01 X5.4900 Y91.9300
G00 Z2.0000
G00 X4.2909 Y99.4285
G01 F60.00
G01 Z-0.1000
G01 F100.00
G01 X4.1036 Y99.3203
G01 X3.9319 Y99.1886
G01 X3.7789 Y99.0356
G01 X3.6472 Y98.8639
G01 X3.5390 Y98.6766
G01 X3.4562 Y98.4767
G01 X3.4002 Y98.2677
G01 X3.3720 Y98.0532
G01 X3.3720 Y97.8368
G01 X3.4002 Y97.6223
G01 X3.4562 Y97.4133
G01 X3.5390 Y97.2134
G01 X3.6472 Y97.0261
G01 X3.7789 Y96.8544
G01 X3.9319 Y96.7014
G01 X4.1036 Y96.5697
G01 X4.2909 Y96.4615
G01 X4.4908 Y96.3787
G01 X4.6998 Y96.3227
G01 X4.9143 Y96.2945
G01 X5.1307 Y96.2945
G01 X5.3452 Y96.3227
G01 X5.5542 Y96.3787
G01 X5.7541 Y96.4615
G01 X5.9414 Y96.5697
G01 X6.1131 Y96.7014
G01 X6.2661 Y96.8544
G01 X6.3978 Y97.0261
G01 X6.4904 Y97.1866
G01 X6.5060 Y97.2134
G01 X6.5888 Y97.4133
G01 X6.6448 Y97.6223
G01 X6.6730 Y97.8368
G01 X6.6730 Y98.0532
G01 X6.6448 Y98.2677
G01 X6.5888 Y98.4767
G01 X6.5060 Y98.6766
G01 X6.3978 Y98.8639
G01 X6.2661 Y99.0356
G01 X6.1131 Y99.1886
G01 X5.9414 Y99.3203
G01 X5.9246 Y99.3300
G01 X5.7541 Y99.4285
G01 X5.5542 Y99.5113
G01 X5.3452 Y99.5673
G01 X5.1307 Y99.5955
G01 X4.9143 Y99.5955
G01 X4.6998 Y99.5673
G01 X4.4908 Y99.5113
G01 X4.2909 Y99.4285
G00 Z2.0000
G00 X6.6730 Y103.0532
G01 F60.00
G01 Z-0.1000
G01 F100.00
G01 X6.6448 Y103.2677
G01 X6.5888 Y103.4767
G01 X6.5060 Y103.6766
G01 X6.3978 Y103.8639
G01 X6.2661 Y104.0356
G01 X6.1131 Y104.1886
G01 X5.9414 Y104.3203
G01 X5.7541 Y104.4285
G01 X5.5542 Y104.5113
G01 X5.3452 Y104.5673
G01 X5.1307 Y104.5955
G01 X4.9143 Y104.5955
G01 X4.6998 Y104.5673
G01 X4.4908 Y104.5113
G01 X4.2909 Y104.4285
G01 X4.1036 Y104.3203
G01 X3.9319 Y104.1886
G01 X3.7789 Y104.0356
G01 X3.6472 Y103.8639
G01 X3.5390 Y103.6766
G01 X3.4562 Y103.4767
G01 X3.4002 Y103.2677
G01 X3.3720 Y103.0532
G01 X3.3720 Y102.8368
G01 X3.4002 Y102.6223
G01 X3.4562 Y102.4133
G01 X3.5390 Y102.2134
G01 X3.6472 Y102.0261
G01 X3.7789 Y101.8544
G01 X3.9319 Y101.7014
G01 X4.1036 Y101.5697
G01 X4.2909 Y101.4615
G01 X4.4908 Y101.3787
G01 X4.6998 Y101.3227
G01 X4.9143 Y101.2945
G01 X5.1307 Y101.2945
G01 X5.3452 Y101.3227
G01 X5.5542 Y101.3787
G01 X5.7541 Y101.4615
G01 X5.9414 Y101.5697
G01 X6.1131 Y101.7014
G01 X6.2661 Y101.8544
G01 X6.3978 Y102.0261
G01 X6.5060 Y102.2134
G01 X6.5888 Y102.4133
G01 X6.6450 Y102.6238
G01 X6.6730 Y102.8368
G01 X6.6730 Y103.0532
G00 Z2.0000
G00 X5.0900 Y106.9524
G01 F60.00
G01 Z-0.1000
G01 F100.00
G01 X5.0900 Y106.8410
G01 X5.2172 Y106.9003
G01 X5.3820 Y107.0157
G01 X5.5243 Y107.1580
G01 X5.6397 Y107.3228
G01 X5.6990 Y107.4500
G01 X5.5876 Y107.4500
G01 X5.5704 Y107.4138
G01 X5.5637 Y107.4007
G01 X5.5183 Y107.3249
G01 X5.5103 Y107.3126
G01 X5.4517 Y107.2339
G01 X5.3825 Y107.1575
G01 X5.3061 Y107.0883
G01 X5.2274 Y107.0297
G01 X5.2151 Y107.0217
G01 X5.1393 Y106.9763
G01 X5.1262 Y106.9696
G01 X5.0900 Y106.9524
G00 Z2.0000
G00 X3.5857 Y107.4399
G01 F60.00
G01 Z-0.1000
G01 F100.00
G01 X3.6403 Y107.3228
G01 X3.7557 Y107.1580
G01 X3.8980 Y107.0157
G01 X4.0628 Y106.9003
G01 X4.1900 Y106.8410
G01 X4.1900 Y106.9524
G01 X4.1538 Y106.9696
G01 X4.1407 Y106.9763
G01 X4.0649 Y107.0217
G01 X4.0526 Y107.0297
G01 X3.9739 Y107.0883
G01 X3.8975 Y107.1575
G01 X3.8283 Y107.2339
G01 X3.7697 Y107.3126
G01 X3.7617 Y107.3249
G01 X3.7163 Y107.4007
G01 X3.7117 Y107.4094
G01 X3.6972 Y107.4399
G01 X3.5857 Y107.4399
G00 Z2.0000
G00 X5.6108 Y110.0399
G01 F60.00
G01 Z-0.1000
G01 F100.00
G01 X7.6840 Y110.0399
G01 X7.7122 Y110.0193
G01 X7.7458 Y109.9989
G01 X7.7587 Y109.9918
G01 X7.7941 Y109.9750
G01 X7.8078 Y109.9695
G01 X7.8449 Y109.9565
G01 X7.8829 Y109.9468
G01 X7.8973 Y109.9437
G01 X7.9410 Y109.9374
G01 X7.9802 Y109.9352
G01 X7.9949 Y109.9351
G01 X8.0341 Y109.9370
G01 X8.0488 Y109.9386
G01 X8.0875 Y109.9446
G01 X8.1257 Y109.9539
G01 X8.1445 Y109.9596
G01 X8.1813 Y109.9731
G01 X8.2169 Y109.9896
G01 X8.2342 Y109.9989
G01 X8.2678 Y110.0193
G01 X8.2995 Y110.0425
G01 X8.3146 Y110.0549
G01 X8.3436 Y110.0814
G01 X8.3733 Y110.1140
G01 X8.3796 Y110.1216
G01 X8.4001 Y110.1492
G01 X8.4110 Y110.1655
G01 X8.4310 Y110.1993
G01 X8.4519 Y110.2437
G01 X8.4654 Y110.2805
G01 X8.4711 Y110.2993
G01 X8.4804 Y110.3375
G01 X8.4874 Y110.3844
G01 X9.0742 Y111.0133
G01 X9.0886 Y111.0185
G01 X9.0976 Y111.0222
G01 X9.1242 Y111.0348
G01 X9.1371 Y111.0419
G01 X9.1623 Y111.0573
G01 X9.1900 Y111.0776
G01 X9.2013 Y111.0871
G01 X9.2229 Y111.1070
G01 X9.2429 Y111.1287
G01 X9.2553 Y111.1439
G01 X9.2699 Y111.1636
G01 X9.2753 Y111.1718
G01 X9.2929 Y111.2013
G01 X9.3077 Y111.2323
G01 X9.3115 Y111.2414
G01 X9.3198 Y111.2645
G01 X9.3255 Y111.2833
G01 X9.3324 Y111.3119
G01 X9.3376 Y111.3458
G01 X9.3389 Y111.3605
G01 X9.3401 Y111.3899
G01 X9.3401 Y142.9743
G01 X14.8357 Y148.4699
G01 X17.8300 Y148.4699
G01 X17.8660 Y148.4715
G01 X17.8995 Y148.4760
G01 X17.9123 Y148.4785
G01 X17.9325 Y148.4834
G01 X17.9503 Y148.4884
G01 X17.9750 Y148.4971
G01 X17.9871 Y148.5021
G01 X18.0109 Y148.5131
G01 X18.0271 Y148.5220
G01 X18.0514 Y148.5367
G01 X18.0726 Y148.5520
G01 X18.0872 Y148.5635
G01 X18.1063 Y148.5806
G01 X19.5097 Y149.9539
G01 X19.5329 Y149.9792
G01 X19.5566 Y150.0105
G01 X19.5772 Y150.0440
G01 X19.5943 Y150.0793
G01 X19.6080 Y150.1161
G01 X19.6179 Y150.1541
G01 X19.6241 Y150.1928
G01 X19.6263 Y150.2271
G01 X19.6263 Y150.2419
G01 X19.6250 Y150.2713
G01 X19.6212 Y150.3005
G01 X19.6187 Y150.3150
G01 X19.6130 Y150.3389
G01 X19.6091 Y150.3531
G01 X19.5994 Y150.3809
G01 X19.5958 Y150.3900
G01 X19.5901 Y150.4026
G01 X19.5901 Y152.1742
G01 X20.0796 Y152.6637
G01 X20.0973 Y152.6564
G01 X20.1852 Y152.6252
G01 X20.2756 Y152.6023
G01 X20.2948 Y152.5985
G01 X20.3871 Y152.5851
G01 X20.4802 Y152.5802
G01 X20.4998 Y152.5802
G01 X20.5929 Y152.5851
G01 X20.6948 Y152.6002
G01 X20.7853 Y152.6226
G01 X20.8041 Y152.6283
G01 X20.8827 Y152.6564
G01 X20.9008 Y152.6639
G01 X20.9850 Y152.7040
G01 X21.0651 Y152.7517
G01 X21.0814 Y152.7626
G01 X21.1484 Y152.8123
G01 X21.1635 Y152.8248
G01 X21.2325 Y152.8875
G01 X21.2952 Y152.9565
G01 X21.3077 Y152.9716
G01 X21.3630 Y153.0467
G01 X21.4160 Y153.1350
G01 X21.4601 Y153.2282
G01 X21.4917 Y153.3159
G01 X21.4962 Y153.3299
G01 X21.5198 Y153.4252
G01 X21.5349 Y153.5271
G01 X21.5400 Y153.6300
G01 X21.5349 Y153.7329
G01 X21.5198 Y153.8348
G01 X21.4948 Y153.9348
G01 X21.4601 Y154.0318
G01 X21.4160 Y154.1250
G01 X21.3630 Y154.2133
G01 X21.3017 Y154.2961
G01 X21.2325 Y154.3725
G01 X21.1561 Y154.4417
G01 X21.0733 Y154.5030
G01 X20.9850 Y154.5560
G01 X20.8918 Y154.6001
G01 X20.7995 Y154.6333
G01 X20.7853 Y154.6374
G01 X20.6948 Y154.6598
G01 X20.6027 Y154.6737
G01 X20.5831 Y154.6757
G01 X20.4998 Y154.6798
G01 X20.4802 Y154.6798
G01 X20.3871 Y154.6749
G01 X20.2852 Y154.6598
G01 X20.1852 Y154.6348
G01 X20.0882 Y154.6001
G01 X19.9950 Y154.5560
G01 X19.9149 Y154.5083
G01 X19.8986 Y154.4974
G01 X19.8316 Y154.4477
G01 X19.8165 Y154.4352
G01 X19.7475 Y154.3725
G01 X19.6783 Y154.2961
G01 X19.6170 Y154.2133
G01 X19.5688 Y154.1335
G01 X19.5596 Y154.1162
G01 X19.5199 Y154.0318
G01 X19.4852 Y153.9348
G01 X19.4602 Y153.8348
G01 X19.4463 Y153.7427
G01 X19.4443 Y153.7231
G01 X19.4402 Y153.6398
G01 X19.4402 Y153.6202
G01 X19.4451 Y153.5271
G01 X19.4585 Y153.4348
G01 X19.4623 Y153.4156
G01 X19.4852 Y153.3252
G01 X19.5178 Y153.2336
G01 X18.9571 Y152.6729
G01 X18.9339 Y152.6476
G01 X18.9277 Y152.6400
G01 X18.9130 Y152.6203
G01 X18.9047 Y152.6082
G01 X18.8871 Y152.5786
G01 X18.8743 Y152.5521
G01 X18.8685 Y152.5386
G01 X18.8571 Y152.5061
G01 X18.8497 Y152.4776
G01 X18.8467 Y152.4632
G01 X18.8418 Y152.4292
G01 X18.8399 Y152.3900
G01 X18.8418 Y152.3508
G01 X18.8467 Y152.3168
G01 X18.8497 Y152.3024
G01 X18.8558 Y152.2786
G01 X18.8586 Y152.2692
G01 X18.8668 Y152.2460
G01 X18.8743 Y152.2279
G01 X18.8849 Y152.2058
G01 X18.8899 Y152.1964
G01 X18.8899 Y150.4669
G01 X17.6668 Y149.2701
G01 X14.6842 Y149.2700
G01 X14.6498 Y149.2682
G01 X14.6110 Y149.2624
G01 X14.5729 Y149.2529
G01 X14.5451 Y149.2432
G01 X14.5314 Y149.2377
G01 X14.5005 Y149.2229
G01 X14.4709 Y149.2053
G01 X14.4588 Y149.1971
G01 X14.4437 Y149.1889
G01 X14.4186 Y149.1735
G01 X14.3871 Y149.1502
G01 X14.3580 Y149.1238
G01 X8.6571 Y143.4229
G01 X8.6371 Y143.4013
G01 X8.6277 Y143.3900
G01 X8.6101 Y143.3663
G01 X8.6021 Y143.3540
G01 X8.5871 Y143.3286
G01 X8.5743 Y143.3021
G01 X8.5685 Y143.2886
G01 X8.5586 Y143.2608
G01 X8.5558 Y143.2514
G01 X8.5497 Y143.2276
G01 X8.5459 Y143.2084
G01 X8.5418 Y143.1792
G01 X8.5399 Y143.1400
G01 X8.5399 Y111.6136
G01 X7.8970 Y110.9262
G01 X7.8829 Y110.9232
G01 X7.8449 Y110.9135
G01 X7.8078 Y110.9005
G01 X7.7941 Y110.8950
G01 X7.7631 Y110.8804
G01 X7.7500 Y110.8736
G01 X7.7163 Y110.8534
G01 X7.7082 Y110.8480
G01 X7.6975 Y110.8401
G01 X5.6108 Y110.8401
G01 X5.6061 Y110.8508
G01 X5.5704 Y110.9262
G01 X5.5612 Y110.9435
G01 X5.5130 Y111.0233
G01 X5.4517 Y111.1061
G01 X5.3825 Y111.1825
G01 X5.3135 Y111.2452
G01 X5.2984 Y111.2577
G01 X5.2233 Y111.3130
G01 X5.1435 Y111.3612
G01 X5.1262 Y111.3704
G01 X5.0418 Y111.4101
G01 X4.9448 Y111.4448
G01 X4.8448 Y111.4698
G01 X4.7527 Y111.4837
G01 X4.7331 Y111.4857
G01 X4.6400 Y111.4900
G01 X4.5371 Y111.4849
G01 X4.4448 Y111.4715
G01 X4.4256 Y111.4677
G01 X4.3352 Y111.4448
G01 X4.2473 Y111.4136
G01 X4.2292 Y111.4061
G01 X4.1450 Y111.3660
G01 X4.0567 Y111.3130
G01 X3.9739 Y111.2517
G01 X3.9046 Y111.1892
G01 X3.8908 Y111.1754
G01 X3.8283 Y111.1061
G01 X3.7726 Y111.0314
G01 X3.7617 Y111.0151
G01 X3.7140 Y110.9350
G01 X3.6699 Y110.8418
G01 X3.6352 Y110.7448
G01 X3.6102 Y110.6448
G01 X3.5951 Y110.5429
G01 X3.5900 Y110.4400
G01 X3.5951 Y110.3371
G01 X3.6102 Y110.2352
G01 X3.6352 Y110.1352
G01 X3.6699 Y110.0382
G01 X3.7140 Y109.9450
G01 X3.7670 Y109.8567
G01 X3.8283 Y109.7739
G01 X3.8975 Y109.6975
G01 X3.9739 Y109.6283
G01 X4.0567 Y109.5670
G01 X4.1450 Y109.5140
G01 X4.2382 Y109.4699
G01 X4.3352 Y109.4352
G01 X4.4352 Y109.4102
G01 X4.5371 Y109.3951
G01 X4.6400 Y109.3900
G01 X4.7429 Y109.3951
G01 X4.8448 Y109.4102
G01 X4.9448 Y109.4352
G01 X5.0418 Y109.4699
G01 X5.1350 Y109.5140
G01 X5.2233 Y109.5670
G01 X5.3061 Y109.6283
G01 X5.3825 Y109.6975
G01 X5.4517 Y109.7739
G01 X5.5130 Y109.8567
G01 X5.5660 Y109.9450
G01 X5.6061 Y110.0292
G01 X5.6108 Y110.0399
G00 Z2.0000
G00 X5.4900 Y111.9300
G01 F60.00
G01 Z-0.1000
G01 F100.00
G01 X5.5047 Y111.9305
G01 X5.5242 Y111.9329
G01 X5.5433 Y111.9372
G01 X5.5620 Y111.9434
G01 X5.5799 Y111.9514
G01 X5.5970 Y111.9610
G01 X5.6130 Y111.9723
G01 X5.6279 Y111.9852
G01 X5.6414 Y111.9994
G01 X5.6506 Y112.0109
G01 X5.6615 Y112.0272
G01 X5.6708 Y112.0445
G01 X5.6783 Y112.0626
G01 X5.6840 Y112.0814
G01 X5.6871 Y112.0958
G01 X5.6895 Y112.1153
G01 X5.6900 Y112.1300
G01 X5.6899 Y113.8349
G01 X5.6885 Y113.8545
G01 X5.6851 Y113.8738
G01 X5.6814 Y113.8881
G01 X5.6748 Y113.9065
G01 X5.6664 Y113.9243
G01 X5.6590 Y113.9370
G01 X5.6506 Y113.9491
G01 X5.6382 Y113.9643
G01 X5.6243 Y113.9782
G01 X5.6091 Y113.9906
G01 X5.5928 Y114.0015
G01 X5.5799 Y114.0086
G01 X5.5710 Y114.0128
G01 X5.5527 Y114.0199
G01 X5.5338 Y114.0251
G01 X5.5145 Y114.0285
G01 X5.4998 Y114.0298
G01 X5.4900 Y114.0300
G01 X3.7851 Y114.0299
G01 X3.7655 Y114.0285
G01 X3.7462 Y114.0251
G01 X3.7273 Y114.0199
G01 X3.7135 Y114.0148
G01 X3.6957 Y114.0064
G01 X3.6830 Y113.9990
G01 X3.6670 Y113.9877
G01 X3.6557 Y113.9782
G01 X3.6418 Y113.9643
G01 X3.6294 Y113.9491
G01 X3.6185 Y113.9328
G01 X3.6136 Y113.9243
G01 X3.6072 Y113.9110
G01 X3.6034 Y113.9020
G01 X3.5986 Y113.8881
G01 X3.5938 Y113.8690
G01 X3.5910 Y113.8496
G01 X3.5900 Y113.8300
G01 X3.5901 Y112.1251
G01 X3.5910 Y112.1104
G01 X3.5938 Y112.0910
G01 X3.5986 Y112.0719
G01 X3.6034 Y112.0580
G01 X3.6092 Y112.0445
G01 X3.6185 Y112.0272
G01 X3.6294 Y112.0109
G01 X3.6418 Y111.9957
G01 X3.6486 Y111.9886
G01 X3.6594 Y111.9786
G01 X3.6748 Y111.9665
G01 X3.6914 Y111.9560
G01 X3.7090 Y111.9472
G01 X3.7273 Y111.9401
G01 X3.7462 Y111.9349
G01 X3.7655 Y111.9315
G01 X3.7851 Y111.9301
G01 X5.4900 Y111.9300
G00 Z2.0000
G00 X4.2909 Y119.4285
G01 F60.00
G01 Z-0.1000
G01 F100.00
G01 X4.1036 Y119.3203
G01 X3.9319 Y119.1886
G01 X3.7789 Y119.0356
G01 X3.6472 Y118.8639
G01 X3.5390 Y118.6766
G01 X3.4562 Y118.4767
G01 X3.4002 Y118.2677
G01 X3.3720 Y118.0532
G01 X3.3720 Y117.8368
G01 X3.4002 Y117.6223
G01 X3.4562 Y117.4133
G01 X3.5390 Y117.2134
G01 X3.6472 Y117.0261
G01 X3.7789 Y116.8544
G01 X3.9319 Y116.7014
G01 X4.1036 Y116.5697
G01 X4.2909 Y116.4615
G01 X4.4908 Y116.3787
G01 X4.6998 Y116.3227
G01 X4.9143 Y116.2945
G01 X5.1307 Y116.2945
G01 X5.3452 Y116.3227
G01 X5.5542 Y116.3787
G01 X5.7541 Y116.4615
G01 X5.9414 Y116.5697
G01 X6.1131 Y116.7014
G01 X6.2661 Y116.8544
G01 X6.3978 Y117.0261
G01 X6.4904 Y117.1866
G01 X6.5060 Y117.2134
G01 X6.5888 Y117.4133
G01 X6.6448 Y117.6223
G01 X6.6730 Y117.8368
G01 X6.6730 Y118.0532
G01 X6.6448 Y118.2677
G01 X6.5888 Y118.4767
G01 X6.5060 Y118.6766
G01 X6.3978 Y118.8639
G01 X6.2661 Y119.0356
G01 X6.1131 Y119.1886
G01 X5.9414 Y119.3203
G01 X5.9246 Y119.3300
G01 X5.7541 Y119.4285
G01 X5.5542 Y119.5113
G01 X5.3452 Y119.5673
G01 X5.1307 Y119.5955
G01 X4.9143 Y119.5955
G01 X4.6998 Y119.5673
G01 X4.4908 Y119.5113
G01 X4.2909 Y119.4285
G00 Z2.0000
G00 X6.6730 Y123.0532
G01 F60.00
G01 Z-0.1000
G01 F100.00
G01 X6.6448 Y123.2677
G01 X6.5888 Y123.4767
G01 X6.5060 Y123.6766
G01 X6.3978 Y123.8639
G01 X6.2661 Y124.0356
G01 X6.1131 Y124.1886
G01 X5.9414 Y124.3203
G01 X5.7541 Y124.4285
G01 X5.5542 Y124.5113
G01 X5.3452 Y124.5673
G01 X5.1307 Y124.5955
G01 X4.9143 Y124.5955
G01 X4.6998 Y124.5673
G01 X4.4908 Y124.5113
G01 X4.2909 Y124.4285
G01 X4.1036 Y124.3203
G01 X3.9319 Y124.1886
G01 X3.7789 Y124.0356
G01 X3.6472 Y123.8639
G01 X3.5390 Y123.6766
G01 X3.4562 Y123.4767
G01 X3.4002 Y123.2677
G01 X3.3720 Y123.0532
G01 X3.3720 Y122.8368
G01 X3.4002 Y122.6223
G01 X3.4562 Y122.4133
G01 X3.5390 Y122.2134
G01 X3.6472 Y122.0261
G01 X3.7789 Y121.8544
G01 X3.9319 Y121.7014
G01 X4.1036 Y121.5697
G01 X4.2909 Y121.4615
G01 X4.4908 Y121.3787
G01 X4.6998 Y121.3227
G01 X4.9143 Y121.2945
G01 X5.1307 Y121.2945
G01 X5.3452 Y121.3227
G01 X5.5542 Y121.3787
G01 X5.7541 Y121.4615
G01 X5.9414 Y121.5697
G01 X6.1131 Y121.7014
G01 X6.2661 Y121.8544
G01 X6.3978 Y122.0261
G01 X6.5060 Y122.2134
G01 X6.5888 Y122.4133
G01 X6.6450 Y122.6238
G01 X6.6730 Y122.8368
G01 X6.6730 Y123.0532
G00 Z2.0000
G00 X5.0900 Y126.9524
G01 F60.00
G01 Z-0.1000
G01 F100.00
G01 X5.0900 Y126.8410
G01 X5.2172 Y126.9003
G01 X5.3820 Y127.0157
G01 X5.5243 Y127.1580
G01 X5.6397 Y127.3228
G01 X5.6990 Y127.4500
G01 X5.5876 Y127.4500
G01 X5.5704 Y127.4138
G01 X5.5637 Y127.4007
G01 X5.5183 Y127.3249
G01 X5.5103 Y127.3126
G01 X5.4517 Y127.2339
G01 X5.3825 Y127.1575
G01 X5.3061 Y127.0883
G01 X5.2274 Y127.0297
G01 X5.2151 Y127.0217
G01 X5.1393 Y126.9763
G01 X5.1262 Y126.9696
G01 X5.0900 Y126.9524
G00 Z2.0000
G00 X3.6090 Y127.3899
G01 F60.00
G01 Z-0.1000
G01 F100.00
G01 X3.6403 Y127.3228
G01 X3.7557 Y127.1580
G01 X3.8980 Y127.0157
G01 X4.0628 Y126.9003
G01 X4.1900 Y126.8410
G01 X4.1900 Y126.9524
G01 X4.1538 Y126.9696
G01 X4.1407 Y126.9763
G01 X4.0649 Y127.0217
G01 X4.0526 Y127.0297
G01 X3.9739 Y127.0883
G01 X3.9011 Y127.1541
G01 X3.8908 Y127.1646
G01 X3.8348 Y127.2265
G01 X3.8223 Y127.2416
G01 X3.7670 Y127.3167
G01 X3.7228 Y127.3899
G01 X3.6090 Y127.3899
G00 Z2.0000
G00 X5.5875 Y130.8901
G01 F60.00
G01 Z-0.1000
G01 F100.00
G01 X5.5704 Y130.9262
G01 X5.5637 Y130.9393
G01 X5.5157 Y131.0192
G01 X5.5074 Y131.0314
G01 X5.4547 Y131.1023
G01 X5.4452 Y131.1135
G01 X5.3825 Y131.1825
G01 X5.3099 Y131.2485
G01 X5.2984 Y131.2577
G01 X5.2233 Y131.3130
G01 X5.1350 Y131.3660
G01 X5.0418 Y131.4101
G01 X4.9495 Y131.4433
G01 X4.9353 Y131.4474
G01 X4.8448 Y131.4698
G01 X4.7429 Y131.4849
G01 X4.6400 Y131.4900
G01 X4.5371 Y131.4849
G01 X4.4352 Y131.4698
G01 X4.3352 Y131.4448
G01 X4.2382 Y131.4101
G01 X4.1494 Y131.3683
G01 X4.1365 Y131.3612
G01 X4.0567 Y131.3130
G01 X3.9739 Y131.2517
G01 X3.8975 Y131.1825
G01 X3.8283 Y131.1061
G01 X3.7670 Y131.0233
G01 X3.7140 Y130.9350
G01 X3.6699 Y130.8418
G01 X3.6352 Y130.7448
G01 X3.6102 Y130.6448
G01 X3.5951 Y130.5429
G01 X3.5900 Y130.4400
G01 X3.5951 Y130.3371
G01 X3.6102 Y130.2352
G01 X3.6352 Y130.1352
G01 X3.6699 Y130.0382
G01 X3.7117 Y129.9494
G01 X3.7188 Y129.9365
G01 X3.7617 Y129.8649
G01 X3.7726 Y129.8486
G01 X3.8283 Y129.7739
G01 X3.8975 Y129.6975
G01 X3.9739 Y129.6283
G01 X4.0486 Y129.5726
G01 X4.0649 Y129.5617
G01 X4.1450 Y129.5140
G01 X4.2382 Y129.4699
G01 X4.3259 Y129.4383
G01 X4.3447 Y129.4326
G01 X4.4352 Y129.4102
G01 X4.5273 Y129.3963
G01 X4.5469 Y129.3943
G01 X4.6400 Y129.3900
G01 X4.7429 Y129.3951
G01 X4.8448 Y129.4102
G01 X4.9353 Y129.4326
G01 X4.9541 Y129.4383
G01 X5.0418 Y129.4699
G01 X5.1262 Y129.5096
G01 X5.1435 Y129.5188
G01 X5.2233 Y129.5670
G01 X5.3023 Y129.6253
G01 X5.3135 Y129.6348
G01 X5.3754 Y129.6908
G01 X5.3892 Y129.7046
G01 X5.4517 Y129.7739
G01 X5.5103 Y129.8526
G01 X5.5183 Y129.8649
G01 X5.5612 Y129.9365
G01 X5.5683 Y129.9494
G01 X5.6081 Y130.0337
G01 X5.6136 Y130.0473
G01 X5.6288 Y130.0899
G01 X7.6340 Y130.0899
G01 X7.6582 Y130.0720
G01 X7.6663 Y130.0666
G01 X7.6958 Y130.0489
G01 X7.7087 Y130.0418
G01 X7.7487 Y130.0231
G01 X7.7855 Y130.0096
G01 X7.7996 Y130.0052
G01 X7.8425 Y129.9946
G01 X7.8910 Y129.9874
G01 X7.9400 Y129.9850
G01 X7.9890 Y129.9874
G01 X8.0279 Y129.9929
G01 X8.0471 Y129.9968
G01 X8.0851 Y130.0065
G01 X8.1313 Y130.0231
G01 X8.1757 Y130.0440
G01 X8.2095 Y130.0640
G01 X8.2258 Y130.0749
G01 X8.2534 Y130.0954
G01 X8.2646 Y130.1049
G01 X8.2936 Y130.1314
G01 X8.3265 Y130.1678
G01 X8.3557 Y130.2072
G01 X8.3761 Y130.2408
G01 X8.3854 Y130.2581
G01 X8.4000 Y130.2891
G01 X8.4038 Y130.2982
G01 X8.4185 Y130.3399
G01 X8.4294 Y130.3827
G01 X8.4321 Y130.3971
G01 X8.4376 Y130.4360
G01 X8.4400 Y130.4850
G01 X8.4376 Y130.5340
G01 X8.4321 Y130.5729
G01 X8.4294 Y130.5873
G01 X8.4185 Y130.6301
G01 X8.4055 Y130.6672
G01 X8.4000 Y130.6809
G01 X8.3854 Y130.7119
G01 X8.3786 Y130.7250
G01 X8.3584 Y130.7587
G01 X8.3530 Y130.7668
G01 X8.3401 Y130.7843
G01 X8.3401 Y143.4243
G01 X15.0283 Y150.1125
G01 X15.1052 Y150.0852
G01 X15.2052 Y150.0602
G01 X15.3071 Y150.0451
G01 X15.4002 Y150.0402
G01 X15.4198 Y150.0402
G01 X15.5031 Y150.0443
G01 X15.5227 Y150.0463
G01 X15.6148 Y150.0602
G01 X15.7053 Y150.0826
G01 X15.7241 Y150.0883
G01 X15.8027 Y150.1164
G01 X15.8208 Y150.1239
G01 X15.9050 Y150.1640
G01 X15.9933 Y150.2170
G01 X16.0684 Y150.2723
G01 X16.0835 Y150.2848
G01 X16.1525 Y150.3475
G01 X16.2185 Y150.4201
G01 X16.2277 Y150.4316
G01 X16.2830 Y150.5067
G01 X16.3360 Y150.5950
G01 X16.3801 Y150.6882
G01 X16.4117 Y150.7759
G01 X16.4174 Y150.7947
G01 X16.4398 Y150.8852
G01 X16.4537 Y150.9773
G01 X16.4557 Y150.9969
G01 X16.4598 Y151.0802
G01 X16.4598 Y151.0998
G01 X16.4549 Y151.1929
G01 X16.4398 Y151.2948
G01 X16.4148 Y151.3948
G01 X16.3836 Y151.4827
G01 X16.3761 Y151.5008
G01 X16.3404 Y151.5762
G01 X16.3312 Y151.5935
G01 X16.2830 Y151.6733
G01 X16.2277 Y151.7484
G01 X16.2152 Y151.7635
G01 X16.1525 Y151.8325
G01 X16.0761 Y151.9017
G01 X15.9933 Y151.9630
G01 X15.9135 Y152.0112
G01 X15.8962 Y152.0204
G01 X15.8118 Y152.0601
G01 X15.7148 Y152.0948
G01 X15.6148 Y152.1198
G01 X15.5227 Y152.1337
G01 X15.5031 Y152.1357
G01 X15.4198 Y152.1398
G01 X15.4002 Y152.1398
G01 X15.3071 Y152.1349
G01 X15.2148 Y152.1215
G01 X15.1956 Y152.1177
G01 X15.1147 Y152.0974
G01 X15.0959 Y152.0917
G01 X15.0082 Y152.0601
G01 X14.9150 Y152.0160
G01 X14.8349 Y151.9683
G01 X14.8186 Y151.9574
G01 X14.7439 Y151.9017
G01 X14.6675 Y151.8325
G01 X14.5983 Y151.7561
G01 X14.5426 Y151.6814
G01 X14.5317 Y151.6651
G01 X14.4840 Y151.5850
G01 X14.4399 Y151.4918
G01 X14.4083 Y151.4041
G01 X14.4026 Y151.3853
G01 X14.3802 Y151.2948
G01 X14.3651 Y151.1929
G01 X14.3602 Y151.0998
G01 X14.3602 Y151.0802
G01 X14.3643 Y150.9969
G01 X14.3656 Y150.9822
G01 X14.3802 Y150.8852
G01 X14.4038 Y150.7899
G01 X14.4083 Y150.7759
G01 X14.4381 Y150.6927
G01 X14.4419 Y150.6837
G01 X14.4502 Y150.6660
G01 X7.6320 Y143.8479
G01 X7.6057 Y143.8188
G01 X7.5851 Y143.7913
G01 X7.5796 Y143.7831
G01 X7.5669 Y143.7621
G01 X7.5577 Y143.7448
G01 X7.5453 Y143.7181
G01 X7.5352 Y143.6904
G01 X7.5307 Y143.6764
G01 X7.5247 Y143.6526
G01 X7.5216 Y143.6382
G01 X7.5173 Y143.6091
G01 X7.5161 Y143.5944
G01 X7.5149 Y143.5650
G01 X7.5168 Y143.5257
G01 X7.5216 Y143.4917
G01 X7.5247 Y143.4773
G01 X7.5307 Y143.4535
G01 X7.5336 Y143.4441
G01 X7.5399 Y143.4263
G01 X7.5399 Y130.8901
G01 X5.5875 Y130.8901
G00 Z2.0000
G00 X5.4900 Y131.9300
G01 F60.00
G01 Z-0.1000
G01 F100.00
G01 X5.5096 Y131.9310
G01 X5.5290 Y131.9338
G01 X5.5481 Y131.9386
G01 X5.5620 Y131.9434
G01 X5.5799 Y131.9514
G01 X5.5970 Y131.9610
G01 X5.6130 Y131.9723
G01 X5.6279 Y131.9852
G01 X5.6382 Y131.9957
G01 X5.6506 Y132.0109
G01 X5.6615 Y132.0272
G01 X5.6708 Y132.0445
G01 X5.6783 Y132.0626
G01 X5.6840 Y132.0814
G01 X5.6878 Y132.1007
G01 X5.6895 Y132.1153
G01 X5.6900 Y132.1300
G01 X5.6899 Y133.8349
G01 X5.6885 Y133.8545
G01 X5.6862 Y133.8690
G01 X5.6814 Y133.8881
G01 X5.6766 Y133.9020
G01 X5.6686 Y133.9199
G01 X5.6615 Y133.9328
G01 X5.6506 Y133.9491
G01 X5.6382 Y133.9643
G01 X5.6279 Y133.9748
G01 X5.6206 Y133.9814
G01 X5.6052 Y133.9935
G01 X5.5886 Y134.0040
G01 X5.5710 Y134.0128
G01 X5.5620 Y134.0166
G01 X5.5481 Y134.0214
G01 X5.5290 Y134.0262
G01 X5.5096 Y134.0290
G01 X5.4900 Y134.0300
G01 X3.7851 Y134.0299
G01 X3.7704 Y134.0290
G01 X3.7510 Y134.0262
G01 X3.7319 Y134.0214
G01 X3.7135 Y134.0148
G01 X3.7001 Y134.0086
G01 X3.6830 Y133.9990
G01 X3.6709 Y133.9906
G01 X3.6557 Y133.9782
G01 X3.6418 Y133.9643
G01 X3.6294 Y133.9491
G01 X3.6237 Y133.9411
G01 X3.6160 Y133.9286
G01 X3.6072 Y133.9110
G01 X3.6001 Y133.8927
G01 X3.5949 Y133.8738
G01 X3.5915 Y133.8545
G01 X3.5902 Y133.8398
G01 X3.5900 Y133.8300
G01 X3.5901 Y132.1251
G01 X3.5910 Y132.1104
G01 X3.5938 Y132.0910
G01 X3.5986 Y132.0719
G01 X3.6034 Y132.0580
G01 X3.6092 Y132.0445
G01 X3.6185 Y132.0272
G01 X3.6294 Y132.0109
G01 X3.6418 Y131.9957
G01 X3.6486 Y131.9886
G01 X3.6594 Y131.9786
G01 X3.6748 Y131.9665
G01 X3.6914 Y131.9560
G01 X3.7090 Y131.9472
G01 X3.7273 Y131.9401
G01 X3.7462 Y131.9349
G01 X3.7655 Y131.9315
G01 X3.7851 Y131.9301
G01 X5.4900 Y131.9300
G00 Z2.0000
G00 X4.2909 Y139.4285
G01 F60.00
G01 Z-0.1000
G01 F100.00
G01 X4.1036 Y139.3203
G01 X3.9319 Y139.1886
G01 X3.7789 Y139.0356
G01 X3.6472 Y138.8639
G01 X3.5390 Y138.6766
G01 X3.4562 Y138.4767
G01 X3.4002 Y138.2677
G01 X3.3720 Y138.0532
G01 X3.3720 Y137.8368
G01 X3.4002 Y137.6223
G01 X3.4562 Y137.4133
G01 X3.5390 Y137.2134
G01 X3.6472 Y137.0261
G01 X3.7789 Y136.8544
G01 X3.9319 Y136.7014
G01 X4.1036 Y136.5697
G01 X4.2909 Y136.4615
G01 X4.4908 Y136.3787
G01 X4.6998 Y136.3227
G01 X4.9143 Y136.2945
G01 X5.1307 Y136.2945
G01 X5.3452 Y136.3227
G01 X5.5542 Y136.3787
G01 X5.7541 Y136.4615
G01 X5.9414 Y136.5697
G01 X6.1131 Y136.7014
G01 X6.2661 Y136.8544
G01 X6.3978 Y137.0261
G01 X6.4932 Y137.1913
G01 X6.5060 Y137.2134
G01 X6.5888 Y137.4133
G01 X6.6448 Y137.6223
G01 X6.6730 Y137.8368
G01 X6.6730 Y138.0532
G01 X6.6448 Y138.2677
G01 X6.5888 Y138.4767
G01 X6.5060 Y138.6766
G01 X6.3978 Y138.8639
G01 X6.2661 Y139.0356
G01 X6.1131 Y139.1886
G01 X5.9414 Y139.3203
G01 X5.9246 Y139.3300
G01 X5.7541 Y139.4285
G01 X5.5542 Y139.5113
G01 X5.3452 Y139.5673
G01 X5.1307 Y139.5955
G01 X4.9143 Y139.5955
G01 X4.6998 Y139.5673
G01 X4.4908 Y139.5113
G01 X4.2909 Y139.4285
G00 Z2.0000
G00 X14.3687 Y136.9455
G01 F60.00
G01 Z-0.1000
G01 F100.00
G01 X25.1399 Y126.1743
G01 X25.1399 Y123.4900
G01 X25.0756 Y123.4899
G01 X25.0275 Y123.4874
G01 X24.9751 Y123.4796
G01 X24.9331 Y123.4693
G01 X24.9143 Y123.4636
G01 X24.8782 Y123.4507
G01 X24.8647 Y123.4449
G01 X24.8257 Y123.4262
G01 X24.7802 Y123.3989
G01 X24.7376 Y123.3673
G01 X24.6983 Y123.3317
G01 X24.6627 Y123.2924
G01 X24.6367 Y123.2578
G01 X24.6284 Y123.2457
G01 X24.6087 Y123.2128
G01 X24.5994 Y123.1955
G01 X24.5811 Y123.1563
G01 X24.5633 Y123.1064
G01 X24.5504 Y123.0549
G01 X24.5438 Y123.0122
G01 X24.5419 Y122.9927
G01 X24.5400 Y122.9495
G01 X24.5400 Y121.6305
G01 X24.5426 Y121.5775
G01 X24.5487 Y121.5347
G01 X24.5514 Y121.5203
G01 X24.5633 Y121.4736
G01 X24.5776 Y121.4328
G01 X24.5851 Y121.4147
G01 X24.6038 Y121.3757
G01 X24.6258 Y121.3385
G01 X24.6367 Y121.3222
G01 X24.6627 Y121.2876
G01 X24.6983 Y121.2483
G01 X24.7376 Y121.2127
G01 X24.7722 Y121.1867
G01 X24.7885 Y121.1758
G01 X24.8257 Y121.1538
G01 X24.8737 Y121.1311
G01 X24.9143 Y121.1164
G01 X24.9331 Y121.1107
G01 X24.9751 Y121.1004
G01 X25.0275 Y121.0926
G01 X25.0805 Y121.0900
G01 X25.8995 Y121.0900
G01 X25.9476 Y121.0922
G01 X25.9622 Y121.0938
G01 X25.9953 Y121.0987
G01 X26.0145 Y121.1025
G01 X26.0564 Y121.1133
G01 X26.1018 Y121.1293
G01 X26.1153 Y121.1351
G01 X26.1455 Y121.1494
G01 X26.1586 Y121.1562
G01 X26.1998 Y121.1811
G01 X26.2347 Y121.2066
G01 X26.2461 Y121.2158
G01 X26.2782 Y121.2449
G01 X26.2885 Y121.2554
G01 X26.3142 Y121.2839
G01 X26.3234 Y121.2953
G01 X26.3489 Y121.3302
G01 X26.3738 Y121.3714
G01 X26.3806 Y121.3845
G01 X26.3989 Y121.4237
G01 X26.4167 Y121.4736
G01 X26.4296 Y121.5251
G01 X26.4369 Y121.5726
G01 X26.4381 Y121.5873
G01 X26.4400 Y121.6305
G01 X26.4400 Y122.9495
G01 X26.4378 Y122.9976
G01 X26.4362 Y123.0122
G01 X26.4305 Y123.0501
G01 X26.4275 Y123.0645
G01 X26.4193 Y123.0969
G01 X26.4136 Y123.1157
G01 X26.4007 Y123.1518
G01 X26.3949 Y123.1653
G01 X26.3762 Y123.2043
G01 X26.3489 Y123.2498
G01 X26.3173 Y123.2924
G01 X26.2817 Y123.3317
G01 X26.2424 Y123.3673
G01 X26.1998 Y123.3989
G01 X26.1543 Y123.4262
G01 X26.1153 Y123.4449
G01 X26.1018 Y123.4507
G01 X26.0611 Y123.4652
G01 X26.0469 Y123.4693
G01 X26.0145 Y123.4775
G01 X26.0001 Y123.4805
G01 X25.9622 Y123.4862
G01 X25.9525 Y123.4874
G01 X25.9401 Y123.4882
G01 X25.9400 Y126.3449
G01 X25.9382 Y126.3792
G01 X25.9333 Y126.4132
G01 X25.9314 Y126.4229
G01 X25.9255 Y126.4467
G01 X25.9198 Y126.4655
G01 X25.9096 Y126.4931
G01 X25.8929 Y126.5286
G01 X25.8727 Y126.5623
G01 X25.8553 Y126.5861
G01 X25.8461 Y126.5976
G01 X25.8229 Y126.6229
G01 X14.9345 Y137.5113
G01 X14.9313 Y137.5327
G01 X14.9294 Y137.5423
G01 X14.9211 Y137.5757
G01 X14.9170 Y137.5898
G01 X14.9019 Y137.6313
G01 X14.8832 Y137.6713
G01 X14.8786 Y137.6800
G01 X14.8610 Y137.7095
G01 X14.8501 Y137.7258
G01 X14.8265 Y137.7572
G01 X14.7936 Y137.7936
G01 X14.7572 Y137.8265
G01 X14.7258 Y137.8501
G01 X14.7137 Y137.8584
G01 X14.6842 Y137.8761
G01 X14.6669 Y137.8854
G01 X14.6313 Y137.9019
G01 X14.5851 Y137.9185
G01 X14.5375 Y137.9304
G01 X14.4939 Y137.9371
G01 X14.4792 Y137.9383
G01 X14.4400 Y137.9400
G01 X14.3910 Y137.9376
G01 X14.3425 Y137.9304
G01 X14.2949 Y137.9185
G01 X14.2487 Y137.9019
G01 X14.2043 Y137.8810
G01 X14.1622 Y137.8557
G01 X14.1228 Y137.8265
G01 X14.0864 Y137.7936
G01 X14.0535 Y137.7572
G01 X14.0243 Y137.7178
G01 X13.9990 Y137.6757
G01 X13.9781 Y137.6313
G01 X13.9615 Y137.5851
G01 X13.9496 Y137.5375
G01 X13.9429 Y137.4939
G01 X13.9417 Y137.4792
G01 X13.9400 Y137.4400
G01 X13.9424 Y137.3910
G01 X13.9496 Y137.3425
G01 X13.9615 Y137.2949
G01 X13.9781 Y137.2487
G01 X13.9990 Y137.2043
G01 X14.0243 Y137.1622
G01 X14.0504 Y137.1266
G01 X14.0599 Y137.1154
G01 X14.0864 Y137.0864
G01 X14.1228 Y137.0535
G01 X14.1622 Y137.0243
G01 X14.2000 Y137.0014
G01 X14.2131 Y136.9946
G01 X14.2487 Y136.9781
G01 X14.2902 Y136.9630
G01 X14.3043 Y136.9589
G01 X14.3377 Y136.9506
G01 X14.3473 Y136.9487
G01 X14.3687 Y136.9455
G00 Z2.0000
G00 X14.0899 Y135.7907
G01 F60.00
G01 Z-0.1000
G01 F100.00
G01 X14.0899 Y129.0668
G01 X14.0800 Y129.0545
G01 X14.0568 Y129.0228
G01 X14.0315 Y128.9807
G01 X14.0106 Y128.9363
G01 X13.9955 Y128.8948
G01 X13.9914 Y128.8807
G01 X13.9821 Y128.8425
G01 X13.9754 Y128.7989
G01 X13.9742 Y128.7842
G01 X13.9726 Y128.7499
G01 X13.9726 Y128.7401
G01 X13.9742 Y128.7058
G01 X13.9754 Y128.6911
G01 X13.9812 Y128.6523
G01 X13.9843 Y128.6379
G01 X13.9927 Y128.6046
G01 X13.9971 Y128.5905
G01 X14.0106 Y128.5537
G01 X14.0293 Y128.5137
G01 X14.0364 Y128.5008
G01 X14.0568 Y128.4672
G01 X14.0860 Y128.4278
G01 X14.1189 Y128.3914
G01 X14.1515 Y128.3617
G01 X14.1630 Y128.3525
G01 X14.1947 Y128.3293
G01 X14.2368 Y128.3040
G01 X14.2812 Y128.2831
G01 X14.3227 Y128.2680
G01 X14.3368 Y128.2639
G01 X14.3750 Y128.2546
G01 X14.4186 Y128.2479
G01 X14.4333 Y128.2467
G01 X14.4676 Y128.2451
G01 X14.4774 Y128.2451
G01 X14.5117 Y128.2467
G01 X14.5264 Y128.2479
G01 X14.5652 Y128.2537
G01 X14.5748 Y128.2556
G01 X14.6082 Y128.2639
G01 X14.6223 Y128.2680
G01 X14.6547 Y128.2795
G01 X14.6728 Y128.2870
G01 X14.7038 Y128.3018
G01 X14.7125 Y128.3064
G01 X14.7420 Y128.3240
G01 X14.7543 Y128.3320
G01 X14.7897 Y128.3585
G01 X14.8189 Y128.3847
G01 X14.8295 Y128.3950
G01 X14.8590 Y128.4278
G01 X14.8882 Y128.4672
G01 X14.9135 Y128.5093
G01 X14.9344 Y128.5537
G01 X14.9510 Y128.5999
G01 X14.9629 Y128.6475
G01 X14.9701 Y128.6960
G01 X14.9723 Y128.7352
G01 X14.9723 Y128.7548
G01 X14.9705 Y128.7891
G01 X14.9696 Y128.7989
G01 X14.9629 Y128.8425
G01 X14.9523 Y128.8854
G01 X14.9495 Y128.8948
G01 X14.9380 Y128.9272
G01 X14.9305 Y128.9453
G01 X14.9135 Y128.9807
G01 X14.8901 Y129.0199
G01 X14.8901 Y135.7907
G01 X14.9030 Y135.8082
G01 X14.9084 Y135.8163
G01 X14.9261 Y135.8458
G01 X14.9332 Y135.8587
G01 X14.9519 Y135.8987
G01 X14.9670 Y135.9402
G01 X14.9698 Y135.9496
G01 X14.9782 Y135.9829
G01 X14.9821 Y136.0021
G01 X14.9876 Y136.0410
G01 X14.9900 Y136.0900
G01 X14.9876 Y136.1390
G01 X14.9821 Y136.1779
G01 X14.9794 Y136.1923
G01 X14.9711 Y136.2257
G01 X14.9654 Y136.2445
G01 X14.9519 Y136.2813
G01 X14.9310 Y136.3257
G01 X14.9057 Y136.3678
G01 X14.8796 Y136.4034
G01 X14.8701 Y136.4146
G01 X14.8436 Y136.4436
G01 X14.8072 Y136.4765
G01 X14.7678 Y136.5057
G01 X14.7257 Y136.5310
G01 X14.6813 Y136.5519
G01 X14.6351 Y136.5685
G01 X14.5875 Y136.5804
G01 X14.5390 Y136.5876
G01 X14.4900 Y136.5900
G01 X14.4410 Y136.5876
G01 X14.3925 Y136.5804
G01 X14.3449 Y136.5685
G01 X14.2987 Y136.5519
G01 X14.2543 Y136.5310
G01 X14.2122 Y136.5057
G01 X14.1766 Y136.4796
G01 X14.1654 Y136.4701
G01 X14.1364 Y136.4436
G01 X14.1035 Y136.4072
G01 X14.0743 Y136.3678
G01 X14.0490 Y136.3257
G01 X14.0281 Y136.2813
G01 X14.0115 Y136.2351
G01 X13.9996 Y136.1875
G01 X13.9929 Y136.1439
G01 X13.9917 Y136.1292
G01 X13.9900 Y136.0900
G01 X13.9924 Y136.0410
G01 X13.9996 Y135.9925
G01 X14.0102 Y135.9496
G01 X14.0146 Y135.9355
G01 X14.0281 Y135.8987
G01 X14.0468 Y135.8587
G01 X14.0539 Y135.8458
G01 X14.0716 Y135.8163
G01 X14.0770 Y135.8082
G01 X14.0899 Y135.7907
G00 Z2.0000
G00 X21.4455 Y133.2522
G01 F60.00
G01 Z-0.1000
G01 F100.00
G01 X21.4009 Y133.1245
G01 X21.3857 Y132.9900
G01 X21.4009 Y132.8555
G01 X21.4455 Y132.7278
G01 X21.5175 Y132.6132
G01 X21.6132 Y132.5175
G01 X21.7278 Y132.4455
G01 X21.8555 Y132.4009
G01 X21.9900 Y132.3857
G01 X22.1245 Y132.4009
G01 X22.2539 Y132.4462
G01 X22.2702 Y132.4541
G01 X22.2796 Y132.4579
G01 X22.2893 Y132.4612
G01 X22.3700 Y132.4843
G01 X22.3800 Y132.4863
G01 X22.3951 Y132.4885
G01 X22.4053 Y132.4892
G01 X22.4155 Y132.4895
G01 X23.8645 Y132.4895
G01 X23.8747 Y132.4892
G01 X23.8849 Y132.4885
G01 X23.8950 Y132.4872
G01 X23.9100 Y132.4843
G01 X23.9907 Y132.4612
G01 X24.0004 Y132.4579
G01 X24.0098 Y132.4541
G01 X24.0261 Y132.4462
G01 X24.1555 Y132.4009
G01 X24.2900 Y132.3857
G01 X24.4245 Y132.4009
G01 X24.5539 Y132.4462
G01 X24.5702 Y132.4541
G01 X24.5796 Y132.4579
G01 X24.5893 Y132.4612
G01 X24.6700 Y132.4843
G01 X24.6800 Y132.4863
G01 X24.6901 Y132.4879
G01 X24.7002 Y132.4889
G01 X24.7104 Y132.4894
G01 X25.5585 Y132.4895
G01 X25.5692 Y132.4892
G01 X25.6062 Y132.4855
G01 X25.6208 Y132.4834
G01 X25.6352 Y132.4802
G01 X25.6539 Y132.4744
G01 X25.6675 Y132.4688
G01 X25.6764 Y132.4645
G01 X25.7420 Y132.4287
G01 X25.7543 Y132.4214
G01 X25.7698 Y132.4104
G01 X25.7771 Y132.4043
G01 X25.7876 Y132.3946
G01 X30.1604 Y128.0217
G01 X30.1706 Y128.0108
G01 X30.1829 Y127.9950
G01 X30.2177 Y127.9400
G01 X30.2252 Y127.9270
G01 X30.2317 Y127.9136
G01 X30.2355 Y127.9043
G01 X30.2780 Y127.7828
G01 X30.3500 Y127.6682
G01 X30.4457 Y127.5725
G01 X30.5603 Y127.5005
G01 X30.6880 Y127.4559
G01 X30.8225 Y127.4407
G01 X30.9570 Y127.4559
G01 X31.0864 Y127.5012
G01 X31.1027 Y127.5091
G01 X31.1121 Y127.5129
G01 X31.1218 Y127.5162
G01 X31.2025 Y127.5393
G01 X31.2175 Y127.5422
G01 X31.2276 Y127.5435
G01 X31.2378 Y127.5442
G01 X31.2480 Y127.5445
G01 X32.7021 Y127.5444
G01 X32.7123 Y127.5439
G01 X32.7224 Y127.5429
G01 X32.7325 Y127.5413
G01 X32.7425 Y127.5393
G01 X32.8232 Y127.5162
G01 X32.8329 Y127.5129
G01 X32.8423 Y127.5091
G01 X32.8586 Y127.5012
G01 X32.9880 Y127.4559
G01 X33.1225 Y127.4407
G01 X33.2570 Y127.4559
G01 X33.3847 Y127.5005
G01 X33.4993 Y127.5725
G01 X33.5950 Y127.6682
G01 X33.6670 Y127.7828
G01 X33.7117 Y127.9105
G01 X33.7268 Y128.0450
G01 X33.7116 Y128.1795
G01 X33.6670 Y128.3072
G01 X33.5950 Y128.4218
G01 X33.4993 Y128.5175
G01 X33.3847 Y128.5895
G01 X33.2570 Y128.6342
G01 X33.1225 Y128.6493
G01 X32.9880 Y128.6341
G01 X32.8586 Y128.5888
G01 X32.8423 Y128.5809
G01 X32.8329 Y128.5771
G01 X32.8232 Y128.5738
G01 X32.7425 Y128.5507
G01 X32.7275 Y128.5478
G01 X32.7174 Y128.5465
G01 X32.7072 Y128.5458
G01 X32.6970 Y128.5455
G01 X31.2480 Y128.5455
G01 X31.2327 Y128.5461
G01 X31.2226 Y128.5471
G01 X31.2125 Y128.5487
G01 X31.2025 Y128.5507
G01 X31.1267 Y128.5723
G01 X31.1121 Y128.5771
G01 X31.0980 Y128.5830
G01 X31.0864 Y128.5889
G01 X31.0324 Y128.6078
G01 X31.0141 Y128.6158
G01 X30.9967 Y128.6256
G01 X30.9500 Y128.6549
G01 X30.9376 Y128.6633
G01 X30.9259 Y128.6727
G01 X30.9150 Y128.6828
G01 X26.2191 Y133.3788
G01 X26.1371 Y133.4335
G01 X26.0460 Y133.4713
G01 X25.9493 Y133.4905
G01 X24.7155 Y133.4905
G01 X24.7002 Y133.4911
G01 X24.6850 Y133.4928
G01 X24.6750 Y133.4946
G01 X24.6650 Y133.4970
G01 X24.5893 Y133.5188
G01 X24.5796 Y133.5221
G01 X24.5702 Y133.5259
G01 X24.5539 Y133.5338
G01 X24.4245 Y133.5792
G01 X24.2900 Y133.5943
G01 X24.1555 Y133.5791
G01 X24.0261 Y133.5338
G01 X24.0098 Y133.5259
G01 X24.0004 Y133.5221
G01 X23.9907 Y133.5188
G01 X23.9100 Y133.4957
G01 X23.9000 Y133.4937
G01 X23.8849 Y133.4915
G01 X23.8747 Y133.4908
G01 X23.8645 Y133.4905
G01 X22.4155 Y133.4905
G01 X22.4053 Y133.4908
G01 X22.3901 Y133.4921
G01 X22.3800 Y133.4937
G01 X22.3700 Y133.4957
G01 X22.2893 Y133.5188
G01 X22.2796 Y133.5221
G01 X22.2702 Y133.5259
G01 X22.2539 Y133.5338
G01 X22.1245 Y133.5792
G01 X21.9900 Y133.5943
G01 X21.8555 Y133.5791
G01 X21.7278 Y133.5345
G01 X21.6132 Y133.4625
G01 X21.5175 Y133.3668
G01 X21.4455 Y133.2522
G00 Z2.0000
G00 X22.2893 Y132.5899
G01 F60.00
G01 Z-0.1000
G01 F100.00
G01 X23.9907 Y132.5899
G01 X24.0082 Y132.5770
G01 X24.0163 Y132.5716
G01 X24.0458 Y132.5539
G01 X24.0587 Y132.5468
G01 X24.0987 Y132.5281
G01 X24.1402 Y132.5130
G01 X24.1496 Y132.5102
G01 X24.1829 Y132.5018
G01 X24.2021 Y132.4979
G01 X24.2410 Y132.4924
G01 X24.2900 Y132.4900
G01 X24.3390 Y132.4924
G01 X24.3779 Y132.4979
G01 X24.3971 Y132.5018
G01 X24.4304 Y132.5102
G01 X24.4398 Y132.5130
G01 X24.4813 Y132.5281
G01 X24.5213 Y132.5468
G01 X24.5342 Y132.5539
G01 X24.5637 Y132.5716
G01 X24.5718 Y132.5770
G01 X24.5893 Y132.5899
G01 X25.7343 Y132.5899
G01 X30.3246 Y127.9996
G01 X30.3261 Y127.9862
G01 X30.3304 Y127.9571
G01 X30.3331 Y127.9427
G01 X30.3440 Y127.8999
G01 X30.3570 Y127.8628
G01 X30.3645 Y127.8447
G01 X30.3815 Y127.8093
G01 X30.4015 Y127.7755
G01 X30.4124 Y127.7592
G01 X30.4360 Y127.7278
G01 X30.4622 Y127.6986
G01 X30.4761 Y127.6847
G01 X30.5053 Y127.6585
G01 X30.5367 Y127.6349
G01 X30.5530 Y127.6240
G01 X30.5868 Y127.6040
G01 X30.6312 Y127.5831
G01 X30.6680 Y127.5696
G01 X30.6868 Y127.5639
G01 X30.7250 Y127.5546
G01 X30.7637 Y127.5486
G01 X30.7833 Y127.5467
G01 X30.8225 Y127.5450
G01 X30.8617 Y127.5467
G01 X30.8764 Y127.5479
G01 X30.9152 Y127.5537
G01 X30.9296 Y127.5568
G01 X30.9676 Y127.5665
G01 X31.0093 Y127.5812
G01 X31.0228 Y127.5870
G01 X31.0538 Y127.6018
G01 X31.0625 Y127.6064
G01 X31.0962 Y127.6266
G01 X31.1043 Y127.6320
G01 X31.1218 Y127.6449
G01 X32.8232 Y127.6449
G01 X32.8407 Y127.6320
G01 X32.8488 Y127.6266
G01 X32.8783 Y127.6089
G01 X32.8912 Y127.6018
G01 X32.9312 Y127.5831
G01 X32.9680 Y127.5696
G01 X32.9821 Y127.5652
G01 X33.0250 Y127.5546
G01 X33.0735 Y127.5474
G01 X33.1225 Y127.5450
G01 X33.1715 Y127.5474
G01 X33.2104 Y127.5529
G01 X33.2296 Y127.5568
G01 X33.2676 Y127.5665
G01 X33.3047 Y127.5795
G01 X33.3228 Y127.5870
G01 X33.3582 Y127.6040
G01 X33.3920 Y127.6240
G01 X33.4083 Y127.6349
G01 X33.4397 Y127.6585
G01 X33.4689 Y127.6847
G01 X33.4828 Y127.6986
G01 X33.5090 Y127.7278
G01 X33.5326 Y127.7592
G01 X33.5435 Y127.7755
G01 X33.5635 Y127.8093
G01 X33.5844 Y127.8537
G01 X33.6010 Y127.8999
G01 X33.6129 Y127.9475
G01 X33.6201 Y127.9960
G01 X33.6223 Y128.0352
G01 X33.6223 Y128.0548
G01 X33.6205 Y128.0891
G01 X33.6196 Y128.0989
G01 X33.6138 Y128.1377
G01 X33.6107 Y128.1521
G01 X33.6010 Y128.1901
G01 X33.5880 Y128.2272
G01 X33.5825 Y128.2409
G01 X33.5679 Y128.2719
G01 X33.5586 Y128.2892
G01 X33.5382 Y128.3228
G01 X33.5090 Y128.3622
G01 X33.4761 Y128.3986
G01 X33.4397 Y128.4315
G01 X33.4003 Y128.4607
G01 X33.3582 Y128.4860
G01 X33.3138 Y128.5069
G01 X33.2770 Y128.5204
G01 X33.2582 Y128.5261
G01 X33.2200 Y128.5354
G01 X33.1813 Y128.5414
G01 X33.1666 Y128.5430
G01 X33.1323 Y128.5448
G01 X33.1127 Y128.5448
G01 X33.0735 Y128.5426
G01 X33.0250 Y128.5354
G01 X32.9774 Y128.5235
G01 X32.9403 Y128.5105
G01 X32.9266 Y128.5050
G01 X32.8956 Y128.4904
G01 X32.8825 Y128.4836
G01 X32.8488 Y128.4634
G01 X32.8407 Y128.4580
G01 X32.8232 Y128.4451
G01 X31.1218 Y128.4451
G01 X31.1043 Y128.4580
G01 X31.0962 Y128.4634
G01 X31.0625 Y128.4836
G01 X31.0494 Y128.4904
G01 X31.0184 Y128.5050
G01 X31.0047 Y128.5105
G01 X30.9676 Y128.5235
G01 X30.9205 Y128.5353
G01 X26.1829 Y133.2729
G01 X26.1538 Y133.2993
G01 X26.1223 Y133.3227
G01 X26.0886 Y133.3429
G01 X26.0531 Y133.3596
G01 X26.0161 Y133.3729
G01 X25.9781 Y133.3824
G01 X25.9392 Y133.3882
G01 X25.9049 Y133.3900
G01 X24.5893 Y133.3901
G01 X24.5718 Y133.4030
G01 X24.5637 Y133.4084
G01 X24.5342 Y133.4261
G01 X24.5213 Y133.4332
G01 X24.4813 Y133.4519
G01 X24.4398 Y133.4670
G01 X24.4304 Y133.4698
G01 X24.3971 Y133.4782
G01 X24.3779 Y133.4821
G01 X24.3390 Y133.4876
G01 X24.2900 Y133.4900
G01 X24.2410 Y133.4876
G01 X24.2021 Y133.4821
G01 X24.1829 Y133.4782
G01 X24.1496 Y133.4698
G01 X24.1402 Y133.4670
G01 X24.0987 Y133.4519
G01 X24.0587 Y133.4332
G01 X24.0458 Y133.4261
G01 X24.0163 Y133.4084
G01 X24.0082 Y133.4030
G01 X23.9907 Y133.3901
G01 X22.2893 Y133.3901
G01 X22.2718 Y133.4030
G01 X22.2637 Y133.4084
G01 X22.2342 Y133.4261
G01 X22.2213 Y133.4332
G01 X22.1813 Y133.4519
G01 X22.1398 Y133.4670
G01 X22.1257 Y133.4711
G01 X22.0923 Y133.4794
G01 X22.0827 Y133.4813
G01 X22.0488 Y133.4864
G01 X22.0341 Y133.4880
G01 X21.9998 Y133.4898
G01 X21.9802 Y133.4898
G01 X21.9410 Y133.4876
G01 X21.8925 Y133.4804
G01 X21.8449 Y133.4685
G01 X21.8078 Y133.4555
G01 X21.7897 Y133.4480
G01 X21.7587 Y133.4332
G01 X21.7500 Y133.4286
G01 X21.7122 Y133.4057
G01 X21.6766 Y133.3796
G01 X21.6654 Y133.3701
G01 X21.6364 Y133.3436
G01 X21.6035 Y133.3072
G01 X21.5743 Y133.2678
G01 X21.5490 Y133.2257
G01 X21.5281 Y133.1813
G01 X21.5115 Y133.1351
G01 X21.4996 Y133.0875
G01 X21.4924 Y133.0390
G01 X21.4900 Y132.9900
G01 X21.4924 Y132.9410
G01 X21.4996 Y132.8925
G01 X21.5115 Y132.8449
G01 X21.5281 Y132.7987
G01 X21.5490 Y132.7543
G01 X21.5743 Y132.7122
G01 X21.6004 Y132.6766
G01 X21.6099 Y132.6654
G01 X21.6364 Y132.6364
G01 X21.6728 Y132.6035
G01 X21.7122 Y132.5743
G01 X21.7543 Y132.5490
G01 X21.7987 Y132.5281
G01 X21.8449 Y132.5115
G01 X21.8925 Y132.4996
G01 X21.9361 Y132.4929
G01 X21.9508 Y132.4917
G01 X21.9900 Y132.4900
G01 X22.0390 Y132.4924
G01 X22.0875 Y132.4996
G01 X22.1304 Y132.5102
G01 X22.1445 Y132.5146
G01 X22.1813 Y132.5281
G01 X22.2213 Y132.5468
G01 X22.2342 Y132.5539
G01 X22.2637 Y132.5716
G01 X22.2718 Y132.5770
G01 X22.2893 Y132.5899
G00 Z2.0000
G00 X22.9402 Y137.0902
G01 F60.00
G01 Z-0.1000
G01 F100.00
G01 X22.9598 Y137.0902
G01 X23.0431 Y137.0946
G01 X23.1353 Y137.1083
G01 X23.2258 Y137.1309
G01 X23.3135 Y137.1623
G01 X23.3978 Y137.2022
G01 X23.4778 Y137.2501
G01 X23.5527 Y137.3056
G01 X23.6218 Y137.3682
G01 X23.6844 Y137.4373
G01 X23.7399 Y137.5122
G01 X23.7878 Y137.5922
G01 X23.8277 Y137.6765
G01 X23.8591 Y137.7642
G01 X23.8817 Y137.8547
G01 X23.8954 Y137.9469
G01 X23.9000 Y138.0400
G01 X23.8999 Y138.5449
G01 X23.8954 Y138.6331
G01 X23.8834 Y138.7157
G01 X23.8796 Y138.7349
G01 X23.8591 Y138.8158
G01 X23.8277 Y138.9035
G01 X23.7878 Y138.9878
G01 X23.7399 Y139.0678
G01 X23.6904 Y139.1349
G01 X23.6779 Y139.1501
G01 X23.6218 Y139.2118
G01 X23.5601 Y139.2679
G01 X23.5449 Y139.2804
G01 X23.4778 Y139.3299
G01 X23.3978 Y139.3778
G01 X23.3135 Y139.4177
G01 X23.2351 Y139.4460
G01 X23.2163 Y139.4517
G01 X23.1353 Y139.4717
G01 X23.0529 Y139.4842
G01 X23.0333 Y139.4861
G01 X22.9500 Y139.4900
G01 X22.8569 Y139.4854
G01 X22.7647 Y139.4717
G01 X22.6742 Y139.4491
G01 X22.5865 Y139.4177
G01 X22.5022 Y139.3778
G01 X22.4222 Y139.3299
G01 X22.3473 Y139.2744
G01 X22.2782 Y139.2118
G01 X22.2156 Y139.1427
G01 X22.1601 Y139.0678
G01 X22.1122 Y138.9878
G01 X22.0723 Y138.9035
G01 X22.0409 Y138.8158
G01 X22.0183 Y138.7253
G01 X22.0046 Y138.6331
G01 X22.0000 Y138.5400
G01 X22.0001 Y138.0351
G01 X22.0046 Y137.9469
G01 X22.0166 Y137.8643
G01 X22.0204 Y137.8451
G01 X22.0409 Y137.7642
G01 X22.0723 Y137.6765
G01 X22.1122 Y137.5922
G01 X22.1574 Y137.5163
G01 X22.1658 Y137.5042
G01 X22.2156 Y137.4373
G01 X22.2715 Y137.3754
G01 X22.2854 Y137.3615
G01 X22.3473 Y137.3056
G01 X22.4142 Y137.2558
G01 X22.4305 Y137.2449
G01 X22.5022 Y137.2022
G01 X22.5865 Y137.1623
G01 X22.6649 Y137.1340
G01 X22.6837 Y137.1283
G01 X22.7647 Y137.1083
G01 X22.8471 Y137.0958
G01 X22.8667 Y137.0939
G01 X22.9402 Y137.0902
G00 Z2.0000
G00 X21.9765 Y138.9433
G01 F60.00
G01 Z-0.1000
G01 F100.00
G01 X21.9254 Y138.7860
G01 X21.8995 Y138.6227
G01 X21.8995 Y137.9573
G01 X21.9254 Y137.7940
G01 X21.9765 Y137.6367
G01 X22.0515 Y137.4894
G01 X22.1487 Y137.3556
G01 X22.2656 Y137.2387
G01 X22.3994 Y137.1415
G01 X22.5467 Y137.0665
G01 X22.7040 Y137.0154
G01 X22.8673 Y136.9895
G01 X23.0327 Y136.9895
G01 X23.1960 Y137.0154
G01 X23.3533 Y137.0665
G01 X23.5006 Y137.1415
G01 X23.6344 Y137.2387
G01 X23.7513 Y137.3556
G01 X23.8485 Y137.4894
G01 X23.9316 Y137.6525
G01 X23.9387 Y137.6653
G01 X23.9439 Y137.6735
G01 X23.9555 Y137.6890
G01 X23.9977 Y137.7378
G01 X24.0075 Y137.7483
G01 X24.0181 Y137.7581
G01 X24.0332 Y137.7700
G01 X24.0452 Y137.7779
G01 X24.0621 Y137.7870
G01 X24.0798 Y137.7945
G01 X24.1505 Y137.8187
G01 X24.1647 Y137.8229
G01 X24.1793 Y137.8261
G01 X24.1940 Y137.8283
G01 X24.2039 Y137.8291
G01 X24.2188 Y137.8293
G01 X24.2386 Y137.8280
G01 X24.2582 Y137.8246
G01 X24.3309 Y137.8067
G01 X24.3499 Y137.8010
G01 X24.3682 Y137.7934
G01 X24.3858 Y137.7840
G01 X24.4023 Y137.7730
G01 X24.4176 Y137.7603
G01 X24.4282 Y137.7499
G01 X24.4794 Y137.6956
G01 X24.4886 Y137.6846
G01 X24.4969 Y137.6731
G01 X24.5044 Y137.6609
G01 X24.5090 Y137.6526
G01 X24.5920 Y137.4897
G01 X24.6891 Y137.3560
G01 X24.8060 Y137.2391
G01 X24.9397 Y137.1420
G01 X25.0400 Y137.0908
G01 X25.0400 Y137.2034
G01 X24.9622 Y137.2501
G01 X24.8951 Y137.2996
G01 X24.8799 Y137.3121
G01 X24.8182 Y137.3682
G01 X24.7621 Y137.4299
G01 X24.7496 Y137.4451
G01 X24.7001 Y137.5122
G01 X24.6522 Y137.5922
G01 X24.6163 Y137.6675
G01 X24.6088 Y137.6856
G01 X24.5809 Y137.7642
G01 X24.5604 Y137.8451
G01 X24.5566 Y137.8643
G01 X24.5446 Y137.9469
G01 X24.5400 Y138.0400
G01 X24.5400 Y138.5400
G01 X24.5439 Y138.6233
G01 X24.5458 Y138.6429
G01 X24.5583 Y138.7253
G01 X24.5783 Y138.8063
G01 X24.5840 Y138.8251
G01 X24.6123 Y138.9035
G01 X24.6522 Y138.9878
G01 X24.7001 Y139.0678
G01 X24.7556 Y139.1427
G01 X24.8182 Y139.2118
G01 X24.8873 Y139.2744
G01 X24.9622 Y139.3299
G01 X25.0400 Y139.3766
G01 X25.0400 Y139.4892
G01 X24.9397 Y139.4380
G01 X24.8060 Y139.3409
G01 X24.6891 Y139.2240
G01 X24.5920 Y139.0903
G01 X24.5090 Y138.9274
G01 X24.4993 Y138.9106
G01 X24.4910 Y138.8986
G01 X24.4819 Y138.8873
G01 X24.4429 Y138.8422
G01 X24.4296 Y138.8283
G01 X24.4188 Y138.8188
G01 X24.4034 Y138.8073
G01 X24.3870 Y138.7973
G01 X24.3741 Y138.7909
G01 X24.3562 Y138.7839
G01 X24.2901 Y138.7613
G01 X24.2758 Y138.7571
G01 X24.2613 Y138.7539
G01 X24.2416 Y138.7513
G01 X24.2267 Y138.7506
G01 X24.2118 Y138.7511
G01 X24.1970 Y138.7527
G01 X24.1775 Y138.7565
G01 X24.1049 Y138.7746
G01 X24.0954 Y138.7774
G01 X24.0814 Y138.7826
G01 X24.0679 Y138.7888
G01 X24.0591 Y138.7935
G01 X24.0423 Y138.8041
G01 X24.0344 Y138.8100
G01 X24.0230 Y138.8197
G01 X24.0124 Y138.8301
G01 X23.9612 Y138.8844
G01 X23.9520 Y138.8954
G01 X23.9436 Y138.9069
G01 X23.9361 Y138.9191
G01 X23.9316 Y138.9274
G01 X23.8485 Y139.0906
G01 X23.7513 Y139.2244
G01 X23.6344 Y139.3413
G01 X23.5006 Y139.4385
G01 X23.3533 Y139.5135
G01 X23.1960 Y139.5646
G01 X23.0327 Y139.5905
G01 X22.8673 Y139.5905
G01 X22.7040 Y139.5646
G01 X22.5467 Y139.5135
G01 X22.3994 Y139.4385
G01 X22.2656 Y139.3413
G01 X22.1487 Y139.2244
G01 X22.0515 Y139.0906
G01 X21.9765 Y138.9433
G00 Z2.0000
G00 X25.9400 Y139.4892
G01 F60.00
G01 Z-0.1000
G01 F100.00
G01 X25.9400 Y139.3766
G01 X26.0178 Y139.3299
G01 X26.0927 Y139.2744
G01 X26.1618 Y139.2118
G01 X26.2179 Y139.1501
G01 X26.2304 Y139.1349
G01 X26.2799 Y139.0678
G01 X26.3230 Y138.9964
G01 X26.3322 Y138.9791
G01 X26.3637 Y138.9125
G01 X26.3712 Y138.8944
G01 X26.3991 Y138.8158
G01 X26.4183 Y138.7400
G01 X26.5214 Y138.7400
G01 X26.5141 Y138.7859
G01 X26.4631 Y138.9431
G01 X26.3880 Y139.0903
G01 X26.2909 Y139.2240
G01 X26.1740 Y139.3409
G01 X26.0403 Y139.4380
G01 X25.9400 Y139.4892
G00 Z2.0000
G00 X25.9400 Y137.2034
G01 F60.00
G01 Z-0.1000
G01 F100.00
G01 X25.9400 Y137.0908
G01 X26.0403 Y137.1420
G01 X26.1740 Y137.2391
G01 X26.2909 Y137.3560
G01 X26.3880 Y137.4897
G01 X26.4631 Y137.6369
G01 X26.5141 Y137.7941
G01 X26.5214 Y137.8400
G01 X26.4183 Y137.8400
G01 X26.3991 Y137.7642
G01 X26.3712 Y137.6856
G01 X26.3637 Y137.6675
G01 X26.3322 Y137.6009
G01 X26.3230 Y137.5836
G01 X26.2799 Y137.5122
G01 X26.2304 Y137.4451
G01 X26.2179 Y137.4299
G01 X26.1618 Y137.3682
G01 X26.0927 Y137.3056
G01 X26.0178 Y137.2501
G01 X25.9400 Y137.2034
G00 Z2.0000
G00 X32.5125 Y137.4584
G01 F60.00
G01 Z-0.1000
G01 F100.00
G01 X32.5125 Y137.3458
G01 X32.6128 Y137.3970
G01 X32.7465 Y137.4941
G01 X32.8634 Y137.6110
G01 X32.9605 Y137.7447
G01 X33.0356 Y137.8919
G01 X33.0866 Y138.0491
G01 X33.0939 Y138.0950
G01 X32.9908 Y138.0950
G01 X32.9716 Y138.0192
G01 X32.9437 Y137.9406
G01 X32.9362 Y137.9225
G01 X32.9047 Y137.8559
G01 X32.8955 Y137.8386
G01 X32.8524 Y137.7672
G01 X32.8029 Y137.7001
G01 X32.7904 Y137.6849
G01 X32.7343 Y137.6232
G01 X32.6652 Y137.5606
G01 X32.5903 Y137.5051
G01 X32.5125 Y137.4584
G00 Z2.0000
G00 X32.5125 Y139.7442
G01 F60.00
G01 Z-0.1000
G01 F100.00
G01 X32.5125 Y139.6316
G01 X32.5903 Y139.5849
G01 X32.6652 Y139.5294
G01 X32.7343 Y139.4668
G01 X32.7904 Y139.4051
G01 X32.8029 Y139.3899
G01 X32.8524 Y139.3228
G01 X32.8955 Y139.2514
G01 X32.9047 Y139.2341
G01 X32.9362 Y139.1675
G01 X32.9437 Y139.1494
G01 X32.9716 Y139.0708
G01 X32.9908 Y138.9950
G01 X33.0939 Y138.9950
G01 X33.0866 Y139.0409
G01 X33.0356 Y139.1981
G01 X32.9605 Y139.3453
G01 X32.8634 Y139.4790
G01 X32.7465 Y139.5959
G01 X32.6128 Y139.6930
G01 X32.5125 Y139.7442
G00 Z2.0000
G00 X30.9380 Y143.6909
G01 F60.00
G01 Z-0.1000
G01 F100.00
G01 X30.9218 Y143.7028
G01 X30.9137 Y143.7083
G01 X30.8842 Y143.7260
G01 X30.8713 Y143.7331
G01 X30.8313 Y143.7518
G01 X30.7945 Y143.7653
G01 X30.7804 Y143.7697
G01 X30.7375 Y143.7803
G01 X30.6890 Y143.7875
G01 X30.6400 Y143.7899
G01 X30.6008 Y143.7882
G01 X30.5861 Y143.7869
G01 X30.5425 Y143.7803
G01 X30.4949 Y143.7683
G01 X30.4487 Y143.7518
G01 X30.4043 Y143.7308
G01 X30.3622 Y143.7056
G01 X30.3228 Y143.6764
G01 X30.2864 Y143.6434
G01 X30.2599 Y143.6145
G01 X30.2504 Y143.6032
G01 X30.2243 Y143.5676
G01 X30.1990 Y143.5256
G01 X30.1781 Y143.4812
G01 X30.1615 Y143.4350
G01 X30.1496 Y143.3874
G01 X30.1424 Y143.3389
G01 X30.1400 Y143.2899
G01 X30.1424 Y143.2409
G01 X30.1496 Y143.1923
G01 X30.1615 Y143.1447
G01 X30.1781 Y143.0985
G01 X30.1990 Y143.0542
G01 X30.2243 Y143.0121
G01 X30.2535 Y142.9727
G01 X30.2864 Y142.9363
G01 X30.3154 Y142.9098
G01 X30.3266 Y142.9003
G01 X30.3622 Y142.8741
G01 X30.4043 Y142.8489
G01 X30.4487 Y142.8279
G01 X30.4855 Y142.8145
G01 X30.5043 Y142.8088
G01 X30.5377 Y142.8005
G01 X30.5521 Y142.7978
G01 X30.5910 Y142.7923
G01 X30.6400 Y142.7899
G01 X30.6890 Y142.7923
G01 X30.7279 Y142.7978
G01 X30.7471 Y142.8016
G01 X30.7804 Y142.8100
G01 X30.7898 Y142.8129
G01 X30.8313 Y142.8279
G01 X30.8713 Y142.8466
G01 X30.8842 Y142.8537
G01 X30.9137 Y142.8715
G01 X30.9218 Y142.8769
G01 X30.9405 Y142.8907
G01 X40.7235 Y142.8907
G01 X42.0776 Y141.5366
G01 X42.1399 Y34.9898
G01 X42.1414 Y34.9554
G01 X42.1431 Y34.9408
G01 X42.1467 Y34.9165
G01 X42.1487 Y34.9069
G01 X42.1546 Y34.8831
G01 X42.1587 Y34.8690
G01 X42.1669 Y34.8458
G01 X42.1744 Y34.8277
G01 X42.1873 Y34.8012
G01 X42.2075 Y34.7675
G01 X42.2309 Y34.7360
G01 X42.2538 Y34.7104
G01 X42.2608 Y34.7035
G01 X42.2789 Y34.6870
G01 X42.2941 Y34.6745
G01 X42.3179 Y34.6572
G01 X42.3516 Y34.6370
G01 X42.3871 Y34.6203
G01 X42.4148 Y34.6101
G01 X42.4335 Y34.6044
G01 X42.4574 Y34.5986
G01 X42.4676 Y34.5965
G01 X46.5946 Y30.4696
G01 X46.5996 Y30.4375
G01 X46.6089 Y30.3993
G01 X46.6130 Y30.3852
G01 X46.6245 Y30.3528
G01 X46.6300 Y30.3391
G01 X46.6468 Y30.3037
G01 X46.6539 Y30.2908
G01 X46.6716 Y30.2613
G01 X46.6799 Y30.2492
G01 X46.7035 Y30.2178
G01 X46.7364 Y30.1814
G01 X46.7728 Y30.1485
G01 X46.8042 Y30.1249
G01 X46.8163 Y30.1166
G01 X46.8543 Y30.0940
G01 X46.8897 Y30.0770
G01 X46.9078 Y30.0695
G01 X46.9449 Y30.0565
G01 X46.9829 Y30.0468
G01 X47.0021 Y30.0429
G01 X47.0410 Y30.0374
G01 X47.0900 Y30.0350
G01 X47.1390 Y30.0374
G01 X47.1779 Y30.0429
G01 X47.1971 Y30.0468
G01 X47.2304 Y30.0552
G01 X47.2398 Y30.0580
G01 X47.2813 Y30.0731
G01 X47.3257 Y30.0940
G01 X47.3678 Y30.1193
G01 X47.3960 Y30.1399
G01 X49.5726 Y30.1399
G01 X49.5921 Y30.0988
G01 X49.5988 Y30.0857
G01 X49.6442 Y30.0099
G01 X49.6522 Y29.9976
G01 X49.7108 Y29.9189
G01 X49.7766 Y29.8461
G01 X49.7871 Y29.8358
G01 X49.8564 Y29.7733
G01 X49.9311 Y29.7176
G01 X49.9474 Y29.7067
G01 X50.0190 Y29.6638
G01 X50.0319 Y29.6567
G01 X50.1207 Y29.6149
G01 X50.2084 Y29.5833
G01 X50.2272 Y29.5776
G01 X50.3081 Y29.5573
G01 X50.3273 Y29.5535
G01 X50.4196 Y29.5401
G01 X50.5225 Y29.5350
G01 X50.6254 Y29.5401
G01 X50.7225 Y29.5543
G01 X50.7369 Y29.5573
G01 X50.8178 Y29.5776
G01 X50.8366 Y29.5833
G01 X50.9243 Y29.6149
G01 X51.0175 Y29.6590
G01 X51.1058 Y29.7120
G01 X51.1809 Y29.7673
G01 X51.1960 Y29.7798
G01 X51.2650 Y29.8425
G01 X51.3342 Y29.9189
G01 X51.3899 Y29.9936
G01 X51.4008 Y30.0099
G01 X51.4485 Y30.0900
G01 X51.4886 Y30.1742
G01 X51.4961 Y30.1923
G01 X51.5273 Y30.2802
G01 X51.5523 Y30.3802
G01 X51.5662 Y30.4723
G01 X51.5682 Y30.4919
G01 X51.5725 Y30.5850
G01 X51.5674 Y30.6879
G01 X51.5523 Y30.7898
G01 X51.5299 Y30.8803
G01 X51.5242 Y30.8991
G01 X51.4926 Y30.9868
G01 X51.4485 Y31.0800
G01 X51.4008 Y31.1601
G01 X51.3899 Y31.1764
G01 X51.3342 Y31.2511
G01 X51.2717 Y31.3204
G01 X51.2579 Y31.3342
G01 X51.1886 Y31.3967
G01 X51.1139 Y31.4524
G01 X51.0976 Y31.4633
G01 X51.0175 Y31.5110
G01 X50.9243 Y31.5551
G01 X50.8273 Y31.5898
G01 X50.7369 Y31.6127
G01 X50.7177 Y31.6165
G01 X50.6254 Y31.6299
G01 X50.5323 Y31.6348
G01 X50.5127 Y31.6348
G01 X50.4294 Y31.6307
G01 X50.4098 Y31.6287
G01 X50.3177 Y31.6148
G01 X50.2272 Y31.5924
G01 X50.2130 Y31.5883
G01 X50.1207 Y31.5551
G01 X50.0363 Y31.5154
G01 X50.0190 Y31.5062
G01 X49.9392 Y31.4580
G01 X49.8641 Y31.4027
G01 X49.8490 Y31.3902
G01 X49.7836 Y31.3309
G01 X49.7733 Y31.3204
G01 X49.7108 Y31.2511
G01 X49.6551 Y31.1764
G01 X49.6468 Y31.1642
G01 X49.6013 Y31.0885
G01 X49.5942 Y31.0756
G01 X49.5544 Y30.9913
G01 X49.5489 Y30.9777
G01 X49.5355 Y30.9401
G01 X47.3825 Y30.9401
G01 X47.3718 Y30.9480
G01 X47.3637 Y30.9534
G01 X47.3300 Y30.9736
G01 X47.3169 Y30.9804
G01 X47.2813 Y30.9969
G01 X47.2445 Y31.0104
G01 X47.2304 Y31.0148
G01 X47.1923 Y31.0244
G01 X47.1827 Y31.0263
G01 X47.1672 Y31.0287
G01 X42.9944 Y35.2014
G01 X42.9653 Y35.2278
G01 X42.9399 Y35.2469
G01 X42.8777 Y141.7026
G01 X42.8758 Y141.7417
G01 X42.8709 Y141.7757
G01 X42.8678 Y141.7903
G01 X42.8618 Y141.8139
G01 X42.8589 Y141.8234
G01 X42.8472 Y141.8556
G01 X42.8327 Y141.8867
G01 X42.8255 Y141.8997
G01 X42.8129 Y141.9206
G01 X42.8074 Y141.9289
G01 X42.7869 Y141.9563
G01 X42.7639 Y141.9818
G01 X41.1721 Y143.5737
G01 X41.1430 Y143.6001
G01 X41.1195 Y143.6178
G01 X41.1032 Y143.6287
G01 X41.0821 Y143.6413
G01 X41.0735 Y143.6459
G01 X41.0423 Y143.6604
G01 X41.0100 Y143.6722
G01 X41.0006 Y143.6750
G01 X40.9768 Y143.6810
G01 X40.9576 Y143.6849
G01 X40.9284 Y143.6890
G01 X40.8892 Y143.6909
G01 X30.9380 Y143.6909
G00 Z2.0000
G00 X28.3893 Y145.1899
G01 F60.00
G01 Z-0.1000
G01 F100.00
G01 X41.3743 Y145.1899
G01 X43.9399 Y142.6243
G01 X43.9399 Y73.1400
G01 X43.9418 Y73.1008
G01 X43.9476 Y73.0619
G01 X43.9558 Y73.0286
G01 X43.9586 Y73.0192
G01 X43.9668 Y72.9960
G01 X43.9743 Y72.9779
G01 X43.9871 Y72.9514
G01 X44.0073 Y72.9177
G01 X44.0307 Y72.8862
G01 X44.0537 Y72.8606
G01 X44.0606 Y72.8536
G01 X44.0787 Y72.8371
G01 X44.0939 Y72.8247
G01 X44.1177 Y72.8073
G01 X44.1514 Y72.7871
G01 X44.1869 Y72.7703
G01 X44.2145 Y72.7602
G01 X44.2333 Y72.7545
G01 X44.2571 Y72.7486
G01 X44.2676 Y72.7465
G01 X46.5446 Y70.4696
G01 X46.5496 Y70.4375
G01 X46.5589 Y70.3993
G01 X46.5630 Y70.3852
G01 X46.5762 Y70.3482
G01 X46.5820 Y70.3347
G01 X46.5990 Y70.2993
G01 X46.6190 Y70.2655
G01 X46.6270 Y70.2532
G01 X46.6504 Y70.2216
G01 X46.6599 Y70.2104
G01 X46.6864 Y70.1814
G01 X46.7154 Y70.1549
G01 X46.7305 Y70.1425
G01 X46.7622 Y70.1193
G01 X46.7958 Y70.0989
G01 X46.8087 Y70.0918
G01 X46.8441 Y70.0750
G01 X46.8578 Y70.0695
G01 X46.8949 Y70.0565
G01 X46.9329 Y70.0468
G01 X46.9521 Y70.0429
G01 X46.9910 Y70.0374
G01 X47.0302 Y70.0352
G01 X47.0449 Y70.0351
G01 X47.0890 Y70.0374
G01 X47.1327 Y70.0437
G01 X47.1423 Y70.0456
G01 X47.1757 Y70.0539
G01 X47.1945 Y70.0596
G01 X47.2313 Y70.0731
G01 X47.2757 Y70.0940
G01 X47.3178 Y70.1193
G01 X47.3460 Y70.1399
G01 X49.5726 Y70.1399
G01 X49.5921 Y70.0988
G01 X49.5988 Y70.0857
G01 X49.6442 Y70.0099
G01 X49.6522 Y69.9976
G01 X49.7108 Y69.9189
G01 X49.7733 Y69.8496
G01 X49.7836 Y69.8391
G01 X49.8564 Y69.7733
G01 X49.9392 Y69.7120
G01 X50.0275 Y69.6590
G01 X50.1162 Y69.6169
G01 X50.1298 Y69.6114
G01 X50.2177 Y69.5802
G01 X50.3081 Y69.5573
G01 X50.3273 Y69.5535
G01 X50.4098 Y69.5413
G01 X50.4294 Y69.5393
G01 X50.5225 Y69.5350
G01 X50.6254 Y69.5401
G01 X50.7273 Y69.5552
G01 X50.8273 Y69.5802
G01 X50.9152 Y69.6114
G01 X50.9333 Y69.6189
G01 X51.0175 Y69.6590
G01 X51.1058 Y69.7120
G01 X51.1809 Y69.7673
G01 X51.1960 Y69.7798
G01 X51.2650 Y69.8425
G01 X51.3342 Y69.9189
G01 X51.3899 Y69.9936
G01 X51.4008 Y70.0099
G01 X51.4485 Y70.0900
G01 X51.4926 Y70.1832
G01 X51.5242 Y70.2709
G01 X51.5299 Y70.2897
G01 X51.5523 Y70.3802
G01 X51.5662 Y70.4723
G01 X51.5682 Y70.4919
G01 X51.5725 Y70.5850
G01 X51.5682 Y70.6781
G01 X51.5662 Y70.6977
G01 X51.5523 Y70.7898
G01 X51.5299 Y70.8803
G01 X51.5242 Y70.8991
G01 X51.4961 Y70.9777
G01 X51.4886 Y70.9958
G01 X51.4485 Y71.0800
G01 X51.4008 Y71.1601
G01 X51.3899 Y71.1764
G01 X51.3342 Y71.2511
G01 X51.2650 Y71.3275
G01 X51.1960 Y71.3902
G01 X51.1809 Y71.4027
G01 X51.1139 Y71.4524
G01 X51.1017 Y71.4607
G01 X51.0175 Y71.5110
G01 X50.9333 Y71.5511
G01 X50.9152 Y71.5586
G01 X50.8366 Y71.5867
G01 X50.8178 Y71.5924
G01 X50.7273 Y71.6148
G01 X50.6352 Y71.6287
G01 X50.6156 Y71.6307
G01 X50.5225 Y71.6350
G01 X50.4196 Y71.6299
G01 X50.3177 Y71.6148
G01 X50.2272 Y71.5924
G01 X50.2130 Y71.5883
G01 X50.1207 Y71.5551
G01 X50.0363 Y71.5154
G01 X50.0190 Y71.5062
G01 X49.9392 Y71.4580
G01 X49.8641 Y71.4027
G01 X49.8490 Y71.3902
G01 X49.7836 Y71.3309
G01 X49.7733 Y71.3204
G01 X49.7108 Y71.2511
G01 X49.6551 Y71.1764
G01 X49.6468 Y71.1642
G01 X49.6013 Y71.0885
G01 X49.5942 Y71.0756
G01 X49.5544 Y70.9913
G01 X49.5489 Y70.9777
G01 X49.5355 Y70.9401
G01 X47.3325 Y70.9401
G01 X47.3218 Y70.9480
G01 X47.3137 Y70.9534
G01 X47.2800 Y70.9736
G01 X47.2669 Y70.9804
G01 X47.2313 Y70.9969
G01 X47.1945 Y71.0104
G01 X47.1804 Y71.0148
G01 X47.1423 Y71.0244
G01 X47.1327 Y71.0263
G01 X47.1172 Y71.0287
G01 X44.7401 Y73.4057
G01 X44.7401 Y142.7900
G01 X44.7386 Y142.8243
G01 X44.7370 Y142.8390
G01 X44.7324 Y142.8681
G01 X44.7229 Y142.9061
G01 X44.7115 Y142.9386
G01 X44.7057 Y142.9521
G01 X44.6929 Y142.9786
G01 X44.6779 Y143.0040
G01 X44.6699 Y143.0163
G01 X44.6523 Y143.0400
G01 X44.6429 Y143.0513
G01 X44.6229 Y143.0729
G01 X41.8229 Y145.8729
G01 X41.7938 Y145.8993
G01 X41.7663 Y145.9199
G01 X41.7582 Y145.9253
G01 X41.7371 Y145.9380
G01 X41.7198 Y145.9473
G01 X41.6931 Y145.9596
G01 X41.6561 Y145.9729
G01 X41.6181 Y145.9824
G01 X41.5890 Y145.9870
G01 X41.5743 Y145.9886
G01 X41.5400 Y145.9901
G01 X28.3893 Y145.9901
G01 X28.3718 Y146.0030
G01 X28.3637 Y146.0084
G01 X28.3342 Y146.0261
G01 X28.3213 Y146.0332
G01 X28.2813 Y146.0519
G01 X28.2398 Y146.0670
G01 X28.2304 Y146.0698
G01 X28.1971 Y146.0782
G01 X28.1779 Y146.0821
G01 X28.1390 Y146.0876
G01 X28.0900 Y146.0900
G01 X28.0410 Y146.0876
G01 X28.0021 Y146.0821
G01 X27.9877 Y146.0794
G01 X27.9543 Y146.0711
G01 X27.9355 Y146.0654
G01 X27.8987 Y146.0519
G01 X27.8543 Y146.0310
G01 X27.8122 Y146.0057
G01 X27.7766 Y145.9796
G01 X27.7654 Y145.9701
G01 X27.7364 Y145.9436
G01 X27.7035 Y145.9072
G01 X27.6743 Y145.8678
G01 X27.6490 Y145.8257
G01 X27.6281 Y145.7813
G01 X27.6115 Y145.7351
G01 X27.5996 Y145.6875
G01 X27.5924 Y145.6390
G01 X27.5900 Y145.5900
G01 X27.5924 Y145.5410
G01 X27.5996 Y145.4925
G01 X27.6115 Y145.4449
G01 X27.6281 Y145.3987
G01 X27.6490 Y145.3543
G01 X27.6743 Y145.3122
G01 X27.7004 Y145.2766
G01 X27.7099 Y145.2654
G01 X27.7364 Y145.2364
G01 X27.7728 Y145.2035
G01 X27.8122 Y145.1743
G01 X27.8543 Y145.1490
G01 X27.8987 Y145.1281
G01 X27.9449 Y145.1115
G01 X27.9925 Y145.0996
G01 X28.0361 Y145.0929
G01 X28.0508 Y145.0917
G01 X28.0900 Y145.0900
G01 X28.1390 Y145.0924
G01 X28.1875 Y145.0996
G01 X28.2304 Y145.1102
G01 X28.2445 Y145.1146
G01 X28.2813 Y145.1281
G01 X28.3213 Y145.1468
G01 X28.3342 Y145.1539
G01 X28.3637 Y145.1716
G01 X28.3718 Y145.1770
G01 X28.3893 Y145.1899
G00 Z2.0000
G00 X28.1002 Y150.0402
G01 F60.00
G01 Z-0.1000
G01 F100.00
G01 X28.1198 Y150.0402
G01 X28.1933 Y150.0441
G01 X28.2758 Y150.0563
G01 X28.3567 Y150.0766
G01 X28.4353 Y150.1047
G01 X28.5107 Y150.1404
G01 X28.5822 Y150.1833
G01 X28.6492 Y150.2329
G01 X28.7110 Y150.2890
G01 X28.7671 Y150.3508
G01 X28.8167 Y150.4178
G01 X28.8596 Y150.4893
G01 X28.8953 Y150.5647
G01 X28.9234 Y150.6433
G01 X28.9437 Y150.7242
G01 X28.9559 Y150.8067
G01 X28.9600 Y150.8900
G01 X28.9599 Y151.2949
G01 X28.9559 Y151.3733
G01 X28.9446 Y151.4510
G01 X28.9415 Y151.4654
G01 X28.9234 Y151.5367
G01 X28.8953 Y151.6153
G01 X28.8596 Y151.6907
G01 X28.8167 Y151.7622
G01 X28.7671 Y151.8292
G01 X28.7178 Y151.8839
G01 X28.7039 Y151.8978
G01 X28.6492 Y151.9471
G01 X28.5903 Y151.9911
G01 X28.5739 Y152.0020
G01 X28.5107 Y152.0396
G01 X28.4443 Y152.0713
G01 X28.4261 Y152.0788
G01 X28.3567 Y152.1034
G01 X28.2854 Y152.1215
G01 X28.2662 Y152.1253
G01 X28.1933 Y152.1359
G01 X28.1100 Y152.1400
G01 X28.0267 Y152.1359
G01 X27.9442 Y152.1237
G01 X27.8633 Y152.1034
G01 X27.7847 Y152.0753
G01 X27.7093 Y152.0396
G01 X27.6378 Y151.9967
G01 X27.5708 Y151.9471
G01 X27.5090 Y151.8910
G01 X27.4529 Y151.8292
G01 X27.4033 Y151.7622
G01 X27.3604 Y151.6907
G01 X27.3247 Y151.6153
G01 X27.2966 Y151.5367
G01 X27.2763 Y151.4558
G01 X27.2641 Y151.3733
G01 X27.2600 Y151.2900
G01 X27.2601 Y150.8851
G01 X27.2641 Y150.8067
G01 X27.2754 Y150.7290
G01 X27.2785 Y150.7146
G01 X27.2966 Y150.6433
G01 X27.3247 Y150.5647
G01 X27.3604 Y150.4893
G01 X27.4033 Y150.4178
G01 X27.4529 Y150.3508
G01 X27.5022 Y150.2961
G01 X27.5161 Y150.2822
G01 X27.5708 Y150.2329
G01 X27.6297 Y150.1889
G01 X27.6461 Y150.1780
G01 X27.7093 Y150.1404
G01 X27.7847 Y150.1047
G01 X27.8539 Y150.0797
G01 X27.8727 Y150.0740
G01 X27.9442 Y150.0563
G01 X28.0169 Y150.0453
G01 X28.0365 Y150.0434
G01 X28.1002 Y150.0402
G00 Z2.0000
G00 X28.1002 Y152.5802
G01 F60.00
G01 Z-0.1000
G01 F100.00
G01 X28.1198 Y152.5802
G01 X28.2129 Y152.5851
G01 X28.3148 Y152.6002
G01 X28.4148 Y152.6252
G01 X28.5118 Y152.6599
G01 X28.6050 Y152.7040
G01 X28.6933 Y152.7570
G01 X28.7761 Y152.8183
G01 X28.8525 Y152.8875
G01 X28.9217 Y152.9639
G01 X28.9830 Y153.0467
G01 X29.0360 Y153.1350
G01 X29.0801 Y153.2282
G01 X29.1148 Y153.3252
G01 X29.1398 Y153.4252
G01 X29.1549 Y153.5271
G01 X29.1600 Y153.6300
G01 X29.1549 Y153.7329
G01 X29.1398 Y153.8348
G01 X29.1148 Y153.9348
G01 X29.0801 Y154.0318
G01 X29.0360 Y154.1250
G01 X28.9830 Y154.2133
G01 X28.9217 Y154.2961
G01 X28.8525 Y154.3725
G01 X28.7761 Y154.4417
G01 X28.6933 Y154.5030
G01 X28.6050 Y154.5560
G01 X28.5118 Y154.6001
G01 X28.4148 Y154.6348
G01 X28.3148 Y154.6598
G01 X28.2129 Y154.6749
G01 X28.1100 Y154.6800
G01 X28.0071 Y154.6749
G01 X27.9052 Y154.6598
G01 X27.8052 Y154.6348
G01 X27.7082 Y154.6001
G01 X27.6150 Y154.5560
G01 X27.5267 Y154.5030
G01 X27.4439 Y154.4417
G01 X27.3675 Y154.3725
G01 X27.2983 Y154.2961
G01 X27.2370 Y154.2133
G01 X27.1840 Y154.1250
G01 X27.1399 Y154.0318
G01 X27.1052 Y153.9348
G01 X27.0802 Y153.8348
G01 X27.0651 Y153.7329
G01 X27.0600 Y153.6300
G01 X27.0651 Y153.5271
G01 X27.0802 Y153.4252
G01 X27.1052 Y153.3252
G01 X27.1399 Y153.2282
G01 X27.1840 Y153.1350
G01 X27.2370 Y153.0467
G01 X27.2983 Y152.9639
G01 X27.3675 Y152.8875
G01 X27.4439 Y152.8183
G01 X27.5267 Y152.7570
G01 X27.6150 Y152.7040
G01 X27.7082 Y152.6599
G01 X27.8052 Y152.6252
G01 X27.9052 Y152.6002
G01 X28.0071 Y152.5851
G01 X28.1002 Y152.5802
G00 Z2.0000
G00 X28.6859 Y152.6287
G01 F60.00
G01 Z-0.1000
G01 F100.00
G01 X28.6750 Y152.6225
G01 X28.6671 Y152.6173
G01 X28.6519 Y152.6057
G01 X28.5959 Y152.5565
G01 X28.5816 Y152.5426
G01 X28.5689 Y152.5274
G01 X28.5630 Y152.5194
G01 X28.5551 Y152.5068
G01 X28.5460 Y152.4891
G01 X28.5403 Y152.4754
G01 X28.5371 Y152.4659
G01 X28.5166 Y152.3940
G01 X28.5130 Y152.3795
G01 X28.5112 Y152.3697
G01 X28.5095 Y152.3550
G01 X28.5090 Y152.3450
G01 X28.5091 Y152.3301
G01 X28.5103 Y152.3153
G01 X28.5118 Y152.3055
G01 X28.5161 Y152.2861
G01 X28.5391 Y152.2097
G01 X28.5443 Y152.1959
G01 X28.5483 Y152.1869
G01 X28.5527 Y152.1781
G01 X28.5601 Y152.1654
G01 X28.5684 Y152.1532
G01 X28.5745 Y152.1454
G01 X28.5843 Y152.1344
G01 X28.6225 Y152.0946
G01 X28.6302 Y152.0877
G01 X28.6424 Y152.0780
G01 X28.7292 Y152.0150
G01 X28.8350 Y151.9092
G01 X28.9229 Y151.7882
G01 X28.9909 Y151.6549
G01 X29.0064 Y151.6072
G01 X29.0116 Y151.5939
G01 X29.0178 Y151.5810
G01 X29.0274 Y151.5646
G01 X29.0694 Y151.5029
G01 X29.0783 Y151.4910
G01 X29.0847 Y151.4834
G01 X29.0950 Y151.4726
G01 X29.1099 Y151.4594
G01 X29.1260 Y151.4478
G01 X29.1388 Y151.4402
G01 X29.1567 Y151.4316
G01 X29.2256 Y151.4025
G01 X29.2397 Y151.3976
G01 X29.2541 Y151.3937
G01 X29.2736 Y151.3902
G01 X29.2885 Y151.3889
G01 X29.3034 Y151.3887
G01 X29.3182 Y151.3896
G01 X29.3330 Y151.3916
G01 X29.4067 Y151.4044
G01 X29.4212 Y151.4078
G01 X29.4354 Y151.4123
G01 X29.4492 Y151.4179
G01 X29.4626 Y151.4245
G01 X29.4755 Y151.4320
G01 X29.4877 Y151.4405
G01 X29.5030 Y151.4532
G01 X29.5545 Y151.5004
G01 X29.5648 Y151.5106
G01 X29.5743 Y151.5216
G01 X29.5858 Y151.5371
G01 X29.5934 Y151.5495
G01 X29.6067 Y151.5749
G01 X29.6498 Y151.6675
G01 X29.7653 Y151.8324
G01 X29.9076 Y151.9747
G01 X30.0789 Y152.0946
G01 X30.0939 Y152.1062
G01 X30.1045 Y152.1159
G01 X30.1143 Y152.1263
G01 X30.1204 Y152.1335
G01 X30.1640 Y152.1881
G01 X30.1756 Y152.2042
G01 X30.1833 Y152.2170
G01 X30.1919 Y152.2349
G01 X30.1972 Y152.2488
G01 X30.2026 Y152.2679
G01 X30.2046 Y152.2777
G01 X30.2067 Y152.2924
G01 X30.2147 Y152.3718
G01 X30.2149 Y152.3867
G01 X30.2145 Y152.3966
G01 X30.2135 Y152.4065
G01 X30.2112 Y152.4212
G01 X30.2078 Y152.4357
G01 X30.2049 Y152.4452
G01 X30.2015 Y152.4546
G01 X30.1957 Y152.4683
G01 X30.1597 Y152.5394
G01 X30.1497 Y152.5561
G01 X30.1412 Y152.5679
G01 X30.1318 Y152.5790
G01 X30.1216 Y152.5895
G01 X30.0951 Y152.6127
G01 X30.0872 Y152.6193
G01 X30.0789 Y152.6254
G01 X29.9076 Y152.7453
G01 X29.7653 Y152.8876
G01 X29.6426 Y153.0627
G01 X29.6306 Y153.0775
G01 X29.6173 Y153.0911
G01 X29.6065 Y153.1004
G01 X29.5519 Y153.1440
G01 X29.5358 Y153.1556
G01 X29.5186 Y153.1656
G01 X29.5051 Y153.1719
G01 X29.4912 Y153.1772
G01 X29.4721 Y153.1826
G01 X29.4574 Y153.1855
G01 X29.4476 Y153.1867
G01 X29.3682 Y153.1947
G01 X29.3533 Y153.1949
G01 X29.3434 Y153.1945
G01 X29.3335 Y153.1935
G01 X29.3188 Y153.1912
G01 X29.3043 Y153.1878
G01 X29.2948 Y153.1849
G01 X29.2808 Y153.1797
G01 X29.2717 Y153.1757
G01 X29.2006 Y153.1397
G01 X29.1922 Y153.1349
G01 X29.1799 Y153.1269
G01 X29.1646 Y153.1150
G01 X29.1539 Y153.1051
G01 X29.1440 Y153.0944
G01 X29.1207 Y153.0672
G01 X29.1146 Y153.0589
G01 X28.9947 Y152.8877
G01 X28.8524 Y152.7453
G01 X28.6859 Y152.6287
G00 Z2.0000
G00 X30.6402 Y152.5802
G01 F60.00
G01 Z-0.1000
G01 F100.00
G01 X30.6598 Y152.5802
G01 X30.7529 Y152.5851
G01 X30.8548 Y152.6002
G01 X30.9548 Y152.6252
G01 X31.0518 Y152.6599
G01 X31.1450 Y152.7040
G01 X31.2333 Y152.7570
G01 X31.3161 Y152.8183
G01 X31.3925 Y152.8875
G01 X31.4617 Y152.9639
G01 X31.5230 Y153.0467
G01 X31.5760 Y153.1350
G01 X31.6201 Y153.2282
G01 X31.6548 Y153.3252
G01 X31.6798 Y153.4252
G01 X31.6949 Y153.5271
G01 X31.7000 Y153.6300
G01 X31.6949 Y153.7329
G01 X31.6798 Y153.8348
G01 X31.6548 Y153.9348
G01 X31.6201 Y154.0318
G01 X31.5760 Y154.1250
G01 X31.5230 Y154.2133
G01 X31.4617 Y154.2961
G01 X31.3925 Y154.3725
G01 X31.3161 Y154.4417
G01 X31.2333 Y154.5030
G01 X31.1450 Y154.5560
G01 X31.0518 Y154.6001
G01 X30.9548 Y154.6348
G01 X30.8548 Y154.6598
G01 X30.7529 Y154.6749
G01 X30.6500 Y154.6800
G01 X30.5471 Y154.6749
G01 X30.4452 Y154.6598
G01 X30.3452 Y154.6348
G01 X30.2482 Y154.6001
G01 X30.1550 Y154.5560
G01 X30.0667 Y154.5030
G01 X29.9839 Y154.4417
G01 X29.9075 Y154.3725
G01 X29.8383 Y154.2961
G01 X29.7770 Y154.2133
G01 X29.7240 Y154.1250
G01 X29.6799 Y154.0318
G01 X29.6452 Y153.9348
G01 X29.6202 Y153.8348
G01 X29.6051 Y153.7329
G01 X29.6000 Y153.6300
G01 X29.6051 Y153.5271
G01 X29.6202 Y153.4252
G01 X29.6452 Y153.3252
G01 X29.6799 Y153.2282
G01 X29.7240 Y153.1350
G01 X29.7770 Y153.0467
G01 X29.8383 Y152.9639
G01 X29.9075 Y152.8875
G01 X29.9839 Y152.8183
G01 X30.0667 Y152.7570
G01 X30.1550 Y152.7040
G01 X30.2482 Y152.6599
G01 X30.3452 Y152.6252
G01 X30.4452 Y152.6002
G01 X30.5471 Y152.5851
G01 X30.6402 Y152.5802
G00 Z2.0000
G00 X32.8156 Y152.3678
G01 F60.00
G01 Z-0.1000
G01 F100.00
G01 X32.8164 Y152.3827
G01 X32.8162 Y152.3926
G01 X32.8145 Y152.4124
G01 X32.8108 Y152.4319
G01 X32.8052 Y152.4510
G01 X32.7997 Y152.4648
G01 X32.7933 Y152.4783
G01 X32.7583 Y152.5444
G01 X32.7478 Y152.5612
G01 X32.7388 Y152.5730
G01 X32.7256 Y152.5877
G01 X32.7147 Y152.5979
G01 X32.6943 Y152.6155
G01 X32.6853 Y152.6224
G01 X32.5711 Y152.7054
G01 X32.4654 Y152.8111
G01 X32.3775 Y152.9321
G01 X32.3096 Y153.0653
G01 X32.2939 Y153.1135
G01 X32.2887 Y153.1268
G01 X32.2825 Y153.1396
G01 X32.2755 Y153.1521
G01 X32.2703 Y153.1600
G01 X32.2309 Y153.2177
G01 X32.2189 Y153.2335
G01 X32.2053 Y153.2481
G01 X32.1981 Y153.2548
G01 X32.1865 Y153.2643
G01 X32.1701 Y153.2755
G01 X32.1571 Y153.2828
G01 X32.1482 Y153.2871
G01 X32.0793 Y153.3163
G01 X32.0606 Y153.3231
G01 X32.0462 Y153.3269
G01 X32.0316 Y153.3297
G01 X32.0118 Y153.3318
G01 X31.9969 Y153.3320
G01 X31.9821 Y153.3311
G01 X31.9722 Y153.3299
G01 X31.8936 Y153.3163
G01 X31.8791 Y153.3128
G01 X31.8696 Y153.3099
G01 X31.8602 Y153.3066
G01 X31.8466 Y153.3007
G01 X31.8377 Y153.2962
G01 X31.8249 Y153.2886
G01 X31.8126 Y153.2802
G01 X31.8048 Y153.2740
G01 X31.7459 Y153.2202
G01 X31.7323 Y153.2065
G01 X31.7230 Y153.1953
G01 X31.7172 Y153.1875
G01 X31.7119 Y153.1795
G01 X31.7046 Y153.1669
G01 X31.6936 Y153.1458
G01 X31.6502 Y153.0526
G01 X31.5347 Y152.8876
G01 X31.3924 Y152.7453
G01 X31.2211 Y152.6254
G01 X31.2097 Y152.6168
G01 X31.2025 Y152.6106
G01 X31.1922 Y152.6007
G01 X31.1826 Y152.5901
G01 X31.1329 Y152.5280
G01 X31.1217 Y152.5116
G01 X31.1122 Y152.4941
G01 X31.1044 Y152.4759
G01 X31.0985 Y152.4569
G01 X31.0954 Y152.4423
G01 X31.0933 Y152.4276
G01 X31.0856 Y152.3531
G01 X31.0851 Y152.3333
G01 X31.0859 Y152.3184
G01 X31.0888 Y152.2988
G01 X31.0936 Y152.2795
G01 X31.1003 Y152.2608
G01 X31.1065 Y152.2473
G01 X31.1403 Y152.1806
G01 X31.1477 Y152.1680
G01 X31.1588 Y152.1521
G01 X31.1682 Y152.1410
G01 X31.1784 Y152.1305
G01 X31.2049 Y152.1073
G01 X31.2128 Y152.1007
G01 X31.2211 Y152.0946
G01 X31.3924 Y151.9747
G01 X31.5347 Y151.8324
G01 X31.6502 Y151.6674
G01 X31.6954 Y151.5706
G01 X31.6998 Y151.5622
G01 X31.7072 Y151.5500
G01 X31.7126 Y151.5421
G01 X31.7214 Y151.5309
G01 X31.7774 Y151.4675
G01 X31.7845 Y151.4606
G01 X31.7958 Y151.4508
G01 X31.8119 Y151.4392
G01 X31.8247 Y151.4316
G01 X31.8335 Y151.4270
G01 X31.8518 Y151.4193
G01 X31.8659 Y151.4146
G01 X31.9428 Y151.3930
G01 X31.9574 Y151.3902
G01 X31.9672 Y151.3889
G01 X31.9821 Y151.3879
G01 X31.9920 Y151.3879
G01 X32.0019 Y151.3883
G01 X32.0168 Y151.3899
G01 X32.0266 Y151.3916
G01 X32.0411 Y151.3950
G01 X32.1174 Y151.4181
G01 X32.1360 Y151.4252
G01 X32.1494 Y151.4318
G01 X32.1622 Y151.4393
G01 X32.1745 Y151.4478
G01 X32.1823 Y151.4539
G01 X32.1934 Y151.4638
G01 X32.2070 Y151.4783
G01 X32.2524 Y151.5314
G01 X32.2585 Y151.5390
G01 X32.2669 Y151.5508
G01 X32.2745 Y151.5631
G01 X32.2790 Y151.5717
G01 X32.2850 Y151.5849
G01 X32.2934 Y151.6067
G01 X32.3091 Y151.6549
G01 X32.3771 Y151.7882
G01 X32.4650 Y151.9092
G01 X32.5708 Y152.0150
G01 X32.6853 Y152.0982
G01 X32.6929 Y152.1040
G01 X32.7037 Y152.1133
G01 X32.7138 Y152.1234
G01 X32.7232 Y152.1341
G01 X32.7688 Y152.1932
G01 X32.7774 Y152.2053
G01 X32.7852 Y152.2181
G01 X32.7939 Y152.2359
G01 X32.7993 Y152.2498
G01 X32.8049 Y152.2688
G01 X32.8070 Y152.2785
G01 X32.8092 Y152.2933
G01 X32.8156 Y152.3678
G00 Z2.0000
G00 X34.8029 Y151.5126
G01 F60.00
G01 Z-0.1000
G01 F100.00
G01 X34.8491 Y151.6549
G01 X34.9171 Y151.7882
G01 X35.0050 Y151.9092
G01 X35.1108 Y152.0150
G01 X35.2287 Y152.1007
G01 X35.2361 Y152.1067
G01 X35.2467 Y152.1163
G01 X35.2566 Y152.1266
G01 X35.2657 Y152.1376
G01 X35.3113 Y152.1969
G01 X35.3223 Y152.2134
G01 X35.3315 Y152.2310
G01 X35.3389 Y152.2494
G01 X35.3445 Y152.2685
G01 X35.3481 Y152.2880
G01 X35.3558 Y152.3774
G01 X35.3558 Y152.3923
G01 X35.3552 Y152.4022
G01 X35.3524 Y152.4219
G01 X35.3504 Y152.4316
G01 X35.3463 Y152.4460
G01 X35.3412 Y152.4600
G01 X35.3351 Y152.4735
G01 X35.2954 Y152.5484
G01 X35.2874 Y152.5609
G01 X35.2752 Y152.5765
G01 X35.2652 Y152.5874
G01 X35.2580 Y152.5943
G01 X35.2294 Y152.6187
G01 X35.1108 Y152.7050
G01 X35.0050 Y152.8108
G01 X34.9171 Y152.9318
G01 X34.8491 Y153.0651
G01 X34.8029 Y153.2074
G01 X34.7798 Y153.3536
G01 X34.7770 Y153.3676
G01 X34.7733 Y153.3814
G01 X34.7686 Y153.3948
G01 X34.7649 Y153.4036
G01 X34.7308 Y153.4755
G01 X34.7210 Y153.4928
G01 X34.7125 Y153.5051
G01 X34.7064 Y153.5129
G01 X34.6965 Y153.5240
G01 X34.6858 Y153.5343
G01 X34.6743 Y153.5439
G01 X34.6622 Y153.5525
G01 X34.5901 Y153.5972
G01 X34.5723 Y153.6059
G01 X34.5537 Y153.6129
G01 X34.5442 Y153.6157
G01 X34.5296 Y153.6190
G01 X34.5149 Y153.6211
G01 X34.5001 Y153.6222
G01 X34.4153 Y153.6212
G01 X34.4004 Y153.6201
G01 X34.3857 Y153.6178
G01 X34.3712 Y153.6145
G01 X34.3570 Y153.6101
G01 X34.3431 Y153.6046
G01 X34.3297 Y153.5982
G01 X34.3126 Y153.5880
G01 X34.2504 Y153.5467
G01 X34.2350 Y153.5349
G01 X34.2278 Y153.5284
