(G-CODE GENERATED BY FLATCAM v8.994 - www.flatcam.org - Version Date: 2020/11/7)

(Name: Beecounter-B_Cu.gbr_cutout_cnc)
(Type: G-code from Geometry)
(Units: MM)

(Created on Saturday, 30 November 2024 at 13:45)

(This preprocessor is the default preprocessor used by FlatCAM.)
(It is made to work with MACH3 compatible motion controllers.)

(TOOL DIAMETER: 1.5 mm)
(Feedrate_XY: 120.0 mm/min)
(Feedrate_Z: 60.0 mm/min)
(Feedrate rapids 1500.0 mm/min)

(Z_Cut: -1.8 mm)
(DepthPerCut: 0.6 mm <=>3 passes)
(Z_Move: 2.0 mm)
(Z Start: None mm)
(Z End: 15.0 mm)
(X,Y End: None mm)
(Steps per circle: 64)
(Preprocessor Geometry: default)

(X range:   -0.4081 ...   59.3990  mm)
(Y range:   -0.3573 ...  160.3100  mm)

(Spindle Speed: 0.0 RPM)
G21
G90
G94

G01 F120.00

M5
G00 Z15.0000
G00 X0.0000 Y0.0000
T1
M6    
(MSG, Change to Tool Dia = 1.5000)
M0
G00 Z15.0000

M03
G01 F120.00
G00 X11.8437 Y-0.3573
G01 F60.00
G01 Z-0.6000
G01 F120.00
G01 X0.4419 Y-0.3573
G01 X0.3586 Y-0.3532
G01 X0.2761 Y-0.3410
G01 X0.1952 Y-0.3207
G01 X0.1167 Y-0.2926
G01 X0.0413 Y-0.2569
G01 X-0.0303 Y-0.2141
G01 X-0.0973 Y-0.1644
G01 X-0.1591 Y-0.1083
G01 X-0.2151 Y-0.0465
G01 X-0.2648 Y0.0205
G01 X-0.3077 Y0.0920
G01 X-0.3434 Y0.1674
G01 X-0.3715 Y0.2460
G01 X-0.3917 Y0.3269
G01 X-0.4040 Y0.4094
G01 X-0.4081 Y0.4927
G01 X-0.4081 Y37.1095
G00 X-0.4081 Y37.1095
G01 F60.00
G01 Z-1.2000
G01 F120.00
G01 X-0.4081 Y0.4927
G01 X-0.4040 Y0.4094
G01 X-0.3917 Y0.3269
G01 X-0.3715 Y0.2460
G01 X-0.3434 Y0.1674
G01 X-0.3077 Y0.0920
G01 X-0.2648 Y0.0205
G01 X-0.2151 Y-0.0465
G01 X-0.1591 Y-0.1083
G01 X-0.0973 Y-0.1644
G01 X-0.0303 Y-0.2141
G01 X0.0413 Y-0.2569
G01 X0.1167 Y-0.2926
G01 X0.1952 Y-0.3207
G01 X0.2761 Y-0.3410
G01 X0.3586 Y-0.3532
G01 X0.4419 Y-0.3573
G01 X11.8437 Y-0.3573
G00 X11.8437 Y-0.3573
G01 F60.00
G01 Z-1.8000
G01 F120.00
G01 X0.4419 Y-0.3573
G01 X0.3586 Y-0.3532
G01 X0.2761 Y-0.3410
G01 X0.1952 Y-0.3207
G01 X0.1167 Y-0.2926
G01 X0.0413 Y-0.2569
G01 X-0.0303 Y-0.2141
G01 X-0.0973 Y-0.1644
G01 X-0.1591 Y-0.1083
G01 X-0.2151 Y-0.0465
G01 X-0.2648 Y0.0205
G01 X-0.3077 Y0.0920
G01 X-0.3434 Y0.1674
G01 X-0.3715 Y0.2460
G01 X-0.3917 Y0.3269
G01 X-0.4040 Y0.4094
G01 X-0.4081 Y0.4927
G01 X-0.4081 Y37.1095
G00 Z2.0000
G00 X-0.4081 Y42.6095
G01 F60.00
G01 Z-0.6000
G01 F120.00
G01 X-0.4081 Y117.5432
G00 X-0.4081 Y117.5432
G01 F60.00
G01 Z-1.2000
G01 F120.00
G01 X-0.4081 Y42.6095
G00 X-0.4081 Y42.6095
G01 F60.00
G01 Z-1.8000
G01 F120.00
G01 X-0.4081 Y117.5432
G00 Z2.0000
G00 X-0.4081 Y123.0432
G01 F60.00
G01 Z-0.6000
G01 F120.00
G01 X-0.4081 Y159.4600
G01 X-0.4040 Y159.5433
G01 X-0.3917 Y159.6258
G01 X-0.3715 Y159.7067
G01 X-0.3434 Y159.7853
G01 X-0.3077 Y159.8607
G01 X-0.2648 Y159.9322
G01 X-0.2151 Y159.9992
G01 X-0.1591 Y160.0610
G01 X-0.0973 Y160.1171
G01 X-0.0303 Y160.1667
G01 X0.0413 Y160.2096
G01 X0.1167 Y160.2453
G01 X0.1952 Y160.2734
G01 X0.2761 Y160.2937
G01 X0.3586 Y160.3059
G01 X0.4419 Y160.3100
G01 X11.8437 Y160.3100
G00 X11.8437 Y160.3100
G01 F60.00
G01 Z-1.2000
G01 F120.00
G01 X0.4419 Y160.3100
G01 X0.3586 Y160.3059
G01 X0.2761 Y160.2937
G01 X0.1952 Y160.2734
G01 X0.1167 Y160.2453
G01 X0.0413 Y160.2096
G01 X-0.0303 Y160.1667
G01 X-0.0973 Y160.1171
G01 X-0.1591 Y160.0610
G01 X-0.2151 Y159.9992
G01 X-0.2648 Y159.9322
G01 X-0.3077 Y159.8607
G01 X-0.3434 Y159.7853
G01 X-0.3715 Y159.7067
G01 X-0.3917 Y159.6258
G01 X-0.4040 Y159.5433
G01 X-0.4081 Y159.4600
G01 X-0.4081 Y123.0432
G00 X-0.4081 Y123.0432
G01 F60.00
G01 Z-1.8000
G01 F120.00
G01 X-0.4081 Y159.4600
G01 X-0.4040 Y159.5433
G01 X-0.3917 Y159.6258
G01 X-0.3715 Y159.7067
G01 X-0.3434 Y159.7853
G01 X-0.3077 Y159.8607
G01 X-0.2648 Y159.9322
G01 X-0.2151 Y159.9992
G01 X-0.1591 Y160.0610
G01 X-0.0973 Y160.1171
G01 X-0.0303 Y160.1667
G01 X0.0413 Y160.2096
G01 X0.1167 Y160.2453
G01 X0.1952 Y160.2734
G01 X0.2761 Y160.2937
G01 X0.3586 Y160.3059
G01 X0.4419 Y160.3100
G01 X11.8437 Y160.3100
G00 Z2.0000
G00 X17.3437 Y160.3100
G01 F60.00
G01 Z-0.6000
G01 F120.00
G01 X41.8473 Y160.3100
G00 X41.8473 Y160.3100
G01 F60.00
G01 Z-1.2000
G01 F120.00
G01 X17.3437 Y160.3100
G00 X17.3437 Y160.3100
G01 F60.00
G01 Z-1.8000
G01 F120.00
G01 X41.8473 Y160.3100
G00 Z2.0000
G00 X47.3473 Y160.3100
G01 F60.00
G01 Z-0.6000
G01 F120.00
G01 X58.5490 Y160.3100
G01 X58.6323 Y160.3059
G01 X58.7149 Y160.2937
G01 X58.7958 Y160.2734
G01 X58.8743 Y160.2453
G01 X58.9497 Y160.2096
G01 X59.0213 Y160.1667
G01 X59.0883 Y160.1171
G01 X59.1501 Y160.0610
G01 X59.2061 Y159.9992
G01 X59.2558 Y159.9322
G01 X59.2987 Y159.8607
G01 X59.3343 Y159.7853
G01 X59.3624 Y159.7067
G01 X59.3827 Y159.6258
G01 X59.3949 Y159.5433
G01 X59.3990 Y159.4600
G01 X59.3990 Y123.0432
G00 X59.3990 Y123.0432
G01 F60.00
G01 Z-1.2000
G01 F120.00
G01 X59.3990 Y159.4600
G01 X59.3949 Y159.5433
G01 X59.3827 Y159.6258
G01 X59.3624 Y159.7067
G01 X59.3343 Y159.7853
G01 X59.2987 Y159.8607
G01 X59.2558 Y159.9322
G01 X59.2061 Y159.9992
G01 X59.1501 Y160.0610
G01 X59.0883 Y160.1171
G01 X59.0213 Y160.1667
G01 X58.9497 Y160.2096
G01 X58.8743 Y160.2453
G01 X58.7958 Y160.2734
G01 X58.7149 Y160.2937
G01 X58.6323 Y160.3059
G01 X58.5490 Y160.3100
G01 X47.3473 Y160.3100
G00 X47.3473 Y160.3100
G01 F60.00
G01 Z-1.8000
G01 F120.00
G01 X58.5490 Y160.3100
G01 X58.6323 Y160.3059
G01 X58.7149 Y160.2937
G01 X58.7958 Y160.2734
G01 X58.8743 Y160.2453
G01 X58.9497 Y160.2096
G01 X59.0213 Y160.1667
G01 X59.0883 Y160.1171
G01 X59.1501 Y160.0610
G01 X59.2061 Y159.9992
G01 X59.2558 Y159.9322
G01 X59.2987 Y159.8607
G01 X59.3343 Y159.7853
G01 X59.3624 Y159.7067
G01 X59.3827 Y159.6258
G01 X59.3949 Y159.5433
G01 X59.3990 Y159.4600
G01 X59.3990 Y123.0432
G00 Z2.0000
G00 X59.3990 Y117.5432
G01 F60.00
G01 Z-0.6000
G01 F120.00
G01 X59.3990 Y42.6095
G00 X59.3990 Y42.6095
G01 F60.00
G01 Z-1.2000
G01 F120.00
G01 X59.3990 Y117.5432
G00 X59.3990 Y117.5432
G01 F60.00
G01 Z-1.8000
G01 F120.00
G01 X59.3990 Y42.6095
G00 Z2.0000
G00 X59.3990 Y37.1095
G01 F60.00
G01 Z-0.6000
G01 F120.00
G01 X59.3990 Y0.4927
G01 X59.3949 Y0.4094
G01 X59.3827 Y0.3269
G01 X59.3624 Y0.2460
G01 X59.3343 Y0.1674
G01 X59.2987 Y0.0920
G01 X59.2558 Y0.0205
G01 X59.2061 Y-0.0465
G01 X59.1501 Y-0.1083
G01 X59.0883 Y-0.1644
G01 X59.0213 Y-0.2141
G01 X58.9497 Y-0.2569
G01 X58.8743 Y-0.2926
G01 X58.7958 Y-0.3207
G01 X58.7149 Y-0.3410
G01 X58.6323 Y-0.3532
G01 X58.5490 Y-0.3573
G01 X47.3473 Y-0.3573
G00 X47.3473 Y-0.3573
G01 F60.00
G01 Z-1.2000
G01 F120.00
G01 X58.5490 Y-0.3573
G01 X58.6323 Y-0.3532
G01 X58.7149 Y-0.3410
G01 X58.7958 Y-0.3207
G01 X58.8743 Y-0.2926
G01 X58.9497 Y-0.2569
G01 X59.0213 Y-0.2141
G01 X59.0883 Y-0.1644
G01 X59.1501 Y-0.1083
G01 X59.2061 Y-0.0465
G01 X59.2558 Y0.0205
G01 X59.2987 Y0.0920
G01 X59.3343 Y0.1674
G01 X59.3624 Y0.2460
G01 X59.3827 Y0.3269
G01 X59.3949 Y0.4094
G01 X59.3990 Y0.4927
G01 X59.3990 Y37.1095
G00 X59.3990 Y37.1095
G01 F60.00
G01 Z-1.8000
G01 F120.00
G01 X59.3990 Y0.4927
G01 X59.3949 Y0.4094
G01 X59.3827 Y0.3269
G01 X59.3624 Y0.2460
G01 X59.3343 Y0.1674
G01 X59.2987 Y0.0920
G01 X59.2558 Y0.0205
G01 X59.2061 Y-0.0465
G01 X59.1501 Y-0.1083
G01 X59.0883 Y-0.1644
G01 X59.0213 Y-0.2141
G01 X58.9497 Y-0.2569
G01 X58.8743 Y-0.2926
G01 X58.7958 Y-0.3207
G01 X58.7149 Y-0.3410
G01 X58.6323 Y-0.3532
G01 X58.5490 Y-0.3573
G01 X47.3473 Y-0.3573
G00 Z2.0000
G00 X41.8473 Y-0.3573
G01 F60.00
G01 Z-0.6000
G01 F120.00
G01 X17.3437 Y-0.3573
G00 X17.3437 Y-0.3573
G01 F60.00
G01 Z-1.2000
G01 F120.00
G01 X41.8473 Y-0.3573
G00 X41.8473 Y-0.3573
G01 F60.00
G01 Z-1.8000
G01 F120.00
G01 X17.3437 Y-0.3573
G00 Z2.0000
M05
G00 Z2.0000
G00 Z15.00


