(G-CODE GENERATED BY FLATCAM v8.994 - www.flatcam.org - Version Date: 2020/11/7)

(Name: Beecounter-F_Cu.gbr_iso_combined_cnc)
(Type: G-code from Geometry)
(Units: MM)

(Created on Saturday, 30 November 2024 at 13:40)

(This preprocessor is the default preprocessor used by FlatCAM.)
(It is made to work with MACH3 compatible motion controllers.)

(TOOL DIAMETER: 0.3 mm)
(Feedrate_XY: 120.0 mm/min)
(Feedrate_Z: 60.0 mm/min)
(Feedrate rapids 1500.0 mm/min)

(Z_Cut: -0.1 mm)
(Z_Move: 2.0 mm)
(Z Start: None mm)
(Z End: 15.0 mm)
(X,Y End: None mm)
(Steps per circle: 64)
(Preprocessor Geometry: default)

(X range:    0.2919 ...   58.6990  mm)
(Y range:    0.3427 ...  159.6100  mm)

(Spindle Speed: 0.0 RPM)
G21
G90
G94

G01 F120.00

M5
G00 Z15.0000
G00 X0.0000 Y0.0000
T1
M6    
(MSG, Change to Tool Dia = 0.3000)
M0
G00 Z15.0000

M03
G01 F120.00
G00 X0.3398 Y2.9748
G01 F60.00
G01 Z-0.1000
G01 F120.00
G01 X0.3855 Y2.9220
G01 X0.3932 Y2.9137
G01 X0.4015 Y2.9061
G01 X0.4103 Y2.8991
G01 X0.4197 Y2.8928
G01 X0.4295 Y2.8872
G01 X0.4396 Y2.8824
G01 X0.4501 Y2.8783
G01 X0.5162 Y2.8574
G01 X0.5272 Y2.8547
G01 X0.5364 Y2.8531
G01 X0.6353 Y2.8266
G01 X0.7152 Y2.7805
G01 X0.7805 Y2.7152
G01 X0.8266 Y2.6353
G01 X0.8505 Y2.5461
G01 X0.8505 Y1.1245
G01 X0.8509 Y1.1138
G01 X0.8520 Y1.1032
G01 X0.8532 Y1.0961
G01 X0.8660 Y1.0375
G01 X0.8679 Y1.0302
G01 X0.8715 Y1.0196
G01 X0.8776 Y1.0058
G01 X0.8811 Y0.9992
G01 X0.8870 Y0.9897
G01 X0.8959 Y0.9776
G01 X0.9441 Y0.9220
G01 X0.9544 Y0.9112
G01 X0.9657 Y0.9015
G01 X0.9779 Y0.8930
G01 X0.9909 Y0.8857
G01 X1.0046 Y0.8798
G01 X1.0152 Y0.8763
G01 X1.0857 Y0.8556
G01 X1.0996 Y0.8526
G01 X1.1067 Y0.8516
G01 X1.1174 Y0.8507
G01 X2.5461 Y0.8505
G01 X2.6353 Y0.8266
G01 X2.7152 Y0.7805
G01 X2.7805 Y0.7152
G01 X2.8266 Y0.6353
G01 X2.8360 Y0.6003
G01 X2.8397 Y0.5885
G01 X2.8493 Y0.5623
G01 X2.8539 Y0.5523
G01 X2.8592 Y0.5426
G01 X2.8653 Y0.5333
G01 X2.8720 Y0.5246
G01 X2.9200 Y0.4689
G01 X2.9277 Y0.4607
G01 X2.9387 Y0.4507
G01 X2.9507 Y0.4419
G01 X2.9603 Y0.4361
G01 X2.9736 Y0.4295
G01 X2.9840 Y0.4254
G01 X3.0650 Y0.4015
G01 X3.0790 Y0.3988
G01 X3.0861 Y0.3979
G01 X3.0968 Y0.3973
G01 X55.8845 Y0.3427
G01 X55.8970 Y0.3432
G01 X55.9214 Y0.3453
G01 X55.9287 Y0.3462
G01 X55.9396 Y0.3484
G01 X55.9467 Y0.3502
G01 X55.9607 Y0.3550
G01 X55.9708 Y0.3595
G01 X56.0337 Y0.3900
G01 X56.0436 Y0.3953
G01 X56.0530 Y0.4012
G01 X56.0620 Y0.4079
G01 X56.0704 Y0.4152
G01 X56.0757 Y0.4204
G01 X56.0856 Y0.4316
G01 X56.0943 Y0.4437
G01 X56.1326 Y0.5065
G01 X56.1394 Y0.5191
G01 X56.1438 Y0.5289
G01 X56.1484 Y0.5423
G01 X56.1734 Y0.6353
G01 X56.2195 Y0.7152
G01 X56.2848 Y0.7805
G01 X56.3647 Y0.8266
G01 X56.4539 Y0.8505
G01 X57.8755 Y0.8505
G01 X57.8898 Y0.8512
G01 X57.9004 Y0.8526
G01 X57.9074 Y0.8539
G01 X57.9589 Y0.8651
G01 X57.9698 Y0.8679
G01 X57.9804 Y0.8715
G01 X57.9908 Y0.8759
G01 X58.0008 Y0.8811
G01 X58.0103 Y0.8870
G01 X58.0165 Y0.8913
G01 X58.0252 Y0.8983
G01 X58.0780 Y0.9441
G01 X58.0888 Y0.9544
G01 X58.0985 Y0.9657
G01 X58.1070 Y0.9779
G01 X58.1143 Y0.9909
G01 X58.1202 Y1.0046
G01 X58.1237 Y1.0152
G01 X58.1453 Y1.0891
G01 X58.1468 Y1.0961
G01 X58.1484 Y1.1067
G01 X58.1495 Y1.1209
G01 X58.1495 Y2.5461
G01 X58.1734 Y2.6353
G01 X58.2195 Y2.7152
G01 X58.2848 Y2.7805
G01 X58.3647 Y2.8266
G01 X58.4459 Y2.8486
G01 X58.4726 Y2.8582
G01 X58.4794 Y2.8610
G01 X58.4894 Y2.8659
G01 X58.5020 Y2.8735
G01 X58.5138 Y2.8823
G01 X58.5723 Y2.9329
G01 X58.5802 Y2.9407
G01 X58.5852 Y2.9462
G01 X58.5922 Y2.9550
G01 X58.6004 Y2.9674
G01 X58.6073 Y2.9806
G01 X58.6129 Y2.9944
G01 X58.6367 Y3.0754
G01 X58.6383 Y3.0824
G01 X58.6399 Y3.0930
G01 X58.6406 Y3.1001
G01 X58.6410 Y3.1108
G01 X58.6990 Y156.8755
G01 X58.6986 Y156.8867
G01 X58.6979 Y156.8941
G01 X58.6907 Y156.9413
G01 X58.6872 Y156.9554
G01 X58.6837 Y156.9656
G01 X58.6809 Y156.9723
G01 X58.6762 Y156.9821
G01 X58.6708 Y156.9915
G01 X58.6282 Y157.0560
G01 X58.6191 Y157.0678
G01 X58.6116 Y157.0760
G01 X58.6062 Y157.0811
G01 X58.6006 Y157.0860
G01 X58.5917 Y157.0928
G01 X58.5823 Y157.0989
G01 X58.5725 Y157.1043
G01 X58.4953 Y157.1385
G01 X58.4852 Y157.1420
G01 X58.4783 Y157.1439
G01 X58.4637 Y157.1469
G01 X58.3647 Y157.1734
G01 X58.2848 Y157.2195
G01 X58.2195 Y157.2848
G01 X58.1734 Y157.3647
G01 X58.1495 Y157.4539
G01 X58.1495 Y158.8755
G01 X58.1488 Y158.8898
G01 X58.1474 Y158.9004
G01 X58.1461 Y158.9074
G01 X58.1349 Y158.9589
G01 X58.1321 Y158.9698
G01 X58.1285 Y158.9804
G01 X58.1241 Y158.9908
G01 X58.1189 Y159.0008
G01 X58.1130 Y159.0103
G01 X58.1064 Y159.0195
G01 X58.1017 Y159.0252
G01 X58.0559 Y159.0780
G01 X58.0456 Y159.0888
G01 X58.0343 Y159.0985
G01 X58.0221 Y159.1070
G01 X58.0091 Y159.1143
G01 X57.9954 Y159.1202
G01 X57.9848 Y159.1237
G01 X57.9109 Y159.1453
G01 X57.9004 Y159.1474
G01 X57.8933 Y159.1484
G01 X57.8791 Y159.1495
G01 X56.4539 Y159.1495
G01 X56.3647 Y159.1734
G01 X56.2848 Y159.2195
G01 X56.2195 Y159.2848
G01 X56.1734 Y159.3647
G01 X56.1621 Y159.4069
G01 X56.1583 Y159.4188
G01 X56.1487 Y159.4451
G01 X56.1441 Y159.4552
G01 X56.1387 Y159.4649
G01 X56.1327 Y159.4741
G01 X56.1260 Y159.4829
G01 X56.0778 Y159.5385
G01 X56.0702 Y159.5467
G01 X56.0591 Y159.5567
G01 X56.0471 Y159.5655
G01 X56.0376 Y159.5713
G01 X56.0242 Y159.5779
G01 X56.0103 Y159.5831
G01 X55.9328 Y159.6058
G01 X55.9223 Y159.6079
G01 X55.9152 Y159.6089
G01 X55.9046 Y159.6098
G01 X55.8974 Y159.6100
G01 X29.1821 Y159.6100
G01 X29.1642 Y159.6094
G01 X29.1568 Y159.6088
G01 X29.1458 Y159.6072
G01 X29.1349 Y159.6047
G01 X29.1208 Y159.6002
G01 X29.0519 Y159.5745
G01 X29.0417 Y159.5699
G01 X29.0351 Y159.5665
G01 X29.0224 Y159.5586
G01 X29.0106 Y159.5495
G01 X29.0024 Y159.5420
G01 X28.9972 Y159.5366
G01 X28.9877 Y159.5252
G01 X28.9415 Y159.4632
G01 X28.9338 Y159.4504
G01 X28.9304 Y159.4438
G01 X28.9260 Y159.4335
G01 X28.9235 Y159.4265
G01 X28.9204 Y159.4158
G01 X28.9188 Y159.4085
G01 X28.9170 Y159.3974
G01 X28.9111 Y159.3166
G01 X28.9110 Y159.3055
G01 X28.9114 Y159.2980
G01 X28.9133 Y159.2832
G01 X28.9166 Y159.2687
G01 X28.9214 Y159.2546
G01 X28.9243 Y159.2478
G01 X28.9293 Y159.2378
G01 X28.9627 Y159.1764
G01 X28.9682 Y159.1672
G01 X28.9765 Y159.1556
G01 X28.9858 Y159.1448
G01 X29.0540 Y159.0765
G01 X29.0655 Y159.0601
G01 X29.0832 Y159.0384
G01 X29.0905 Y159.0302
G01 X31.0718 Y157.0488
G01 X31.0821 Y157.0395
G01 X31.0932 Y157.0311
G01 X31.1373 Y157.0012
G01 X31.1503 Y156.9941
G01 X31.1640 Y156.9882
G01 X31.1782 Y156.9838
G01 X31.1928 Y156.9808
G01 X31.2693 Y156.9709
G01 X31.2800 Y156.9702
G01 X31.2871 Y156.9701
G01 X31.2942 Y156.9704
G01 X31.3049 Y156.9714
G01 X31.4255 Y156.9905
G01 X31.6145 Y156.9905
G01 X31.8011 Y156.9609
G01 X31.9808 Y156.9025
G01 X32.1492 Y156.8168
G01 X32.3021 Y156.7057
G01 X32.4357 Y156.5721
G01 X32.5468 Y156.4192
G01 X32.6153 Y156.2846
G01 X32.6207 Y156.2749
G01 X32.6269 Y156.2656
G01 X32.6547 Y156.2285
G01 X32.6615 Y156.2201
G01 X32.6689 Y156.2121
G01 X32.6769 Y156.2048
G01 X32.6825 Y156.2002
G01 X32.6883 Y156.1959
G01 X32.6974 Y156.1900
G01 X32.7069 Y156.1847
G01 X32.7726 Y156.1516
G01 X32.7864 Y156.1458
G01 X32.7970 Y156.1425
G01 X32.8116 Y156.1392
G01 X32.8227 Y156.1377
G01 X32.8338 Y156.1371
G01 X32.8487 Y156.1375
G01 X32.9219 Y156.1451
G01 X32.9366 Y156.1473
G01 X32.9439 Y156.1490
G01 X32.9546 Y156.1522
G01 X32.9685 Y156.1577
G01 X32.9752 Y156.1609
G01 X32.9849 Y156.1664
G01 X32.9972 Y156.1748
G01 X33.0575 Y156.2230
G01 X33.0654 Y156.2301
G01 X33.0728 Y156.2379
G01 X33.0775 Y156.2433
G01 X33.0839 Y156.2518
G01 X33.1753 Y156.3824
G01 X33.3176 Y156.5247
G01 X33.4826 Y156.6402
G01 X33.6650 Y156.7252
G01 X33.8595 Y156.7774
G01 X34.0600 Y156.7949
G01 X34.2606 Y156.7773
G01 X34.4550 Y156.7252
G01 X34.6374 Y156.6402
G01 X34.8024 Y156.5247
G01 X34.9447 Y156.3824
G01 X35.0405 Y156.2459
G01 X35.0452 Y156.2401
G01 X35.0527 Y156.2320
G01 X35.0854 Y156.1992
G01 X35.0964 Y156.1897
G01 X35.1022 Y156.1854
G01 X35.1112 Y156.1794
G01 X35.1207 Y156.1741
G01 X35.1306 Y156.1695
G01 X35.1407 Y156.1657
G01 X35.2068 Y156.1431
G01 X35.2175 Y156.1399
G01 X35.2321 Y156.1369
G01 X35.2432 Y156.1356
G01 X35.2507 Y156.1352
G01 X35.2618 Y156.1353
G01 X35.2693 Y156.1358
G01 X35.2803 Y156.1372
G01 X35.2876 Y156.1387
G01 X35.3627 Y156.1573
G01 X35.3698 Y156.1594
G01 X35.3803 Y156.1633
G01 X35.3938 Y156.1696
G01 X35.4065 Y156.1773
G01 X35.4185 Y156.1862
G01 X35.4295 Y156.1962
G01 X35.4825 Y156.2523
G01 X35.4893 Y156.2605
G01 X35.4956 Y156.2692
G01 X35.4994 Y156.2752
G01 X35.5046 Y156.2846
G01 X35.5732 Y156.4192
G01 X35.6843 Y156.5721
G01 X35.8179 Y156.7057
G01 X35.9708 Y156.8168
G01 X36.1392 Y156.9025
G01 X36.3189 Y156.9609
G01 X36.5055 Y156.9905
G01 X36.6945 Y156.9905
G01 X36.8811 Y156.9609
G01 X37.0608 Y156.9025
G01 X37.2292 Y156.8168
G01 X37.3821 Y156.7057
G01 X37.5157 Y156.5721
G01 X37.6269 Y156.4191
G01 X37.6331 Y156.4083
G01 X37.6393 Y156.3993
G01 X37.6462 Y156.3908
G01 X37.6876 Y156.3431
G01 X37.6951 Y156.3354
G01 X37.7005 Y156.3305
G01 X37.7118 Y156.3216
G01 X37.7239 Y156.3139
G01 X37.7368 Y156.3073
G01 X37.7468 Y156.3032
G01 X37.8163 Y156.2795
G01 X37.8270 Y156.2763
G01 X37.8379 Y156.2739
G01 X37.8453 Y156.2727
G01 X37.8564 Y156.2717
G01 X37.8638 Y156.2715
G01 X37.8787 Y156.2721
G01 X37.8935 Y156.2743
G01 X37.9757 Y156.2946
G01 X37.9898 Y156.2996
G01 X38.0032 Y156.3060
G01 X38.0160 Y156.3137
G01 X38.0280 Y156.3225
G01 X38.0336 Y156.3274
G01 X38.0416 Y156.3353
G01 X38.0895 Y156.3861
G01 X38.0988 Y156.3969
G01 X38.1070 Y156.4085
G01 X38.1131 Y156.4191
G01 X38.2243 Y156.5721
G01 X38.3579 Y156.7057
G01 X38.5108 Y156.8168
G01 X38.6792 Y156.9025
G01 X38.8589 Y156.9609
G01 X39.0455 Y156.9905
G01 X39.2345 Y156.9905
G01 X39.4211 Y156.9609
G01 X39.6008 Y156.9025
G01 X39.7692 Y156.8168
G01 X39.9221 Y156.7057
G01 X40.0557 Y156.5721
G01 X40.1669 Y156.4191
G01 X40.1731 Y156.4083
G01 X40.1793 Y156.3993
G01 X40.1862 Y156.3908
G01 X40.2276 Y156.3431
G01 X40.2351 Y156.3354
G01 X40.2405 Y156.3305
G01 X40.2518 Y156.3216
G01 X40.2639 Y156.3139
G01 X40.2768 Y156.3073
G01 X40.2868 Y156.3032
G01 X40.3563 Y156.2795
G01 X40.3670 Y156.2763
G01 X40.3779 Y156.2739
G01 X40.3853 Y156.2727
G01 X40.3964 Y156.2717
G01 X40.4038 Y156.2715
G01 X40.4187 Y156.2721
G01 X40.4335 Y156.2743
G01 X40.5157 Y156.2946
G01 X40.5298 Y156.2996
G01 X40.5432 Y156.3060
G01 X40.5560 Y156.3137
G01 X40.5680 Y156.3225
G01 X40.5736 Y156.3274
G01 X40.5816 Y156.3353
G01 X40.6295 Y156.3861
G01 X40.6388 Y156.3969
G01 X40.6470 Y156.4085
G01 X40.6531 Y156.4191
G01 X40.7643 Y156.5721
G01 X40.8979 Y156.7057
G01 X41.0508 Y156.8168
G01 X41.2192 Y156.9025
G01 X41.3989 Y156.9609
G01 X41.5855 Y156.9905
G01 X41.7745 Y156.9905
G01 X41.9611 Y156.9609
G01 X42.1408 Y156.9025
G01 X42.3092 Y156.8168
G01 X42.4621 Y156.7057
G01 X42.5957 Y156.5721
G01 X42.7069 Y156.4191
G01 X42.7131 Y156.4083
G01 X42.7193 Y156.3993
G01 X42.7262 Y156.3908
G01 X42.7676 Y156.3431
G01 X42.7751 Y156.3354
G01 X42.7805 Y156.3305
G01 X42.7918 Y156.3216
G01 X42.8039 Y156.3139
G01 X42.8168 Y156.3073
G01 X42.8268 Y156.3032
G01 X42.8963 Y156.2795
G01 X42.9070 Y156.2763
G01 X42.9179 Y156.2739
G01 X42.9253 Y156.2727
G01 X42.9364 Y156.2717
G01 X42.9438 Y156.2715
G01 X42.9587 Y156.2721
G01 X42.9735 Y156.2743
G01 X43.0557 Y156.2946
G01 X43.0698 Y156.2996
G01 X43.0832 Y156.3060
G01 X43.0960 Y156.3137
G01 X43.1080 Y156.3225
G01 X43.1136 Y156.3274
G01 X43.1216 Y156.3353
G01 X43.1695 Y156.3861
G01 X43.1788 Y156.3969
G01 X43.1870 Y156.4085
G01 X43.1931 Y156.4191
G01 X43.3043 Y156.5721
G01 X43.4379 Y156.7057
G01 X43.5908 Y156.8168
G01 X43.7592 Y156.9025
G01 X43.9389 Y156.9609
G01 X44.1255 Y156.9905
G01 X44.3145 Y156.9905
G01 X44.5011 Y156.9609
G01 X44.6808 Y156.9025
G01 X44.8492 Y156.8168
G01 X45.0021 Y156.7057
G01 X45.1357 Y156.5721
G01 X45.2469 Y156.4191
G01 X45.2531 Y156.4083
G01 X45.2593 Y156.3993
G01 X45.2662 Y156.3908
G01 X45.3076 Y156.3431
G01 X45.3151 Y156.3354
G01 X45.3205 Y156.3305
G01 X45.3289 Y156.3237
G01 X45.3408 Y156.3157
G01 X45.3535 Y156.3088
G01 X45.3668 Y156.3032
G01 X45.4363 Y156.2795
G01 X45.4470 Y156.2763
G01 X45.4579 Y156.2739
G01 X45.4653 Y156.2727
G01 X45.4764 Y156.2717
G01 X45.4838 Y156.2715
G01 X45.4987 Y156.2721
G01 X45.5135 Y156.2743
G01 X45.5957 Y156.2946
G01 X45.6098 Y156.2996
G01 X45.6232 Y156.3060
G01 X45.6360 Y156.3137
G01 X45.6480 Y156.3225
G01 X45.6536 Y156.3274
G01 X45.6616 Y156.3353
G01 X45.7095 Y156.3861
G01 X45.7188 Y156.3969
G01 X45.7270 Y156.4085
G01 X45.7331 Y156.4191
G01 X45.8443 Y156.5721
G01 X45.9779 Y156.7057
G01 X46.1308 Y156.8168
G01 X46.2992 Y156.9025
G01 X46.4789 Y156.9609
G01 X46.6655 Y156.9905
G01 X46.8545 Y156.9905
G01 X47.0411 Y156.9609
G01 X47.2208 Y156.9025
G01 X47.3892 Y156.8168
G01 X47.5421 Y156.7057
G01 X47.6757 Y156.5721
G01 X47.7869 Y156.4191
G01 X47.7931 Y156.4083
G01 X47.7993 Y156.3993
G01 X47.8062 Y156.3908
G01 X47.8476 Y156.3431
G01 X47.8551 Y156.3354
G01 X47.8605 Y156.3305
G01 X47.8718 Y156.3216
G01 X47.8839 Y156.3139
G01 X47.8968 Y156.3073
G01 X47.9068 Y156.3032
G01 X47.9763 Y156.2795
G01 X47.9870 Y156.2763
G01 X47.9979 Y156.2739
G01 X48.0053 Y156.2727
G01 X48.0164 Y156.2717
G01 X48.0238 Y156.2715
G01 X48.0387 Y156.2721
G01 X48.0535 Y156.2743
G01 X48.1357 Y156.2946
G01 X48.1498 Y156.2996
G01 X48.1632 Y156.3060
G01 X48.1760 Y156.3137
G01 X48.1880 Y156.3225
G01 X48.1936 Y156.3274
G01 X48.2016 Y156.3353
G01 X48.2495 Y156.3861
G01 X48.2588 Y156.3969
G01 X48.2670 Y156.4085
G01 X48.2731 Y156.4191
G01 X48.3843 Y156.5721
G01 X48.5179 Y156.7057
G01 X48.6708 Y156.8168
G01 X48.8392 Y156.9025
G01 X49.0189 Y156.9609
G01 X49.2055 Y156.9905
G01 X49.3945 Y156.9905
G01 X49.5811 Y156.9609
G01 X49.7608 Y156.9025
G01 X49.9292 Y156.8168
G01 X50.0821 Y156.7057
G01 X50.2157 Y156.5721
G01 X50.3269 Y156.4191
G01 X50.3331 Y156.4083
G01 X50.3393 Y156.3993
G01 X50.3462 Y156.3908
G01 X50.3876 Y156.3431
G01 X50.3951 Y156.3354
G01 X50.4005 Y156.3305
G01 X50.4089 Y156.3237
G01 X50.4208 Y156.3157
G01 X50.4335 Y156.3088
G01 X50.4468 Y156.3032
G01 X50.5234 Y156.2773
G01 X50.5343 Y156.2746
G01 X50.5416 Y156.2733
G01 X50.5490 Y156.2723
G01 X50.5601 Y156.2715
G01 X50.5676 Y156.2715
G01 X50.5787 Y156.2721
G01 X50.5935 Y156.2743
G01 X50.6757 Y156.2946
G01 X50.6898 Y156.2996
G01 X50.7032 Y156.3060
G01 X50.7160 Y156.3137
G01 X50.7280 Y156.3225
G01 X50.7336 Y156.3274
G01 X50.7416 Y156.3353
G01 X50.7895 Y156.3861
G01 X50.7988 Y156.3969
G01 X50.8070 Y156.4085
G01 X50.8131 Y156.4191
G01 X50.9243 Y156.5721
G01 X51.0579 Y156.7057
G01 X51.2108 Y156.8168
G01 X51.3792 Y156.9025
G01 X51.5589 Y156.9609
G01 X51.7455 Y156.9905
G01 X51.9345 Y156.9905
G01 X52.1211 Y156.9609
G01 X52.3008 Y156.9025
G01 X52.4692 Y156.8168
G01 X52.6221 Y156.7057
G01 X52.7701 Y156.5577
G01 X52.7813 Y156.5481
G01 X52.7947 Y156.5387
G01 X52.8107 Y156.5259
G01 X52.8228 Y156.5174
G01 X52.8324 Y156.5119
G01 X52.8424 Y156.5071
G01 X52.8527 Y156.5031
G01 X52.8632 Y156.4998
G01 X52.9423 Y156.4824
G01 X52.9534 Y156.4807
G01 X52.9645 Y156.4799
G01 X52.9794 Y156.4800
G01 X52.9905 Y156.4811
G01 X53.0052 Y156.4838
G01 X53.0195 Y156.4880
G01 X53.0954 Y156.5164
G01 X53.1055 Y156.5212
G01 X53.1120 Y156.5248
G01 X53.1244 Y156.5330
G01 X53.1332 Y156.5399
G01 X53.1388 Y156.5449
G01 X53.1466 Y156.5528
G01 X53.1515 Y156.5584
G01 X53.1980 Y156.6202
G01 X53.2045 Y156.6296
G01 X53.2102 Y156.6395
G01 X53.2152 Y156.6498
G01 X53.2192 Y156.6597
G01 X53.2796 Y156.7404
G01 X53.3603 Y156.8008
G01 X53.4573 Y156.8370
G01 X53.4902 Y156.8405
G01 X55.2698 Y156.8405
G01 X55.3027 Y156.8370
G01 X55.3997 Y156.8008
G01 X55.4804 Y156.7404
G01 X55.5408 Y156.6597
G01 X55.5770 Y156.5627
G01 X55.5805 Y156.5298
G01 X55.5807 Y155.5356
G01 X55.5852 Y155.4940
G01 X55.5882 Y155.4796
G01 X55.5926 Y155.4655
G01 X55.5967 Y155.4553
G01 X55.6017 Y155.4454
G01 X55.6352 Y155.3841
G01 X55.6406 Y155.3749
G01 X55.6489 Y155.3632
G01 X55.6558 Y155.3551
G01 X55.6608 Y155.3499
G01 X57.6441 Y153.3665
G01 X57.7208 Y153.2518
G01 X57.7736 Y153.1243
G01 X57.8005 Y152.9890
G01 X57.8005 Y148.4618
G01 X57.8012 Y148.4511
G01 X57.8020 Y148.4440
G01 X57.8047 Y148.4300
G01 X57.8263 Y148.3560
G01 X57.8296 Y148.3459
G01 X57.8337 Y148.3360
G01 X57.8385 Y148.3264
G01 X57.8528 Y148.3035
G01 X57.9036 Y148.1923
G01 X57.9381 Y148.0748
G01 X57.9555 Y147.9537
G01 X57.9555 Y147.3313
G01 X57.9381 Y147.2102
G01 X57.9036 Y147.0927
G01 X57.8528 Y146.9815
G01 X57.7866 Y146.8785
G01 X57.7065 Y146.7860
G01 X57.6140 Y146.7059
G01 X57.5111 Y146.6397
G01 X57.3997 Y146.5889
G01 X57.2823 Y146.5544
G01 X57.1612 Y146.5370
G01 X56.7745 Y146.5370
G01 X56.7638 Y146.5366
G01 X56.7532 Y146.5355
G01 X56.7461 Y146.5343
G01 X56.6911 Y146.5224
G01 X56.6802 Y146.5196
G01 X56.6661 Y146.5146
G01 X56.6558 Y146.5099
G01 X56.6460 Y146.5045
G01 X56.6366 Y146.4984
G01 X56.6276 Y146.4916
G01 X56.5664 Y146.4384
G01 X56.5562 Y146.4276
G01 X56.5515 Y146.4218
G01 X56.5450 Y146.4127
G01 X56.5392 Y146.4031
G01 X56.5341 Y146.3932
G01 X56.5298 Y146.3829
G01 X56.5263 Y146.3723
G01 X56.5047 Y146.2984
G01 X56.5032 Y146.2914
G01 X56.5016 Y146.2808
G01 X56.5007 Y146.2701
G01 X56.5005 Y146.2630
G01 X56.5005 Y4.9510
G01 X56.4736 Y4.8157
G01 X56.4208 Y4.6882
G01 X56.3441 Y4.5735
G01 X52.8765 Y1.1059
G01 X52.7618 Y1.0292
G01 X52.6343 Y0.9764
G01 X52.4990 Y0.9495
G01 X6.7810 Y0.9495
G01 X6.6457 Y0.9764
G01 X6.5182 Y1.0292
G01 X6.4035 Y1.1059
G01 X2.5959 Y4.9135
G01 X2.5192 Y5.0282
G01 X2.4664 Y5.1557
G01 X2.4395 Y5.2910
G01 X2.4395 Y30.0890
G01 X2.4452 Y30.1188
G01 X2.4465 Y30.1298
G01 X2.4469 Y30.1408
G01 X2.4469 Y30.1892
G01 X2.4465 Y30.2002
G01 X2.4447 Y30.2148
G01 X2.4395 Y30.2410
G01 X2.4395 Y127.7490
G01 X2.4664 Y127.8843
G01 X2.5192 Y128.0118
G01 X2.5959 Y128.1265
G01 X5.0685 Y130.5991
G01 X5.1832 Y130.6758
G01 X5.2113 Y130.6879
G01 X5.2213 Y130.6933
G01 X5.2308 Y130.6995
G01 X5.2427 Y130.7088
G01 X5.2955 Y130.7546
G01 X5.3037 Y130.7622
G01 X5.3088 Y130.7676
G01 X5.3160 Y130.7762
G01 X5.3204 Y130.7822
G01 X5.3264 Y130.7916
G01 X5.3301 Y130.7981
G01 X5.3349 Y130.8082
G01 X5.3401 Y130.8221
G01 X5.3609 Y130.8927
G01 X5.3643 Y130.9066
G01 X5.3663 Y130.9207
G01 X5.3670 Y130.9314
G01 X5.3670 Y130.9448
G01 X5.3705 Y130.9777
G01 X5.4067 Y131.0747
G01 X5.4671 Y131.1554
G01 X5.5478 Y131.2158
G01 X5.6656 Y131.2599
G01 X5.6753 Y131.2645
G01 X5.7094 Y131.2831
G01 X5.7160 Y131.2869
G01 X5.7254 Y131.2932
G01 X5.7344 Y131.3001
G01 X5.7427 Y131.3078
G01 X5.7505 Y131.3160
G01 X5.7553 Y131.3218
G01 X5.8038 Y131.3868
G01 X5.8115 Y131.3996
G01 X5.8179 Y131.4130
G01 X5.8206 Y131.4200
G01 X5.8240 Y131.4306
G01 X5.8266 Y131.4415
G01 X5.8283 Y131.4525
G01 X5.8340 Y131.5297
G01 X5.8344 Y131.5408
G01 X5.8336 Y131.5557
G01 X5.8327 Y131.5631
G01 X5.8306 Y131.5741
G01 X5.8287 Y131.5813
G01 X5.8253 Y131.5919
G01 X5.8195 Y131.6056
G01 X5.7808 Y131.6767
G01 X5.7771 Y131.6828
G01 X5.7710 Y131.6916
G01 X5.7643 Y131.6999
G01 X5.7570 Y131.7077
G01 X5.6443 Y131.8204
G01 X5.5239 Y131.9925
G01 X5.4351 Y132.1828
G01 X5.3807 Y132.3857
G01 X5.3624 Y132.5950
G01 X5.3807 Y132.8043
G01 X5.4351 Y133.0072
G01 X5.5239 Y133.1975
G01 X5.6444 Y133.3696
G01 X5.7929 Y133.5181
G01 X5.9713 Y133.6431
G01 X5.9803 Y133.6504
G01 X6.0050 Y133.6720
G01 X6.0126 Y133.6798
G01 X6.0218 Y133.6910
G01 X6.0280 Y133.7000
G01 X6.0335 Y133.7094
G01 X6.0684 Y133.7785
G01 X6.0728 Y133.7887
G01 X6.0753 Y133.7958
G01 X6.0793 Y133.8101
G01 X6.0813 Y133.8211
G01 X6.0822 Y133.8285
G01 X6.0828 Y133.8359
G01 X6.0829 Y133.8471
G01 X6.0821 Y133.8582
G01 X6.0745 Y133.9314
G01 X6.0719 Y133.9461
G01 X6.0700 Y133.9533
G01 X6.0665 Y133.9639
G01 X6.0607 Y133.9777
G01 X6.0536 Y133.9907
G01 X6.0495 Y133.9970
G01 X6.0429 Y134.0060
G01 X5.9970 Y134.0633
G01 X5.9873 Y134.0738
G01 X5.9794 Y134.0810
G01 X5.9681 Y134.0898
G01 X5.7932 Y134.2122
G01 X5.6447 Y134.3607
G01 X5.5243 Y134.5327
G01 X5.4356 Y134.7230
G01 X5.4323 Y134.7350
G01 X5.6516 Y134.7350
G01 X5.6856 Y134.6636
G01 X5.7360 Y134.5794
G01 X5.7945 Y134.5006
G01 X5.8553 Y134.4332
G01 X5.8657 Y134.4228
G01 X5.9275 Y134.3668
G01 X5.9389 Y134.3575
G01 X6.0119 Y134.3035
G01 X6.0961 Y134.2531
G01 X6.1848 Y134.2111
G01 X6.2702 Y134.1804
G01 X6.2843 Y134.1761
G01 X6.3721 Y134.1543
G01 X6.4622 Y134.1407
G01 X6.4768 Y134.1393
G01 X6.5675 Y134.1350
G01 X6.6582 Y134.1393
G01 X6.6728 Y134.1407
G01 X6.7626 Y134.1542
G01 X6.8507 Y134.1761
G01 X6.8642 Y134.1802
G01 X6.9502 Y134.2111
G01 X7.0389 Y134.2531
G01 X7.1231 Y134.3035
G01 X7.1961 Y134.3575
G01 X7.2075 Y134.3668
G01 X7.2693 Y134.4228
G01 X7.2797 Y134.4332
G01 X7.3405 Y134.5006
G01 X7.3990 Y134.5794
G01 X7.4494 Y134.6636
G01 X7.4834 Y134.7350
G01 X7.7027 Y134.7350
G01 X7.6994 Y134.7230
G01 X7.6107 Y134.5327
G01 X7.4903 Y134.3607
G01 X7.3418 Y134.2122
G01 X7.1637 Y134.0875
G01 X7.1547 Y134.0802
G01 X7.1354 Y134.0635
G01 X7.1300 Y134.0586
G01 X7.1224 Y134.0508
G01 X7.1153 Y134.0424
G01 X7.1110 Y134.0366
G01 X7.1032 Y134.0243
G01 X7.0682 Y133.9555
G01 X7.0636 Y133.9453
G01 X7.0585 Y133.9313
G01 X7.0549 Y133.9169
G01 X7.0528 Y133.9021
G01 X7.0521 Y133.8910
G01 X7.0521 Y133.8835
G01 X7.0529 Y133.8724
G01 X7.0610 Y133.7955
G01 X7.0623 Y133.7881
G01 X7.0650 Y133.7773
G01 X7.0672 Y133.7702
G01 X7.0712 Y133.7597
G01 X7.0743 Y133.7530
G01 X7.0795 Y133.7431
G01 X7.0855 Y133.7336
G01 X7.0898 Y133.7276
G01 X7.1357 Y133.6701
G01 X7.1427 Y133.6620
G01 X7.1477 Y133.6568
G01 X7.1556 Y133.6496
G01 X7.1669 Y133.6409
G01 X7.3421 Y133.5181
G01 X7.4906 Y133.3696
G01 X7.5151 Y133.3347
G01 X7.5197 Y133.3288
G01 X7.5271 Y133.3205
G01 X7.5350 Y133.3127
G01 X7.5756 Y133.2758
G01 X7.5868 Y133.2666
G01 X7.5958 Y133.2604
G01 X7.6084 Y133.2532
G01 X7.6217 Y133.2473
G01 X7.6354 Y133.2426
G01 X7.7142 Y133.2242
G01 X7.7252 Y133.2223
G01 X7.7400 Y133.2212
G01 X7.7512 Y133.2212
G01 X7.7623 Y133.2222
G01 X7.7734 Y133.2239
G01 X7.7842 Y133.2264
G01 X7.7949 Y133.2298
G01 X7.8607 Y133.2533
G01 X7.8707 Y133.2572
G01 X7.8803 Y133.2619
G01 X7.8896 Y133.2672
G01 X7.9127 Y133.2835
G01 X7.9423 Y133.2968
G01 X7.9561 Y133.3043
G01 X7.9999 Y133.3341
G01 X8.0094 Y133.3412
G01 X8.0210 Y133.3517
G01 X8.6135 Y133.9441
G01 X8.7282 Y134.0208
G01 X8.8557 Y134.0736
G01 X8.9910 Y134.1005
G01 X13.7760 Y134.1007
G01 X13.8140 Y134.1046
G01 X13.8285 Y134.1073
G01 X13.8391 Y134.1102
G01 X13.8461 Y134.1126
G01 X13.8529 Y134.1153
G01 X13.8629 Y134.1200
G01 X13.9337 Y134.1587
G01 X13.9397 Y134.1626
G01 X13.9484 Y134.1689
G01 X13.9565 Y134.1758
G01 X13.9628 Y134.1819
G01 X14.0798 Y134.2540
G01 X14.2113 Y134.2976
G01 X14.2885 Y134.3055
G01 X14.3977 Y134.3056
G01 X14.4103 Y134.3061
G01 X14.4213 Y134.3072
G01 X14.4286 Y134.3083
G01 X14.4395 Y134.3108
G01 X14.4536 Y134.3153
G01 X14.5191 Y134.3397
G01 X14.5328 Y134.3456
G01 X14.5426 Y134.3509
G01 X14.5551 Y134.3590
G01 X14.5666 Y134.3684
G01 X14.5772 Y134.3789
G01 X14.5867 Y134.3903
G01 X14.6286 Y134.4463
G01 X14.6350 Y134.4555
G01 X14.6406 Y134.4651
G01 X14.6470 Y134.4786
G01 X14.6509 Y134.4890
G01 X14.6549 Y134.5034
G01 X14.6569 Y134.5144
G01 X14.6581 Y134.5255
G01 X14.6634 Y134.5989
G01 X14.6633 Y134.6138
G01 X14.6618 Y134.6286
G01 X14.6597 Y134.6396
G01 X14.6578 Y134.6468
G01 X14.6531 Y134.6609
G01 X14.6486 Y134.6711
G01 X14.6452 Y134.6777
G01 X14.6081 Y134.7453
G01 X14.6001 Y134.7571
G01 X14.5934 Y134.7654
G01 X14.5886 Y134.7707
G01 X14.0234 Y135.3360
G01 X13.9467 Y135.4507
G01 X13.8939 Y135.5782
G01 X13.8670 Y135.7135
G01 X13.8668 Y137.8854
G01 X13.8653 Y137.9004
G01 X13.8623 Y137.9152
G01 X13.8428 Y137.9839
G01 X13.8394 Y137.9947
G01 X13.8335 Y138.0085
G01 X13.8281 Y138.0185
G01 X13.7935 Y138.0748
G01 X13.7499 Y138.2063
G01 X13.7420 Y138.2835
G01 X13.7420 Y138.8665
G01 X13.7499 Y138.9437
G01 X13.7935 Y139.0752
G01 X13.8656 Y139.1922
G01 X13.9675 Y139.2941
G01 X13.9753 Y139.3024
G01 X13.9801 Y139.3083
G01 X13.9867 Y139.3175
G01 X14.0201 Y139.3698
G01 X14.0253 Y139.3798
G01 X14.0311 Y139.3936
G01 X14.0355 Y139.4079
G01 X14.0378 Y139.4189
G01 X14.0396 Y139.4338
G01 X14.0446 Y139.5035
G01 X14.0449 Y139.5184
G01 X14.0438 Y139.5333
G01 X14.0411 Y139.5479
G01 X14.0371 Y139.5622
G01 X14.0331 Y139.5727
G01 X14.0266 Y139.5861
G01 X13.9931 Y139.6474
G01 X13.9877 Y139.6566
G01 X13.9794 Y139.6683
G01 X13.9700 Y139.6790
G01 X13.8660 Y139.7831
G01 X13.7940 Y139.8998
G01 X14.0342 Y139.8998
G01 X14.0509 Y139.8813
G01 X14.0586 Y139.8734
G01 X14.0814 Y139.8528
G01 X14.0900 Y139.8459
G01 X14.1148 Y139.8278
G01 X14.1409 Y139.8119
G01 X14.1506 Y139.8066
G01 X14.1750 Y139.7950
G01 X14.1851 Y139.7906
G01 X14.2140 Y139.7803
G01 X14.2246 Y139.7772
G01 X14.2508 Y139.7707
G01 X14.2617 Y139.7687
G01 X14.2920 Y139.7644
G01 X14.3263 Y139.7625
G01 X14.8050 Y139.7625
G01 X14.8356 Y139.7638
G01 X14.8466 Y139.7648
G01 X14.8806 Y139.7699
G01 X14.9104 Y139.7772
G01 X14.9245 Y139.7815
G01 X14.9464 Y139.7893
G01 X14.9567 Y139.7934
G01 X14.9877 Y139.8083
G01 X15.0172 Y139.8258
G01 X15.0263 Y139.8320
G01 X15.0450 Y139.8459
G01 X15.0569 Y139.8557
G01 X15.1992 Y139.7134
G01 X15.1650 Y139.6790
G01 X15.1578 Y139.6710
G01 X15.1513 Y139.6625
G01 X15.1149 Y139.6059
G01 X15.1097 Y139.5959
G01 X15.1039 Y139.5821
G01 X15.0995 Y139.5678
G01 X15.0979 Y139.5605
G01 X15.0961 Y139.5493
G01 X15.0904 Y139.4722
G01 X15.0900 Y139.4610
G01 X15.0905 Y139.4499
G01 X15.0918 Y139.4388
G01 X15.0939 Y139.4278
G01 X15.0957 Y139.4206
G01 X15.0992 Y139.4099
G01 X15.1034 Y139.3996
G01 X15.1066 Y139.3929
G01 X15.1419 Y139.3283
G01 X15.1454 Y139.3221
G01 X15.1513 Y139.3132
G01 X15.1578 Y139.3047
G01 X15.1650 Y139.2967
G01 X15.2694 Y139.1922
G01 X15.3415 Y139.0752
G01 X15.3851 Y138.9437
G01 X15.3930 Y138.8665
G01 X15.3930 Y138.2835
G01 X15.3851 Y138.2063
G01 X15.3415 Y138.0748
G01 X15.3069 Y138.0185
G01 X15.3000 Y138.0053
G01 X15.2958 Y137.9950
G01 X15.2923 Y137.9844
G01 X15.2727 Y137.9152
G01 X15.2703 Y137.9041
G01 X15.2692 Y137.8967
G01 X15.2680 Y137.8817
G01 X15.2681 Y136.1821
G01 X15.2689 Y136.1701
G01 X15.2727 Y136.1365
G01 X15.2757 Y136.1220
G01 X15.2801 Y136.1080
G01 X15.2843 Y136.0978
G01 X15.2892 Y136.0879
G01 X15.3244 Y136.0235
G01 X15.3301 Y136.0144
G01 X15.3342 Y136.0086
G01 X15.3410 Y136.0002
G01 X15.3483 Y135.9924
G01 X16.6798 Y134.6609
G01 X16.6957 Y134.6462
G01 X16.7076 Y134.6371
G01 X16.7171 Y134.6311
G01 X16.7271 Y134.6259
G01 X16.7935 Y134.5955
G01 X16.8039 Y134.5912
G01 X16.8181 Y134.5867
G01 X16.8290 Y134.5843
G01 X16.8438 Y134.5824
G01 X16.8586 Y134.5819
G01 X16.8661 Y134.5823
G01 X16.8772 Y134.5834
G01 X16.9500 Y134.5940
G01 X16.9646 Y134.5972
G01 X16.9752 Y134.6005
G01 X16.9890 Y134.6062
G01 X16.9957 Y134.6095
G01 X17.0053 Y134.6152
G01 X17.0175 Y134.6238
G01 X17.0332 Y134.6371
G01 X17.0476 Y134.6460
G01 X17.0590 Y134.6550
G01 X17.3475 Y134.6550
G01 X17.3475 Y134.2300
G01 X17.3489 Y134.2006
G01 X17.3533 Y134.1715
G01 X17.3604 Y134.1429
G01 X17.3703 Y134.1152
G01 X17.3829 Y134.0886
G01 X17.3981 Y134.0633
G01 X17.4157 Y134.0395
G01 X17.4354 Y134.0179
G01 X17.4572 Y133.9981
G01 X17.4778 Y133.9826
G01 X17.4870 Y133.9766
G01 X17.5059 Y133.9655
G01 X17.5260 Y133.9558
G01 X17.5361 Y133.9515
G01 X17.5569 Y133.9440
G01 X17.5675 Y133.9410
G01 X17.5890 Y133.9358
G01 X17.6144 Y133.9319
G01 X17.6254 Y133.9309
G01 X17.6475 Y133.9300
G01 X17.9512 Y133.9300
G01 X17.9769 Y133.9314
G01 X18.0060 Y133.9358
G01 X18.0346 Y133.9429
G01 X18.0589 Y133.9515
G01 X18.0690 Y133.9558
G01 X18.0857 Y133.9637
G01 X18.1080 Y133.9766
G01 X18.1172 Y133.9826
G01 X18.1320 Y133.9936
G01 X18.1434 Y134.0029
G01 X18.1596 Y134.0179
G01 X18.1794 Y134.0397
G01 X18.1969 Y134.0633
G01 X18.2102 Y134.0852
G01 X18.2152 Y134.0947
G01 X18.2232 Y134.1118
G01 X18.2323 Y134.1359
G01 X18.2365 Y134.1500
G01 X18.2410 Y134.1679
G01 X18.2430 Y134.1787
G01 X18.2461 Y134.2006
G01 X18.2475 Y134.2300
G01 X18.2475 Y134.8376
G01 X18.2582 Y134.8602
G01 X18.2610 Y134.8670
G01 X18.2738 Y134.9028
G01 X18.2772 Y134.9133
G01 X18.2881 Y134.9574
G01 X18.2944 Y134.9987
G01 X18.2958 Y135.0133
G01 X18.2977 Y135.0550
G01 X18.2977 Y136.4652
G01 X18.3088 Y136.4764
G01 X18.3160 Y136.4849
G01 X18.3204 Y136.4910
G01 X18.3245 Y136.4972
G01 X18.3301 Y136.5069
G01 X18.3363 Y136.5204
G01 X18.3412 Y136.5344
G01 X18.3619 Y136.6049
G01 X18.3636 Y136.6118
G01 X18.3655 Y136.6224
G01 X18.3666 Y136.6330
G01 X18.3670 Y136.6402
G01 X18.3668 Y138.0275
G01 X18.3658 Y138.0446
G01 X18.3640 Y138.0590
G01 X18.3607 Y138.0732
G01 X18.3561 Y138.0871
G01 X18.3280 Y138.1549
G01 X18.3233 Y138.1651
G01 X18.3179 Y138.1749
G01 X18.3117 Y138.1842
G01 X18.3049 Y138.1931
G01 X18.2975 Y138.2014
G01 X18.2894 Y138.2092
G01 X18.2779 Y138.2185
G01 X18.2113 Y138.2644
G01 X18.2051 Y138.2681
G01 X18.1954 Y138.2731
G01 X18.1853 Y138.2773
G01 X18.1748 Y138.2810
G01 X18.0578 Y138.3531
G01 X17.9606 Y138.4503
G01 X17.8885 Y138.5673
G01 X17.8449 Y138.6988
G01 X17.8370 Y138.7760
G01 X17.8370 Y139.3340
G01 X17.8449 Y139.4112
G01 X17.8885 Y139.5427
G01 X17.9653 Y139.6673
G01 X17.9803 Y139.6878
G01 X17.9860 Y139.6972
G01 X17.9894 Y139.7038
G01 X17.9939 Y139.7138
G01 X17.9977 Y139.7242
G01 X18.0184 Y139.7948
G01 X18.0211 Y139.8052
G01 X18.0234 Y139.8192
G01 X18.0243 Y139.8299
G01 X18.0245 Y139.8371
G01 X18.0245 Y140.2729
G01 X18.0236 Y140.2890
G01 X18.0208 Y140.3153
G01 X18.0192 Y140.3263
G01 X18.0168 Y140.3371
G01 X18.0148 Y140.3441
G01 X18.0097 Y140.3579
G01 X18.0050 Y140.3679
G01 X17.9896 Y140.3962
G01 X17.9862 Y140.4059
G01 X17.9834 Y140.4126
G01 X17.9767 Y140.4258
G01 X17.9708 Y140.4351
G01 X17.9653 Y140.4427
G01 X17.8884 Y140.5675
G01 X17.8449 Y140.6988
G01 X17.8370 Y140.7760
G01 X17.8370 Y141.3340
G01 X17.8449 Y141.4112
G01 X17.8885 Y141.5427
G01 X17.9606 Y141.6597
G01 X18.0578 Y141.7569
G01 X18.1748 Y141.8290
G01 X18.3063 Y141.8726
G01 X18.3835 Y141.8805
G01 X19.0665 Y141.8805
G01 X19.1437 Y141.8726
G01 X19.2752 Y141.8290
G01 X19.3922 Y141.7569
G01 X19.4024 Y141.7472
G01 X19.4144 Y141.7380
G01 X19.4698 Y141.7024
G01 X19.4832 Y141.6956
G01 X19.4971 Y141.6902
G01 X19.5116 Y141.6862
G01 X19.5189 Y141.6847
G01 X19.5301 Y141.6832
G01 X19.6035 Y141.6779
G01 X19.6147 Y141.6775
G01 X19.6258 Y141.6780
G01 X19.6369 Y141.6793
G01 X19.6479 Y141.6814
G01 X19.6587 Y141.6843
G01 X19.6692 Y141.6880
G01 X19.6828 Y141.6941
G01 X19.7505 Y141.7311
G01 X19.7596 Y141.7368
G01 X19.7654 Y141.7409
G01 X19.7738 Y141.7477
G01 X19.7831 Y141.7565
G01 X19.7912 Y141.7615
G01 X19.9096 Y141.6431
G01 X19.9094 Y141.5961
G01 X19.8986 Y141.5872
G01 X19.8760 Y141.5665
G01 X19.8553 Y141.5439
G01 X19.8482 Y141.5355
G01 X19.8299 Y141.5108
G01 X19.8239 Y141.5016
G01 X19.8083 Y141.4752
G01 X19.7950 Y141.4475
G01 X19.7893 Y141.4339
G01 X19.7803 Y141.4085
G01 X19.7772 Y141.3979
G01 X19.7716 Y141.3753
G01 X19.7693 Y141.3645
G01 X19.7653 Y141.3378
G01 X19.7641 Y141.3268
G01 X19.7625 Y141.2925
G01 X19.7625 Y140.8175
G01 X19.7641 Y140.7832
G01 X19.7653 Y140.7722
G01 X19.7699 Y140.7419
G01 X19.7772 Y140.7121
G01 X19.7815 Y140.6980
G01 X19.7920 Y140.6692
G01 X19.8049 Y140.6414
G01 X19.8100 Y140.6316
G01 X19.8258 Y140.6053
G01 X19.8320 Y140.5962
G01 X19.8482 Y140.5745
G01 X19.8553 Y140.5661
G01 X19.8709 Y140.5488
G01 X19.8813 Y140.5384
G01 X19.9014 Y140.5203
G01 X19.9100 Y140.5134
G01 X19.9348 Y140.4953
G01 X19.9673 Y140.4758
G01 X20.0017 Y140.4595
G01 X20.0340 Y140.4478
G01 X20.0446 Y140.4447
G01 X20.0744 Y140.4374
G01 X20.1047 Y140.4328
G01 X20.1194 Y140.4313
G01 X20.1500 Y140.4300
G01 X20.3676 Y140.4300
G01 X20.5990 Y140.1988
G01 X20.6327 Y140.1684
G01 X20.6691 Y140.1412
G01 X20.6783 Y140.1352
G01 X20.7142 Y140.1139
G01 X20.7519 Y140.0959
G01 X20.7620 Y140.0915
G01 X20.8013 Y140.0775
G01 X20.8119 Y140.0744
G01 X20.8524 Y140.0644
G01 X20.8827 Y140.0598
G01 X20.8842 Y140.0466
G01 X20.8954 Y139.9776
G01 X20.8976 Y139.9667
G01 X20.9006 Y139.9559
G01 X20.9045 Y139.9454
G01 X20.9107 Y139.9319
G01 X20.9163 Y139.9222
G01 X20.9226 Y139.9129
G01 X20.9295 Y139.9042
G01 X20.9787 Y139.8494
G01 X20.9864 Y139.8415
G01 X20.9947 Y139.8341
G01 X21.0066 Y139.8252
G01 X21.0322 Y139.8094
G01 X21.0422 Y139.8040
G01 X21.0525 Y139.7995
G01 X21.0632 Y139.7957
G01 X21.1355 Y139.7752
G01 X21.1429 Y139.7735
G01 X21.1540 Y139.7717
G01 X21.1690 Y139.7705
G01 X22.5290 Y139.7705
G01 X22.6643 Y139.7436
G01 X22.7918 Y139.6908
G01 X22.9065 Y139.6141
G01 X26.3741 Y136.1465
G01 X26.4508 Y136.0318
G01 X26.5036 Y135.9043
G01 X26.5305 Y135.7690
G01 X26.5305 Y130.5312
G01 X26.5307 Y130.5233
G01 X26.5318 Y130.5116
G01 X26.5384 Y130.4694
G01 X26.5407 Y130.4578
G01 X26.5439 Y130.4465
G01 X26.5681 Y130.3719
G01 X26.5846 Y130.2150
G01 X26.5681 Y130.0581
G01 X26.5194 Y129.9081
G01 X26.4405 Y129.7714
G01 X26.3349 Y129.6542
G01 X26.2073 Y129.5615
G01 X26.0632 Y129.4973
G01 X25.9089 Y129.4645
G01 X25.7511 Y129.4645
G01 X25.5968 Y129.4973
G01 X25.4527 Y129.5615
G01 X25.3325 Y129.6487
G01 X25.3232 Y129.6547
G01 X25.3134 Y129.6599
G01 X25.3038 Y129.6642
G01 X25.2486 Y129.6866
G01 X25.2384 Y129.6903
G01 X25.2315 Y129.6924
G01 X25.2210 Y129.6948
G01 X25.2103 Y129.6965
G01 X25.1995 Y129.6975
G01 X25.1851 Y129.6975
G01 X25.1744 Y129.6966
G01 X25.0943 Y129.6849
G01 X25.0834 Y129.6824
G01 X25.0728 Y129.6790
G01 X25.0624 Y129.6749
G01 X25.0523 Y129.6700
G01 X25.0396 Y129.6623
G01 X25.0276 Y129.6535
G01 X24.9720 Y129.6053
G01 X24.9638 Y129.5977
G01 X24.9538 Y129.5866
G01 X24.9450 Y129.5746
G01 X24.9374 Y129.5618
G01 X24.9326 Y129.5517
G01 X24.9285 Y129.5413
G01 X24.9263 Y129.5342
G01 X24.9047 Y129.4603
G01 X24.9026 Y129.4498
G01 X24.9016 Y129.4427
G01 X24.9007 Y129.4320
G01 X24.9005 Y129.4249
G01 X24.9007 Y126.1666
G01 X24.9019 Y126.1531
G01 X24.9064 Y126.1198
G01 X24.9083 Y126.1089
G01 X24.9101 Y126.1016
G01 X24.9133 Y126.0910
G01 X24.9174 Y126.0806
G01 X24.9222 Y126.0705
G01 X24.9277 Y126.0608
G01 X24.9646 Y126.0015
G01 X24.9731 Y125.9893
G01 X24.9828 Y125.9780
G01 X24.9935 Y125.9676
G01 X25.0052 Y125.9584
G01 X25.0146 Y125.9523
G01 X25.0277 Y125.9453
G01 X25.0941 Y125.9138
G01 X25.1040 Y125.9098
G01 X25.1142 Y125.9066
G01 X25.1246 Y125.9040
G01 X25.1316 Y125.9027
G01 X25.2852 Y125.8784
G01 X25.4499 Y125.8249
G01 X25.6043 Y125.7462
G01 X25.7444 Y125.6444
G01 X25.8669 Y125.5219
G01 X25.9687 Y125.3818
G01 X26.0536 Y125.2151
G01 X26.0609 Y125.2025
G01 X26.0671 Y125.1935
G01 X26.0716 Y125.1878
G01 X26.1154 Y125.1373
G01 X26.1256 Y125.1271
G01 X26.1310 Y125.1224
G01 X26.1396 Y125.1158
G01 X26.1517 Y125.1081
G01 X26.1646 Y125.1015
G01 X26.1779 Y125.0962
G01 X26.2441 Y125.0737
G01 X26.2548 Y125.0705
G01 X26.2657 Y125.0681
G01 X26.2768 Y125.0665
G01 X26.2916 Y125.0656
G01 X26.3028 Y125.0660
G01 X26.3139 Y125.0672
G01 X26.3285 Y125.0700
G01 X26.4000 Y125.0878
G01 X26.4071 Y125.0899
G01 X26.4176 Y125.0938
G01 X26.4244 Y125.0968
G01 X26.4343 Y125.1020
G01 X26.4469 Y125.1099
G01 X26.4557 Y125.1167
G01 X26.4614 Y125.1216
G01 X26.4693 Y125.1294
G01 X26.5197 Y125.1829
G01 X26.5266 Y125.1911
G01 X26.5329 Y125.1997
G01 X26.5385 Y125.2088
G01 X26.5419 Y125.2151
G01 X26.6267 Y125.3815
G01 X26.7285 Y125.5216
G01 X26.8509 Y125.6440
G01 X26.9910 Y125.7458
G01 X27.0673 Y125.7847
G01 X27.0673 Y125.5532
G01 X26.9965 Y125.5007
G01 X26.9311 Y125.4414
G01 X26.8718 Y125.3760
G01 X26.8234 Y125.3110
G01 X26.8152 Y125.2988
G01 X26.7774 Y125.2357
G01 X26.7705 Y125.2227
G01 X26.7360 Y125.1494
G01 X26.7086 Y125.0732
G01 X26.7052 Y125.0627
G01 X26.6864 Y124.9878
G01 X26.6835 Y124.9733
G01 X26.6718 Y124.8932
G01 X26.6677 Y124.8124
G01 X26.6677 Y124.2976
G01 X26.6718 Y124.2168
G01 X26.6835 Y124.1367
G01 X26.6864 Y124.1222
G01 X26.7063 Y124.0437
G01 X26.7334 Y123.9675
G01 X26.7390 Y123.9539
G01 X26.7738 Y123.8807
G01 X26.8172 Y123.8081
G01 X26.8234 Y123.7990
G01 X26.8673 Y123.7399
G01 X26.8766 Y123.7285
G01 X26.9311 Y123.6686
G01 X26.9937 Y123.6117
G01 X27.0024 Y123.6048
G01 X27.0615 Y123.5609
G01 X27.0706 Y123.5547
G01 X27.1400 Y123.5130
G01 X27.1465 Y123.5096
G01 X27.1675 Y123.4996
G01 X27.1675 Y123.2784
G01 X27.1452 Y123.2856
G01 X26.9910 Y123.3642
G01 X26.8509 Y123.4660
G01 X26.7285 Y123.5884
G01 X26.6267 Y123.7285
G01 X26.5419 Y123.8949
G01 X26.5347 Y123.9075
G01 X26.5285 Y123.9165
G01 X26.5240 Y123.9222
G01 X26.4802 Y123.9727
G01 X26.4700 Y123.9829
G01 X26.4646 Y123.9876
G01 X26.4560 Y123.9942
G01 X26.4438 Y124.0019
G01 X26.4310 Y124.0085
G01 X26.4176 Y124.0138
G01 X26.3479 Y124.0375
G01 X26.3372 Y124.0404
G01 X26.3262 Y124.0426
G01 X26.3151 Y124.0439
G01 X26.3039 Y124.0444
G01 X26.2890 Y124.0437
G01 X26.2780 Y124.0422
G01 X26.2670 Y124.0400
G01 X26.1920 Y124.0212
G01 X26.1780 Y124.0162
G01 X26.1678 Y124.0115
G01 X26.1613 Y124.0080
G01 X26.1549 Y124.0042
G01 X26.1457 Y123.9979
G01 X26.1398 Y123.9933
G01 X26.1315 Y123.9858
G01 X26.0758 Y123.9271
G01 X26.0690 Y123.9189
G01 X26.0627 Y123.9103
G01 X26.0589 Y123.9043
G01 X26.0537 Y123.8949
G01 X25.9687 Y123.7282
G01 X25.8669 Y123.5881
G01 X25.7444 Y123.4656
G01 X25.6043 Y123.3638
G01 X25.4499 Y123.2851
G01 X25.2852 Y123.2316
G01 X25.1141 Y123.2045
G01 X24.9409 Y123.2045
G01 X24.7698 Y123.2316
G01 X24.6050 Y123.2851
G01 X24.4507 Y123.3638
G01 X24.3106 Y123.4656
G01 X24.1881 Y123.5881
G01 X24.0863 Y123.7282
G01 X24.0076 Y123.8826
G01 X23.9541 Y124.0473
G01 X23.9270 Y124.2184
G01 X23.9269 Y124.5554
G01 X23.9261 Y124.5674
G01 X23.9223 Y124.6010
G01 X23.9193 Y124.6155
G01 X23.9149 Y124.6295
G01 X23.9107 Y124.6397
G01 X23.9075 Y124.6463
G01 X23.8723 Y124.7109
G01 X23.8649 Y124.7231
G01 X23.8586 Y124.7318
G01 X23.8517 Y124.7399
G01 X23.8467 Y124.7451
G01 X23.6559 Y124.9360
G01 X23.5792 Y125.0507
G01 X23.5264 Y125.1782
G01 X23.4995 Y125.3135
G01 X23.4993 Y129.1721
G01 X23.4981 Y129.1858
G01 X23.4922 Y129.2270
G01 X23.4886 Y129.2415
G01 X23.4837 Y129.2556
G01 X23.4774 Y129.2692
G01 X23.4718 Y129.2789
G01 X23.4325 Y129.3412
G01 X23.4237 Y129.3531
G01 X23.4137 Y129.3642
G01 X23.4026 Y129.3742
G01 X23.3937 Y129.3809
G01 X23.3811 Y129.3889
G01 X23.3712 Y129.3940
G01 X23.3045 Y129.4251
G01 X23.2941 Y129.4292
G01 X23.2835 Y129.4326
G01 X23.2726 Y129.4351
G01 X23.2615 Y129.4368
G01 X23.2467 Y129.4377
G01 X23.2355 Y129.4375
G01 X23.2244 Y129.4364
G01 X23.1551 Y129.4271
G01 X23.1446 Y129.4253
G01 X23.1308 Y129.4218
G01 X23.1173 Y129.4169
G01 X23.0507 Y129.3873
G01 X22.8964 Y129.3545
G01 X22.7386 Y129.3545
G01 X22.6340 Y129.3766
G01 X22.6187 Y129.3792
G01 X22.6040 Y129.3803
G01 X22.5929 Y129.3803
G01 X22.5819 Y129.3794
G01 X22.5055 Y129.3684
G01 X22.4909 Y129.3651
G01 X22.4768 Y129.3605
G01 X22.4665 Y129.3561
G01 X22.4598 Y129.3528
G01 X22.4471 Y129.3451
G01 X22.4380 Y129.3386
G01 X22.4323 Y129.3338
G01 X22.3767 Y129.2856
G01 X22.3662 Y129.2750
G01 X22.3568 Y129.2635
G01 X22.3486 Y129.2510
G01 X22.3432 Y129.2412
G01 X22.3373 Y129.2276
G01 X22.3338 Y129.2170
G01 X22.3131 Y129.1465
G01 X22.3101 Y129.1325
G01 X22.3084 Y129.1184
G01 X22.3080 Y129.1077
G01 X22.3080 Y128.4585
G01 X22.2811 Y128.3232
G01 X22.2283 Y128.1957
G01 X22.1516 Y128.0810
G01 X22.0512 Y127.9806
G01 X22.0407 Y127.9710
G01 X22.0065 Y127.9368
G01 X21.9969 Y127.9263
G01 X21.4765 Y127.4059
G01 X21.3927 Y127.3498
G01 X21.3680 Y127.3305
G01 X21.3625 Y127.3257
G01 X21.3547 Y127.3180
G01 X21.3452 Y127.3069
G01 X21.3388 Y127.2980
G01 X21.3349 Y127.2918
G01 X21.2973 Y127.2285
G01 X21.2922 Y127.2186
G01 X21.2878 Y127.2083
G01 X21.2843 Y127.1977
G01 X21.2815 Y127.1869
G01 X21.2795 Y127.1759
G01 X21.2782 Y127.1611
G01 X21.2782 Y127.1499
G01 X21.2806 Y127.0801
G01 X21.2817 Y127.0658
G01 X21.2842 Y127.0518
G01 X21.2870 Y127.0414
G01 X21.3301 Y126.9112
G01 X21.3380 Y126.8340
G01 X21.3380 Y126.2760
G01 X21.3301 Y126.1988
G01 X21.2865 Y126.0673
G01 X21.2394 Y125.9908
G01 X21.2325 Y125.9776
G01 X21.2283 Y125.9673
G01 X21.2248 Y125.9566
G01 X21.2043 Y125.8837
G01 X21.2022 Y125.8726
G01 X21.2013 Y125.8652
G01 X21.2005 Y125.8501
G01 X21.2005 Y125.2599
G01 X21.2009 Y125.2486
G01 X21.2017 Y125.2411
G01 X21.2035 Y125.2299
G01 X21.2062 Y125.2190
G01 X21.2257 Y125.1503
G01 X21.2309 Y125.1361
G01 X21.2357 Y125.1259
G01 X21.2394 Y125.1193
G01 X21.2865 Y125.0427
G01 X21.3301 Y124.9112
G01 X21.3380 Y124.8340
G01 X21.3380 Y124.2760
G01 X21.3301 Y124.1988
G01 X21.2865 Y124.0673
G01 X21.2144 Y123.9503
G01 X21.1172 Y123.8531
G01 X21.0002 Y123.7810
G01 X20.8687 Y123.7374
G01 X20.7915 Y123.7295
G01 X20.5257 Y123.7294
G01 X20.5137 Y123.7286
G01 X20.4873 Y123.7258
G01 X20.4764 Y123.7242
G01 X20.4692 Y123.7227
G01 X20.4585 Y123.7198
G01 X20.4481 Y123.7161
G01 X20.4380 Y123.7117
G01 X20.3702 Y123.6748
G01 X20.3610 Y123.6694
G01 X20.3493 Y123.6611
G01 X20.3411 Y123.6542
G01 X20.3360 Y123.6492
G01 X19.6503 Y122.9636
G01 X19.5519 Y122.8978
G01 X19.4427 Y122.8526
G01 X19.3266 Y122.8295
G01 X16.1534 Y122.8295
G01 X16.0373 Y122.8526
G01 X15.9281 Y122.8978
G01 X15.8297 Y122.9636
G01 X14.6365 Y124.1567
G01 X14.6246 Y124.1675
G01 X14.6010 Y124.1864
G01 X14.5920 Y124.1928
G01 X14.5858 Y124.1967
G01 X14.5761 Y124.2019
G01 X14.5660 Y124.2064
G01 X14.5556 Y124.2102
G01 X14.4816 Y124.2319
G01 X14.4676 Y124.2349
G01 X14.4570 Y124.2363
G01 X14.4428 Y124.2370
G01 X14.2885 Y124.2370
G01 X14.2113 Y124.2449
G01 X14.0798 Y124.2885
G01 X14.0033 Y124.3356
G01 X13.9934 Y124.3409
G01 X13.9797 Y124.3467
G01 X13.9691 Y124.3502
G01 X13.8999 Y124.3698
G01 X13.8889 Y124.3722
G01 X13.8739 Y124.3741
G01 X13.8626 Y124.3745
G01 X11.4785 Y124.3745
G01 X11.3432 Y124.4014
G01 X11.2157 Y124.4542
G01 X11.1010 Y124.5309
G01 X6.8576 Y128.7742
G01 X6.8487 Y128.7824
G01 X6.8221 Y128.8039
G01 X6.8100 Y128.8123
G01 X6.8004 Y128.8177
G01 X6.7904 Y128.8225
G01 X6.7767 Y128.8277
G01 X6.6992 Y128.8503
G01 X6.6852 Y128.8530
G01 X6.6710 Y128.8543
G01 X5.6777 Y128.8545
G01 X5.6448 Y128.8580
G01 X5.5582 Y128.8901
G01 X5.5479 Y128.8930
G01 X5.5409 Y128.8945
G01 X5.5268 Y128.8966
G01 X5.4498 Y128.9021
G01 X5.4424 Y128.9022
G01 X5.4312 Y128.9018
G01 X5.4165 Y128.8999
G01 X5.4019 Y128.8966
G01 X5.3878 Y128.8918
G01 X5.3743 Y128.8856
G01 X5.3035 Y128.8468
G01 X5.2975 Y128.8430
G01 X5.2888 Y128.8367
G01 X5.2780 Y128.8273
G01 X3.9179 Y127.4672
G01 X3.9100 Y127.4581
G01 X3.8934 Y127.4375
G01 X3.8868 Y127.4287
G01 X3.8790 Y127.4162
G01 X3.8725 Y127.4029
G01 X3.8698 Y127.3961
G01 X3.8663 Y127.3857
G01 X3.8456 Y127.3152
G01 X3.8426 Y127.3012
G01 X3.8412 Y127.2906
G01 X3.8405 Y127.2764
G01 X3.8405 Y111.0295
G01 X3.8409 Y111.0188
G01 X3.8426 Y111.0046
G01 X3.8551 Y110.9461
G01 X3.8590 Y110.9316
G01 X3.8644 Y110.9176
G01 X3.8711 Y110.9042
G01 X3.8791 Y110.8916
G01 X3.8883 Y110.8798
G01 X3.9366 Y110.8242
G01 X3.9444 Y110.8162
G01 X3.9528 Y110.8088
G01 X3.9617 Y110.8021
G01 X3.9744 Y110.7942
G01 X3.9843 Y110.7891
G01 X3.9946 Y110.7848
G01 X4.0052 Y110.7813
G01 X4.0722 Y110.7616
G01 X4.0826 Y110.7589
G01 X4.0932 Y110.7570
G01 X4.1038 Y110.7559
G01 X4.1145 Y110.7555
G01 X5.1005 Y110.7555
G01 X5.1108 Y110.7559
G01 X5.1211 Y110.7569
G01 X5.1637 Y110.7638
G01 X5.1746 Y110.7660
G01 X5.1853 Y110.7690
G01 X5.1993 Y110.7742
G01 X5.2093 Y110.7790
G01 X5.2221 Y110.7865
G01 X5.2826 Y110.8285
G01 X5.2915 Y110.8352
G01 X5.3000 Y110.8425
G01 X5.3053 Y110.8478
G01 X5.3127 Y110.8561
G01 X5.3173 Y110.8620
G01 X5.3256 Y110.8743
G01 X5.3310 Y110.8841
G01 X5.3357 Y110.8943
G01 X5.3481 Y110.9243
G01 X5.3549 Y110.9360
G01 X5.3596 Y110.9460
G01 X5.3635 Y110.9563
G01 X5.3672 Y110.9687
G01 X5.4067 Y111.0747
G01 X5.4671 Y111.1554
G01 X5.5478 Y111.2158
G01 X5.6656 Y111.2599
G01 X5.6753 Y111.2645
G01 X5.7094 Y111.2831
G01 X5.7160 Y111.2869
G01 X5.7254 Y111.2932
G01 X5.7344 Y111.3001
G01 X5.7427 Y111.3078
G01 X5.7480 Y111.3132
G01 X5.7553 Y111.3218
G01 X5.8038 Y111.3868
G01 X5.8115 Y111.3996
G01 X5.8179 Y111.4130
G01 X5.8218 Y111.4235
G01 X5.8249 Y111.4342
G01 X5.8272 Y111.4452
G01 X5.8283 Y111.4525
G01 X5.8340 Y111.5297
G01 X5.8344 Y111.5408
G01 X5.8336 Y111.5557
G01 X5.8327 Y111.5631
G01 X5.8306 Y111.5741
G01 X5.8265 Y111.5884
G01 X5.8225 Y111.5988
G01 X5.8195 Y111.6056
G01 X5.7808 Y111.6767
G01 X5.7771 Y111.6828
G01 X5.7710 Y111.6916
G01 X5.7643 Y111.6999
G01 X5.7570 Y111.7077
G01 X5.6443 Y111.8204
G01 X5.5239 Y111.9925
G01 X5.4351 Y112.1828
G01 X5.3807 Y112.3857
G01 X5.3624 Y112.5950
G01 X5.3807 Y112.8043
G01 X5.4351 Y113.0072
G01 X5.5239 Y113.1975
G01 X5.6444 Y113.3696
G01 X5.7929 Y113.5181
G01 X5.9713 Y113.6431
G01 X5.9803 Y113.6504
G01 X6.0050 Y113.6720
G01 X6.0126 Y113.6798
G01 X6.0218 Y113.6910
G01 X6.0280 Y113.7000
G01 X6.0335 Y113.7093
G01 X6.0684 Y113.7785
G01 X6.0741 Y113.7922
G01 X6.0775 Y113.8029
G01 X6.0793 Y113.8101
G01 X6.0813 Y113.8211
G01 X6.0822 Y113.8285
G01 X6.0828 Y113.8359
G01 X6.0829 Y113.8471
G01 X6.0821 Y113.8582
G01 X6.0745 Y113.9314
G01 X6.0719 Y113.9461
G01 X6.0678 Y113.9604
G01 X6.0623 Y113.9743
G01 X6.0591 Y113.9810
G01 X6.0536 Y113.9907
G01 X6.0474 Y114.0000
G01 X6.0429 Y114.0060
G01 X5.9970 Y114.0633
G01 X5.9873 Y114.0738
G01 X5.9767 Y114.0833
G01 X5.9681 Y114.0898
G01 X5.7932 Y114.2122
G01 X5.6447 Y114.3607
G01 X5.5243 Y114.5327
G01 X5.4356 Y114.7230
G01 X5.4323 Y114.7350
G01 X5.6516 Y114.7350
G01 X5.6856 Y114.6636
G01 X5.7360 Y114.5794
G01 X5.7945 Y114.5006
G01 X5.8604 Y114.4279
G01 X5.9331 Y114.3620
G01 X6.0119 Y114.3035
G01 X6.0961 Y114.2531
G01 X6.1781 Y114.2141
G01 X6.1882 Y114.2098
G01 X6.2772 Y114.1781
G01 X6.3652 Y114.1558
G01 X6.3790 Y114.1531
G01 X6.4622 Y114.1407
G01 X6.4768 Y114.1393
G01 X6.5675 Y114.1350
G01 X6.6655 Y114.1398
G01 X6.7626 Y114.1542
G01 X6.8507 Y114.1761
G01 X6.8648 Y114.1804
G01 X6.9502 Y114.2111
G01 X7.0389 Y114.2531
G01 X7.1231 Y114.3035
G01 X7.1961 Y114.3575
G01 X7.2075 Y114.3668
G01 X7.2746 Y114.4279
G01 X7.3357 Y114.4950
G01 X7.3450 Y114.5064
G01 X7.3947 Y114.5734
G01 X7.4029 Y114.5856
G01 X7.4494 Y114.6636
G01 X7.4914 Y114.7523
G01 X7.5244 Y114.8447
G01 X7.5467 Y114.9327
G01 X7.5494 Y114.9465
G01 X7.5627 Y115.0370
G01 X7.5673 Y115.1276
G01 X7.5673 Y115.1424
G01 X7.5632 Y115.2257
G01 X7.5618 Y115.2403
G01 X7.5483 Y115.3301
G01 X7.5328 Y115.3928
G01 X7.6956 Y115.5553
G01 X7.6994 Y115.5470
G01 X7.7538 Y115.3442
G01 X7.7581 Y115.2970
G01 X7.7601 Y115.2858
G01 X7.7629 Y115.2748
G01 X7.7666 Y115.2640
G01 X7.7908 Y115.2005
G01 X7.7951 Y115.1904
G01 X7.8002 Y115.1806
G01 X7.8059 Y115.1712
G01 X7.8123 Y115.1622
G01 X7.8194 Y115.1538
G01 X7.8297 Y115.1433
G01 X7.8381 Y115.1362
G01 X7.9031 Y115.0878
G01 X7.9158 Y115.0801
G01 X7.9258 Y115.0752
G01 X7.9397 Y115.0698
G01 X7.9505 Y115.0667
G01 X7.9651 Y115.0638
G01 X7.9762 Y115.0626
G01 X8.0496 Y115.0574
G01 X8.0645 Y115.0574
G01 X8.0793 Y115.0589
G01 X8.0939 Y115.0619
G01 X8.1046 Y115.0651
G01 X8.1116 Y115.0677
G01 X8.1252 Y115.0738
G01 X8.1960 Y115.1126
G01 X8.2078 Y115.1206
G01 X8.2134 Y115.1250
G01 X8.2214 Y115.1321
G01 X9.6935 Y116.6041
G01 X9.8082 Y116.6808
G01 X9.9357 Y116.7336
G01 X10.0710 Y116.7605
G01 X10.2166 Y116.7605
G01 X10.2367 Y116.7586
G01 X10.2477 Y116.7582
G01 X13.5966 Y116.7582
G01 X13.6108 Y116.7592
G01 X13.6214 Y116.7609
G01 X13.6764 Y116.7728
G01 X13.6873 Y116.7756
G01 X13.6944 Y116.7779
G01 X13.7083 Y116.7836
G01 X13.7183 Y116.7888
G01 X13.7247 Y116.7926
G01 X13.7370 Y116.8012
G01 X13.7983 Y116.8542
G01 X13.8037 Y116.8594
G01 X13.8113 Y116.8676
G01 X13.8204 Y116.8794
G01 X13.8245 Y116.8856
G01 X13.8301 Y116.8953
G01 X13.8363 Y116.9088
G01 X13.8412 Y116.9229
G01 X13.8619 Y116.9933
G01 X13.8649 Y117.0073
G01 X13.8666 Y117.0215
G01 X13.8670 Y117.0322
G01 X13.8670 Y117.8817
G01 X13.8658 Y117.8967
G01 X13.8647 Y117.9041
G01 X13.8623 Y117.9152
G01 X13.8428 Y117.9839
G01 X13.8394 Y117.9947
G01 X13.8351 Y118.0051
G01 X13.8281 Y118.0185
G01 X13.7935 Y118.0748
G01 X13.7499 Y118.2063
G01 X13.7420 Y118.2835
G01 X13.7420 Y118.8665
G01 X13.7499 Y118.9437
G01 X13.7935 Y119.0752
G01 X13.8656 Y119.1922
G01 X13.9675 Y119.2941
G01 X13.9753 Y119.3024
G01 X13.9823 Y119.3113
G01 X13.9867 Y119.3175
G01 X14.0201 Y119.3698
G01 X14.0269 Y119.3832
G01 X14.0311 Y119.3936
G01 X14.0355 Y119.4079
G01 X14.0378 Y119.4189
G01 X14.0396 Y119.4338
G01 X14.0446 Y119.5035
G01 X14.0450 Y119.5147
G01 X14.0442 Y119.5296
G01 X14.0426 Y119.5406
G01 X14.0393 Y119.5551
G01 X14.0345 Y119.5692
G01 X14.0316 Y119.5761
G01 X14.0266 Y119.5861
G01 X13.9931 Y119.6474
G01 X13.9877 Y119.6566
G01 X13.9794 Y119.6683
G01 X13.9700 Y119.6790
G01 X13.8660 Y119.7831
G01 X13.7940 Y119.8998
G01 X14.0342 Y119.8998
G01 X14.0560 Y119.8760
G01 X14.0786 Y119.8553
G01 X14.0870 Y119.8482
G01 X14.1087 Y119.8320
G01 X14.1179 Y119.8257
G01 X14.1441 Y119.8100
G01 X14.1539 Y119.8049
G01 X14.1750 Y119.7950
G01 X14.1851 Y119.7906
G01 X14.2140 Y119.7803
G01 X14.2246 Y119.7772
G01 X14.2544 Y119.7699
G01 X14.2847 Y119.7653
G01 X14.2957 Y119.7641
G01 X14.3226 Y119.7627
G01 X14.8050 Y119.7625
G01 X14.8356 Y119.7638
G01 X14.8466 Y119.7648
G01 X14.8806 Y119.7699
G01 X14.9104 Y119.7772
G01 X14.9245 Y119.7815
G01 X14.9533 Y119.7920
G01 X14.9811 Y119.8049
G01 X14.9941 Y119.8119
G01 X15.0203 Y119.8278
G01 X15.0460 Y119.8467
G01 X15.1892 Y119.7034
G01 X15.1625 Y119.6764
G01 X15.1556 Y119.6683
G01 X15.1493 Y119.6596
G01 X15.1149 Y119.6059
G01 X15.1081 Y119.5925
G01 X15.1027 Y119.5786
G01 X15.0987 Y119.5641
G01 X15.0961 Y119.5493
G01 X15.0902 Y119.4685
G01 X15.0901 Y119.4573
G01 X15.0908 Y119.4462
G01 X15.0918 Y119.4388
G01 X15.0939 Y119.4278
G01 X15.0957 Y119.4206
G01 X15.0992 Y119.4099
G01 X15.1034 Y119.3996
G01 X15.1066 Y119.3929
G01 X15.1419 Y119.3283
G01 X15.1473 Y119.3191
G01 X15.1513 Y119.3132
G01 X15.1578 Y119.3047
G01 X15.1650 Y119.2967
G01 X15.2694 Y119.1922
G01 X15.3415 Y119.0752
G01 X15.3851 Y118.9437
G01 X15.3930 Y118.8665
G01 X15.3930 Y118.2835
G01 X15.3851 Y118.2063
G01 X15.3415 Y118.0748
G01 X15.3069 Y118.0185
G01 X15.3016 Y118.0087
G01 X15.2958 Y117.9950
G01 X15.2923 Y117.9844
G01 X15.2727 Y117.9152
G01 X15.2697 Y117.9004
G01 X15.2682 Y117.8854
G01 X15.2680 Y116.4613
G01 X15.2689 Y116.4453
G01 X15.2717 Y116.4189
G01 X15.2733 Y116.4080
G01 X15.2757 Y116.3972
G01 X15.2788 Y116.3866
G01 X15.2828 Y116.3763
G01 X15.2858 Y116.3696
G01 X15.3262 Y116.2956
G01 X15.3321 Y116.2866
G01 X15.3364 Y116.2809
G01 X15.3458 Y116.2701
G01 X16.5448 Y115.0711
G01 X16.5579 Y115.0588
G01 X16.5665 Y115.0517
G01 X16.5789 Y115.0432
G01 X16.5921 Y115.0360
G01 X16.6585 Y115.0056
G01 X16.6689 Y115.0014
G01 X16.6795 Y114.9979
G01 X16.6903 Y114.9952
G01 X16.6977 Y114.9939
G01 X16.7088 Y114.9926
G01 X16.7236 Y114.9921
G01 X16.7385 Y114.9931
G01 X16.8187 Y115.0048
G01 X16.8296 Y115.0073
G01 X16.8437 Y115.0120
G01 X16.8540 Y115.0164
G01 X16.8639 Y115.0215
G01 X16.8765 Y115.0295
G01 X16.8854 Y115.0363
G01 X16.9410 Y115.0844
G01 X16.9518 Y115.0947
G01 X16.9615 Y115.1060
G01 X16.9700 Y115.1183
G01 X16.9773 Y115.1313
G01 X16.9832 Y115.1449
G01 X16.9867 Y115.1555
G01 X17.0074 Y115.2260
G01 X17.0104 Y115.2399
G01 X17.0114 Y115.2470
G01 X17.0123 Y115.2577
G01 X17.0125 Y115.9398
G01 X17.0137 Y115.9554
G01 X17.0500 Y116.0802
G01 X17.1143 Y116.1889
G01 X17.1623 Y116.2369
G01 X17.1624 Y115.0513
G01 X17.1647 Y115.0060
G01 X17.1707 Y114.9647
G01 X17.1727 Y114.9538
G01 X17.1828 Y114.9135
G01 X17.1860 Y114.9034
G01 X17.2004 Y114.8636
G01 X17.2125 Y114.8376
G01 X17.2125 Y114.2263
G01 X17.2139 Y114.2006
G01 X17.2183 Y114.1715
G01 X17.2254 Y114.1429
G01 X17.2327 Y114.1221
G01 X17.2368 Y114.1118
G01 X17.2479 Y114.0886
G01 X17.2591 Y114.0695
G01 X17.2651 Y114.0603
G01 X17.2784 Y114.0425
G01 X17.2854 Y114.0341
G01 X17.3004 Y114.0179
G01 X17.3194 Y114.0005
G01 X17.3280 Y113.9936
G01 X17.3458 Y113.9806
G01 X17.3677 Y113.9673
G01 X17.3772 Y113.9623
G01 X17.3977 Y113.9528
G01 X17.4184 Y113.9452
G01 X17.4290 Y113.9419
G01 X17.4540 Y113.9358
G01 X17.4831 Y113.9314
G01 X17.5125 Y113.9300
G01 X17.8125 Y113.9300
G01 X17.8382 Y113.9311
G01 X17.8492 Y113.9323
G01 X17.8710 Y113.9358
G01 X17.8960 Y113.9419
G01 X17.9066 Y113.9452
G01 X17.9273 Y113.9528
G01 X17.9473 Y113.9621
G01 X17.9571 Y113.9672
G01 X17.9792 Y113.9806
G01 X18.0030 Y113.9982
G01 X18.0220 Y114.0153
G01 X18.0297 Y114.0232
G01 X18.0444 Y114.0397
G01 X18.0577 Y114.0573
G01 X18.0639 Y114.0664
G01 X18.0752 Y114.0852
G01 X18.0802 Y114.0947
G01 X18.0897 Y114.1152
G01 X18.0996 Y114.1429
G01 X18.1051 Y114.1643
G01 X18.1074 Y114.1751
G01 X18.1106 Y114.1969
G01 X18.1116 Y114.2079
G01 X18.1125 Y114.2300
G01 X18.1125 Y114.8376
G01 X18.1246 Y114.8636
G01 X18.1400 Y114.9063
G01 X18.1431 Y114.9169
G01 X18.1523 Y114.9538
G01 X18.1543 Y114.9647
G01 X18.1603 Y115.0060
G01 X18.1626 Y115.0513
G01 X18.1627 Y116.4652
G01 X18.1738 Y116.4764
G01 X18.1810 Y116.4849
G01 X18.1854 Y116.4910
G01 X18.1933 Y116.5036
G01 X18.1968 Y116.5102
G01 X18.2013 Y116.5204
G01 X18.2062 Y116.5344
G01 X18.2269 Y116.6049
G01 X18.2286 Y116.6118
G01 X18.2305 Y116.6224
G01 X18.2313 Y116.6295
G01 X18.2320 Y116.6402
G01 X18.2320 Y118.0965
G01 X18.2308 Y118.1113
G01 X18.2291 Y118.1224
G01 X18.2143 Y118.1866
G01 X18.2110 Y118.1970
G01 X18.2069 Y118.2072
G01 X18.2022 Y118.2170
G01 X18.1967 Y118.2264
G01 X18.1905 Y118.2354
G01 X18.1837 Y118.2439
G01 X18.1346 Y118.2986
G01 X18.1272 Y118.3063
G01 X18.1164 Y118.3157
G01 X18.1078 Y118.3221
G01 X18.0578 Y118.3531
G01 X17.9606 Y118.4503
G01 X17.8885 Y118.5673
G01 X17.8449 Y118.6988
G01 X17.8370 Y118.7760
G01 X17.8370 Y119.3340
G01 X17.8449 Y119.4112
G01 X17.8885 Y119.5427
G01 X17.9606 Y119.6597
G01 X18.0578 Y119.7569
G01 X18.1631 Y119.8218
G01 X18.1717 Y119.8275
G01 X18.1825 Y119.8361
G01 X18.2154 Y119.8647
G01 X18.2234 Y119.8725
G01 X18.2284 Y119.8780
G01 X18.2331 Y119.8838
G01 X18.2396 Y119.8929
G01 X18.2454 Y119.9024
G01 X18.2489 Y119.9090
G01 X18.2826 Y119.9868
G01 X18.2872 Y120.0009
G01 X18.2903 Y120.0155
G01 X18.2920 Y120.0303
G01 X18.2923 Y120.0415
G01 X18.2917 Y120.0526
G01 X18.2903 Y120.0637
G01 X18.2791 Y120.1327
G01 X18.2769 Y120.1436
G01 X18.2727 Y120.1579
G01 X18.2671 Y120.1717
G01 X18.2602 Y120.1849
G01 X18.2541 Y120.1943
G01 X18.2497 Y120.2003
G01 X18.2426 Y120.2089
G01 X18.1934 Y120.2635
G01 X18.1831 Y120.2734
G01 X18.1748 Y120.2801
G01 X18.1661 Y120.2863
G01 X18.0578 Y120.3531
G01 X17.9606 Y120.4503
G01 X17.8884 Y120.5675
G01 X17.8449 Y120.6988
G01 X17.8370 Y120.7760
G01 X17.8370 Y121.3340
G01 X17.8449 Y121.4112
G01 X17.8885 Y121.5427
G01 X17.9606 Y121.6597
G01 X18.0383 Y121.7374
G01 X19.4153 Y121.7374
G01 X19.4698 Y121.7024
G01 X19.4798 Y121.6972
G01 X19.4866 Y121.6941
G01 X19.5007 Y121.6891
G01 X19.5152 Y121.6854
G01 X19.5301 Y121.6832
G01 X19.6109 Y121.6776
G01 X19.6221 Y121.6777
G01 X19.6332 Y121.6787
G01 X19.6443 Y121.6806
G01 X19.6551 Y121.6832
G01 X19.6658 Y121.6867
G01 X19.6761 Y121.6909
G01 X19.6828 Y121.6941
G01 X19.7004 Y121.7037
G01 X19.8576 Y121.5465
G01 X19.8482 Y121.5355
G01 X19.8320 Y121.5138
G01 X19.8258 Y121.5047
G01 X19.8083 Y121.4752
G01 X19.7934 Y121.4442
G01 X19.7893 Y121.4339
G01 X19.7815 Y121.4120
G01 X19.7772 Y121.3979
G01 X19.7699 Y121.3681
G01 X19.7648 Y121.3341
G01 X19.7638 Y121.3231
G01 X19.7625 Y121.2925
G01 X19.7625 Y120.8138
G01 X19.7644 Y120.7795
G01 X19.7699 Y120.7419
G01 X19.7792 Y120.7050
G01 X19.7920 Y120.6692
G01 X19.8083 Y120.6348
G01 X19.8278 Y120.6022
G01 X19.8505 Y120.5717
G01 X19.8709 Y120.5488
G01 X19.8786 Y120.5409
G01 X19.9042 Y120.5180
G01 X19.9348 Y120.4953
G01 X19.9673 Y120.4758
G01 X19.9950 Y120.4625
G01 X20.0086 Y120.4568
G01 X20.0305 Y120.4490
G01 X20.0411 Y120.4457
G01 X20.0744 Y120.4374
G01 X20.1084 Y120.4323
G01 X20.1194 Y120.4313
G01 X20.1500 Y120.4300
G01 X20.7500 Y120.4300
G01 X20.7880 Y120.4319
G01 X20.8256 Y120.4374
G01 X20.8625 Y120.4467
G01 X20.8914 Y120.4568
G01 X20.9017 Y120.4609
G01 X20.9327 Y120.4758
G01 X20.9591 Y120.4914
G01 X20.9683 Y120.4974
G01 X20.9900 Y120.5134
G01 X20.9986 Y120.5203
G01 X21.0214 Y120.5409
G01 X21.0345 Y120.5548
G01 X21.2782 Y120.5548
G01 X21.2140 Y120.4506
G01 X21.1169 Y120.3535
G01 X21.0115 Y120.2885
G01 X21.0028 Y120.2828
G01 X20.9946 Y120.2764
G01 X20.9619 Y120.2481
G01 X20.9537 Y120.2405
G01 X20.9486 Y120.2351
G01 X20.9437 Y120.2294
G01 X20.9370 Y120.2205
G01 X20.9329 Y120.2143
G01 X20.9274 Y120.2046
G01 X20.9225 Y120.1945
G01 X20.8932 Y120.1270
G01 X20.8883 Y120.1129
G01 X20.8864 Y120.1057
G01 X20.8842 Y120.0948
G01 X20.8825 Y120.0800
G01 X20.8824 Y120.0651
G01 X20.8837 Y120.0503
G01 X20.8954 Y119.9776
G01 X20.8976 Y119.9667
G01 X20.9006 Y119.9559
G01 X20.9045 Y119.9454
G01 X20.9090 Y119.9352
G01 X20.9144 Y119.9254
G01 X20.9226 Y119.9129
G01 X20.9320 Y119.9014
G01 X20.9838 Y119.8441
G01 X20.9891 Y119.8389
G01 X20.9976 Y119.8317
G01 X21.0097 Y119.8232
G01 X21.0565 Y119.7944
G01 X21.0665 Y119.7890
G01 X21.0733 Y119.7859
G01 X21.0875 Y119.7807
G01 X21.1598 Y119.7602
G01 X21.1746 Y119.7572
G01 X21.1858 Y119.7559
G01 X21.1971 Y119.7555
G01 X22.0540 Y119.7555
G01 X22.1893 Y119.7286
G01 X22.3168 Y119.6758
G01 X22.4315 Y119.5991
G01 X26.8441 Y115.1865
G01 X26.9208 Y115.0718
G01 X26.9736 Y114.9443
G01 X27.0005 Y114.8090
G01 X27.0005 Y110.3287
G01 X27.0007 Y110.3208
G01 X27.0018 Y110.3091
G01 X27.0084 Y110.2669
G01 X27.0107 Y110.2553
G01 X27.0139 Y110.2440
G01 X27.0381 Y110.1694
G01 X27.0546 Y110.0125
G01 X27.0381 Y109.8556
G01 X26.9894 Y109.7056
G01 X26.9105 Y109.5689
G01 X26.8049 Y109.4517
G01 X26.6773 Y109.3590
G01 X26.5332 Y109.2948
G01 X26.3789 Y109.2620
G01 X26.2211 Y109.2620
G01 X26.0668 Y109.2948
G01 X25.9227 Y109.3590
G01 X25.7951 Y109.4517
G01 X25.6895 Y109.5689
G01 X25.6106 Y109.7056
G01 X25.5551 Y109.8764
G01 X25.5498 Y109.8903
G01 X25.5450 Y109.9002
G01 X25.5374 Y109.9130
G01 X25.5007 Y109.9684
G01 X25.4921 Y109.9801
G01 X25.4849 Y109.9883
G01 X25.4745 Y109.9983
G01 X25.4631 Y110.0074
G01 X25.4509 Y110.0153
G01 X25.4380 Y110.0219
G01 X25.3676 Y110.0539
G01 X25.3606 Y110.0564
G01 X25.3499 Y110.0597
G01 X25.3353 Y110.0627
G01 X25.3279 Y110.0637
G01 X25.3168 Y110.0644
G01 X25.3056 Y110.0644
G01 X25.2982 Y110.0638
G01 X25.2216 Y110.0530
G01 X25.2106 Y110.0510
G01 X25.2034 Y110.0492
G01 X25.1928 Y110.0459
G01 X25.1790 Y110.0402
G01 X25.1723 Y110.0369
G01 X25.1627 Y110.0312
G01 X25.1505 Y110.0227
G01 X25.0920 Y109.9722
G01 X25.0838 Y109.9645
G01 X25.0762 Y109.9563
G01 X25.0693 Y109.9476
G01 X25.0630 Y109.9383
G01 X25.0592 Y109.9319
G01 X25.0526 Y109.9186
G01 X25.0474 Y109.9046
G01 X25.0256 Y109.8306
G01 X25.0232 Y109.8201
G01 X25.0220 Y109.8131
G01 X25.0209 Y109.8025
G01 X25.0205 Y109.7918
G01 X25.0205 Y106.1510
G01 X25.0215 Y106.1374
G01 X25.0276 Y106.0935
G01 X25.0292 Y106.0862
G01 X25.0321 Y106.0755
G01 X25.0346 Y106.0685
G01 X25.0389 Y106.0582
G01 X25.0422 Y106.0515
G01 X25.0477 Y106.0418
G01 X25.0887 Y105.9763
G01 X25.0954 Y105.9674
G01 X25.1003 Y105.9617
G01 X25.1054 Y105.9563
G01 X25.1135 Y105.9486
G01 X25.1222 Y105.9416
G01 X25.1283 Y105.9373
G01 X25.1411 Y105.9296
G01 X25.2108 Y105.8963
G01 X25.2240 Y105.8908
G01 X25.2342 Y105.8876
G01 X25.2446 Y105.8850
G01 X25.2852 Y105.8784
G01 X25.4499 Y105.8249
G01 X25.6043 Y105.7462
G01 X25.7444 Y105.6444
G01 X25.8669 Y105.5219
G01 X25.9687 Y105.3818
G01 X26.0536 Y105.2151
G01 X26.0609 Y105.2025
G01 X26.0649 Y105.1965
G01 X26.0716 Y105.1878
G01 X26.1154 Y105.1373
G01 X26.1256 Y105.1271
G01 X26.1338 Y105.1201
G01 X26.1396 Y105.1158
G01 X26.1517 Y105.1081
G01 X26.1646 Y105.1015
G01 X26.1779 Y105.0962
G01 X26.2476 Y105.0725
G01 X26.2584 Y105.0696
G01 X26.2694 Y105.0674
G01 X26.2805 Y105.0661
G01 X26.2916 Y105.0656
G01 X26.3028 Y105.0660
G01 X26.3139 Y105.0672
G01 X26.3285 Y105.0700
G01 X26.4000 Y105.0878
G01 X26.4141 Y105.0924
G01 X26.4210 Y105.0953
G01 X26.4310 Y105.1002
G01 X26.4407 Y105.1058
G01 X26.4469 Y105.1099
G01 X26.4586 Y105.1191
G01 X26.4693 Y105.1294
G01 X26.5197 Y105.1829
G01 X26.5266 Y105.1911
G01 X26.5329 Y105.1997
G01 X26.5385 Y105.2088
G01 X26.5419 Y105.2151
G01 X26.6267 Y105.3815
G01 X26.7285 Y105.5216
G01 X26.8509 Y105.6440
G01 X26.9910 Y105.7458
G01 X27.1452 Y105.8244
G01 X27.1675 Y105.8316
G01 X27.1675 Y105.6104
G01 X27.1465 Y105.6004
G01 X27.1400 Y105.5970
G01 X27.0706 Y105.5553
G01 X27.0615 Y105.5491
G01 X27.0024 Y105.5052
G01 X26.9937 Y105.4983
G01 X26.9311 Y105.4414
G01 X26.8766 Y105.3815
G01 X26.8673 Y105.3701
G01 X26.8234 Y105.3110
G01 X26.8172 Y105.3019
G01 X26.7738 Y105.2293
G01 X26.7390 Y105.1561
G01 X26.7334 Y105.1425
G01 X26.7063 Y105.0663
G01 X26.6864 Y104.9878
G01 X26.6835 Y104.9733
G01 X26.6718 Y104.8932
G01 X26.6675 Y104.8050
G01 X26.6675 Y104.3050
G01 X26.6713 Y104.2241
G01 X26.6727 Y104.2095
G01 X26.6848 Y104.1294
G01 X26.7043 Y104.0508
G01 X26.7074 Y104.0402
G01 X26.7360 Y103.9606
G01 X26.7738 Y103.8807
G01 X26.8192 Y103.8050
G01 X26.8673 Y103.7399
G01 X26.8742 Y103.7312
G01 X26.9311 Y103.6686
G01 X26.9910 Y103.6141
G01 X26.9994 Y103.6070
G01 X27.0615 Y103.5609
G01 X27.0706 Y103.5547
G01 X27.1400 Y103.5130
G01 X27.1465 Y103.5096
G01 X27.1675 Y103.4996
G01 X27.1675 Y103.2784
G01 X27.1452 Y103.2856
G01 X26.9910 Y103.3642
G01 X26.8509 Y103.4660
G01 X26.7285 Y103.5884
G01 X26.6267 Y103.7285
G01 X26.5419 Y103.8949
G01 X26.5347 Y103.9075
G01 X26.5285 Y103.9165
G01 X26.5240 Y103.9222
G01 X26.4802 Y103.9727
G01 X26.4700 Y103.9829
G01 X26.4646 Y103.9876
G01 X26.4560 Y103.9942
G01 X26.4438 Y104.0019
G01 X26.4310 Y104.0085
G01 X26.4176 Y104.0138
G01 X26.3479 Y104.0375
G01 X26.3372 Y104.0404
G01 X26.3262 Y104.0426
G01 X26.3151 Y104.0439
G01 X26.3039 Y104.0444
G01 X26.2890 Y104.0437
G01 X26.2780 Y104.0422
G01 X26.2670 Y104.0400
G01 X26.1920 Y104.0212
G01 X26.1780 Y104.0162
G01 X26.1678 Y104.0115
G01 X26.1613 Y104.0080
G01 X26.1549 Y104.0042
G01 X26.1457 Y103.9979
G01 X26.1398 Y103.9933
G01 X26.1315 Y103.9858
G01 X26.0758 Y103.9271
G01 X26.0690 Y103.9189
G01 X26.0627 Y103.9103
G01 X26.0589 Y103.9043
G01 X26.0537 Y103.8949
G01 X25.9687 Y103.7282
G01 X25.8669 Y103.5881
G01 X25.7444 Y103.4656
G01 X25.6043 Y103.3638
G01 X25.4499 Y103.2851
G01 X25.2852 Y103.2316
G01 X25.1141 Y103.2045
G01 X24.9409 Y103.2045
G01 X24.7698 Y103.2316
G01 X24.6050 Y103.2851
G01 X24.4507 Y103.3638
G01 X24.3106 Y103.4656
G01 X24.1881 Y103.5881
G01 X24.0863 Y103.7282
G01 X24.0076 Y103.8826
G01 X23.9541 Y104.0473
G01 X23.9270 Y104.2184
G01 X23.9268 Y104.3969
G01 X23.9223 Y104.4385
G01 X23.9193 Y104.4530
G01 X23.9149 Y104.4670
G01 X23.9107 Y104.4772
G01 X23.9058 Y104.4871
G01 X23.8706 Y104.5515
G01 X23.8629 Y104.5635
G01 X23.8563 Y104.5720
G01 X23.8492 Y104.5800
G01 X23.7759 Y104.6535
G01 X23.6992 Y104.7682
G01 X23.6464 Y104.8957
G01 X23.6195 Y105.0310
G01 X23.6193 Y109.1597
G01 X23.6181 Y109.1734
G01 X23.6122 Y109.2146
G01 X23.6086 Y109.2291
G01 X23.6037 Y109.2432
G01 X23.5991 Y109.2534
G01 X23.5918 Y109.2664
G01 X23.5525 Y109.3287
G01 X23.5437 Y109.3407
G01 X23.5337 Y109.3517
G01 X23.5226 Y109.3617
G01 X23.5107 Y109.3706
G01 X23.5011 Y109.3764
G01 X23.4912 Y109.3815
G01 X23.4245 Y109.4127
G01 X23.4141 Y109.4168
G01 X23.4035 Y109.4201
G01 X23.3889 Y109.4233
G01 X23.3778 Y109.4247
G01 X23.3667 Y109.4253
G01 X23.3555 Y109.4251
G01 X23.3444 Y109.4240
G01 X23.2751 Y109.4147
G01 X23.2611 Y109.4121
G01 X23.2508 Y109.4093
G01 X23.2373 Y109.4045
G01 X23.1032 Y109.3448
G01 X22.9489 Y109.3120
G01 X22.7911 Y109.3120
G01 X22.6368 Y109.3448
G01 X22.5584 Y109.3797
G01 X22.5488 Y109.3836
G01 X22.5390 Y109.3868
G01 X22.5026 Y109.3972
G01 X22.4880 Y109.4003
G01 X22.4769 Y109.4016
G01 X22.4619 Y109.4021
G01 X22.4470 Y109.4011
G01 X22.3741 Y109.3906
G01 X22.3595 Y109.3878
G01 X22.3453 Y109.3835
G01 X22.3383 Y109.3808
G01 X22.3281 Y109.3762
G01 X22.3216 Y109.3727
G01 X22.3121 Y109.3668
G01 X22.3001 Y109.3579
G01 X22.2389 Y109.3048
G01 X22.2287 Y109.2939
G01 X22.2240 Y109.2882
G01 X22.2175 Y109.2791
G01 X22.2117 Y109.2695
G01 X22.2082 Y109.2629
G01 X22.2051 Y109.2562
G01 X22.2010 Y109.2458
G01 X22.1781 Y109.1682
G01 X22.1757 Y109.1578
G01 X22.1745 Y109.1507
G01 X22.1737 Y109.1436
G01 X22.1730 Y109.1329
G01 X22.1730 Y108.8435
G01 X22.1461 Y108.7082
G01 X22.0933 Y108.5807
G01 X22.0166 Y108.4660
G01 X21.2808 Y107.7301
G01 X21.2726 Y107.7212
G01 X21.2534 Y107.6975
G01 X21.2468 Y107.6887
G01 X21.2408 Y107.6794
G01 X21.2373 Y107.6729
G01 X21.2325 Y107.6629
G01 X21.2273 Y107.6492
G01 X21.2056 Y107.5752
G01 X21.2032 Y107.5647
G01 X21.2012 Y107.5506
G01 X21.2005 Y107.5363
G01 X21.2005 Y107.2599
G01 X21.2007 Y107.2524
G01 X21.2017 Y107.2411
G01 X21.2035 Y107.2299
G01 X21.2062 Y107.2190
G01 X21.2257 Y107.1503
G01 X21.2309 Y107.1361
G01 X21.2340 Y107.1292
G01 X21.2394 Y107.1193
G01 X21.2865 Y107.0427
G01 X21.3301 Y106.9112
G01 X21.3380 Y106.8340
G01 X21.3380 Y106.2760
G01 X21.3301 Y106.1988
G01 X21.2865 Y106.0673
G01 X21.2394 Y105.9908
G01 X21.2325 Y105.9776
G01 X21.2283 Y105.9673
G01 X21.2248 Y105.9566
G01 X21.2052 Y105.8874
G01 X21.2022 Y105.8726
G01 X21.2013 Y105.8652
G01 X21.2005 Y105.8539
G01 X21.2005 Y105.2599
G01 X21.2007 Y105.2524
G01 X21.2017 Y105.2411
G01 X21.2035 Y105.2299
G01 X21.2062 Y105.2190
G01 X21.2257 Y105.1503
G01 X21.2309 Y105.1361
G01 X21.2357 Y105.1259
G01 X21.2394 Y105.1193
G01 X21.2865 Y105.0427
G01 X21.3301 Y104.9112
G01 X21.3380 Y104.8340
G01 X21.3380 Y104.2760
G01 X21.3301 Y104.1988
G01 X21.2865 Y104.0673
G01 X21.2144 Y103.9503
G01 X21.1108 Y103.8468
G01 X21.0984 Y103.8356
G01 X21.0881 Y103.8239
G01 X21.0683 Y103.8048
G01 X21.0611 Y103.7969
G01 X21.0565 Y103.7914
G01 X21.0441 Y103.7735
G01 X20.9465 Y103.6759
G01 X20.8318 Y103.5992
G01 X20.7057 Y103.5470
G01 X20.6957 Y103.5424
G01 X20.6860 Y103.5371
G01 X20.6798 Y103.5331
G01 X20.6396 Y103.5063
G01 X20.6278 Y103.4975
G01 X20.6168 Y103.4876
G01 X20.0628 Y102.9336
G01 X19.9644 Y102.8678
G01 X19.8552 Y102.8226
G01 X19.7391 Y102.7995
G01 X19.6729 Y102.7995
G01 X19.6582 Y102.7988
G01 X19.6437 Y102.7966
G01 X19.5962 Y102.7872
G01 X19.5819 Y102.7836
G01 X19.5715 Y102.7800
G01 X19.5052 Y102.7526
G01 X19.3923 Y102.7301
G01 X16.5725 Y102.7301
G01 X16.5561 Y102.7295
G01 X16.2534 Y102.7295
G01 X16.1373 Y102.7526
G01 X16.0280 Y102.7978
G01 X15.9297 Y102.8636
G01 X14.6365 Y104.1567
G01 X14.6246 Y104.1675
G01 X14.6039 Y104.1841
G01 X14.5951 Y104.1907
G01 X14.5858 Y104.1967
G01 X14.5761 Y104.2019
G01 X14.5660 Y104.2064
G01 X14.5591 Y104.2090
G01 X14.4816 Y104.2319
G01 X14.4676 Y104.2349
G01 X14.4570 Y104.2363
G01 X14.4428 Y104.2370
G01 X14.2885 Y104.2370
G01 X14.2113 Y104.2449
G01 X14.0798 Y104.2885
G01 X14.0033 Y104.3356
G01 X13.9934 Y104.3409
G01 X13.9797 Y104.3467
G01 X13.9691 Y104.3502
G01 X13.8999 Y104.3698
G01 X13.8889 Y104.3722
G01 X13.8739 Y104.3741
G01 X13.8626 Y104.3745
G01 X11.4785 Y104.3745
G01 X11.3432 Y104.4014
G01 X11.2157 Y104.4542
G01 X11.1010 Y104.5309
G01 X6.8576 Y108.7742
G01 X6.8457 Y108.7850
G01 X6.8250 Y108.8016
G01 X6.8162 Y108.8082
G01 X6.8069 Y108.8142
G01 X6.7971 Y108.8194
G01 X6.7871 Y108.8239
G01 X6.7767 Y108.8277
G01 X6.6992 Y108.8503
G01 X6.6852 Y108.8530
G01 X6.6710 Y108.8543
G01 X5.6777 Y108.8545
G01 X5.6448 Y108.8580
G01 X5.5478 Y108.8942
G01 X5.4671 Y108.9546
G01 X5.4067 Y109.0353
G01 X5.3672 Y109.1413
G01 X5.3647 Y109.1502
G01 X5.3611 Y109.1601
G01 X5.3546 Y109.1823
G01 X5.3489 Y109.1961
G01 X5.3438 Y109.2060
G01 X5.3358 Y109.2185
G01 X5.3291 Y109.2274
G01 X5.2809 Y109.2830
G01 X5.2706 Y109.2938
G01 X5.2593 Y109.3035
G01 X5.2471 Y109.3120
G01 X5.2341 Y109.3193
G01 X5.2239 Y109.3238
G01 X5.2098 Y109.3287
G01 X5.1428 Y109.3484
G01 X5.1289 Y109.3518
G01 X5.1148 Y109.3538
G01 X5.1005 Y109.3545
G01 X4.1109 Y109.3545
G01 X4.0967 Y109.3534
G01 X4.0861 Y109.3518
G01 X4.0275 Y109.3390
G01 X4.0202 Y109.3371
G01 X4.0096 Y109.3335
G01 X3.9992 Y109.3291
G01 X3.9925 Y109.3257
G01 X3.9797 Y109.3180
G01 X3.9676 Y109.3091
G01 X3.9092 Y109.2584
G01 X3.9012 Y109.2506
G01 X3.8938 Y109.2422
G01 X3.8871 Y109.2333
G01 X3.8830 Y109.2271
G01 X3.8757 Y109.2141
G01 X3.8726 Y109.2073
G01 X3.8685 Y109.1969
G01 X3.8466 Y109.1228
G01 X3.8439 Y109.1124
G01 X3.8420 Y109.1018
G01 X3.8409 Y109.0912
G01 X3.8405 Y109.0805
G01 X3.8405 Y91.0295
G01 X3.8409 Y91.0188
G01 X3.8420 Y91.0082
G01 X3.8439 Y90.9976
G01 X3.8569 Y90.9388
G01 X3.8615 Y90.9246
G01 X3.8659 Y90.9142
G01 X3.8693 Y90.9075
G01 X3.8770 Y90.8947
G01 X3.8859 Y90.8826
G01 X3.9391 Y90.8214
G01 X3.9499 Y90.8112
G01 X3.9617 Y90.8021
G01 X3.9744 Y90.7942
G01 X3.9877 Y90.7876
G01 X3.9981 Y90.7835
G01 X4.0052 Y90.7813
G01 X4.0722 Y90.7616
G01 X4.0861 Y90.7582
G01 X4.1002 Y90.7562
G01 X4.1145 Y90.7555
G01 X5.1005 Y90.7555
G01 X5.1108 Y90.7559
G01 X5.1211 Y90.7569
G01 X5.1710 Y90.7651
G01 X5.1853 Y90.7690
G01 X5.1958 Y90.7728
G01 X5.2093 Y90.7790
G01 X5.2221 Y90.7865
G01 X5.2826 Y90.8285
G01 X5.2915 Y90.8352
G01 X5.3000 Y90.8425
G01 X5.3053 Y90.8478
G01 X5.3127 Y90.8561
G01 X5.3173 Y90.8620
G01 X5.3256 Y90.8743
G01 X5.3310 Y90.8841
G01 X5.3357 Y90.8943
G01 X5.3481 Y90.9243
G01 X5.3549 Y90.9360
G01 X5.3596 Y90.9460
G01 X5.3635 Y90.9563
G01 X5.3672 Y90.9687
G01 X5.4067 Y91.0747
G01 X5.4671 Y91.1554
G01 X5.5478 Y91.2158
G01 X5.6656 Y91.2599
G01 X5.6753 Y91.2645
G01 X5.7094 Y91.2831
G01 X5.7160 Y91.2869
G01 X5.7254 Y91.2932
G01 X5.7344 Y91.3001
G01 X5.7427 Y91.3078
G01 X5.7480 Y91.3132
G01 X5.7553 Y91.3218
G01 X5.8038 Y91.3868
G01 X5.8115 Y91.3996
G01 X5.8179 Y91.4130
G01 X5.8218 Y91.4235
G01 X5.8249 Y91.4342
G01 X5.8272 Y91.4452
G01 X5.8283 Y91.4525
G01 X5.8340 Y91.5297
G01 X5.8344 Y91.5408
G01 X5.8336 Y91.5557
G01 X5.8327 Y91.5631
G01 X5.8306 Y91.5741
G01 X5.8265 Y91.5884
G01 X5.8225 Y91.5988
G01 X5.8195 Y91.6056
G01 X5.7808 Y91.6767
G01 X5.7771 Y91.6828
G01 X5.7710 Y91.6916
G01 X5.7643 Y91.6999
G01 X5.7570 Y91.7077
G01 X5.6443 Y91.8204
G01 X5.5239 Y91.9925
G01 X5.4351 Y92.1828
G01 X5.3807 Y92.3857
G01 X5.3624 Y92.5950
G01 X5.3807 Y92.8043
G01 X5.4351 Y93.0072
G01 X5.5239 Y93.1975
G01 X5.6444 Y93.3696
G01 X5.7929 Y93.5181
G01 X5.9713 Y93.6431
G01 X5.9803 Y93.6504
G01 X6.0050 Y93.6720
G01 X6.0126 Y93.6798
G01 X6.0218 Y93.6910
G01 X6.0280 Y93.7000
G01 X6.0335 Y93.7093
G01 X6.0684 Y93.7785
G01 X6.0741 Y93.7922
G01 X6.0775 Y93.8029
G01 X6.0793 Y93.8101
G01 X6.0813 Y93.8211
G01 X6.0822 Y93.8285
G01 X6.0828 Y93.8359
G01 X6.0829 Y93.8471
G01 X6.0821 Y93.8582
G01 X6.0745 Y93.9314
G01 X6.0719 Y93.9461
G01 X6.0678 Y93.9604
G01 X6.0623 Y93.9743
G01 X6.0591 Y93.9810
G01 X6.0536 Y93.9907
G01 X6.0474 Y94.0000
G01 X6.0429 Y94.0060
G01 X5.9970 Y94.0633
G01 X5.9873 Y94.0738
G01 X5.9767 Y94.0833
G01 X5.9681 Y94.0898
G01 X5.7932 Y94.2122
G01 X5.6447 Y94.3607
G01 X5.5243 Y94.5327
G01 X5.4356 Y94.7230
G01 X5.4323 Y94.7350
G01 X5.6516 Y94.7350
G01 X5.6856 Y94.6636
G01 X5.7360 Y94.5794
G01 X5.7945 Y94.5006
G01 X5.8604 Y94.4279
G01 X5.9331 Y94.3620
G01 X6.0119 Y94.3035
G01 X6.0961 Y94.2531
G01 X6.1781 Y94.2141
G01 X6.1882 Y94.2098
G01 X6.2772 Y94.1781
G01 X6.3652 Y94.1558
G01 X6.3790 Y94.1531
G01 X6.4622 Y94.1407
G01 X6.4768 Y94.1393
G01 X6.5675 Y94.1350
G01 X6.6655 Y94.1398
G01 X6.7626 Y94.1542
G01 X6.8507 Y94.1761
G01 X6.8648 Y94.1804
G01 X6.9502 Y94.2111
G01 X7.0389 Y94.2531
G01 X7.1231 Y94.3035
G01 X7.1961 Y94.3575
G01 X7.2075 Y94.3668
G01 X7.2746 Y94.4279
G01 X7.3357 Y94.4950
G01 X7.3450 Y94.5064
G01 X7.3947 Y94.5734
G01 X7.4029 Y94.5856
G01 X7.4494 Y94.6636
G01 X7.4914 Y94.7523
G01 X7.5244 Y94.8447
G01 X7.5467 Y94.9327
G01 X7.5494 Y94.9465
G01 X7.5627 Y95.0370
G01 X7.5673 Y95.1276
G01 X7.5673 Y95.1424
G01 X7.5632 Y95.2257
G01 X7.5618 Y95.2403
G01 X7.5483 Y95.3301
G01 X7.5328 Y95.3928
G01 X7.6956 Y95.5553
G01 X7.6994 Y95.5470
G01 X7.7470 Y95.3701
G01 X7.7494 Y95.3633
G01 X7.7535 Y95.3534
G01 X7.7789 Y95.3013
G01 X7.7847 Y95.2916
G01 X7.7912 Y95.2824
G01 X7.7984 Y95.2737
G01 X7.8090 Y95.2630
G01 X7.8205 Y95.2534
G01 X7.8825 Y95.2073
G01 X7.8953 Y95.1996
G01 X7.9087 Y95.1932
G01 X7.9227 Y95.1881
G01 X7.9299 Y95.1861
G01 X7.9409 Y95.1838
G01 X7.9556 Y95.1820
G01 X8.0253 Y95.1770
G01 X8.0365 Y95.1767
G01 X8.0477 Y95.1771
G01 X8.0588 Y95.1784
G01 X8.0697 Y95.1805
G01 X8.0841 Y95.1846
G01 X8.0945 Y95.1885
G01 X8.1079 Y95.1950
G01 X8.1724 Y95.2302
G01 X8.1814 Y95.2359
G01 X8.1872 Y95.2401
G01 X8.1956 Y95.2468
G01 X8.2034 Y95.2541
G01 X9.6010 Y96.6516
G01 X9.7157 Y96.7283
G01 X9.8432 Y96.7811
G01 X9.9785 Y96.8080
G01 X13.5966 Y96.8080
G01 X13.6108 Y96.8091
G01 X13.6214 Y96.8107
G01 X13.6764 Y96.8226
G01 X13.6873 Y96.8254
G01 X13.6944 Y96.8278
G01 X13.7083 Y96.8334
G01 X13.7215 Y96.8405
G01 X13.7309 Y96.8466
G01 X13.7370 Y96.8511
G01 X13.7983 Y96.9041
G01 X13.8088 Y96.9146
G01 X13.8137 Y96.9203
G01 X13.8204 Y96.9292
G01 X13.8283 Y96.9419
G01 X13.8334 Y96.9518
G01 X13.8363 Y96.9586
G01 X13.8412 Y96.9727
G01 X13.8619 Y97.0432
G01 X13.8649 Y97.0571
G01 X13.8666 Y97.0713
G01 X13.8670 Y97.0820
G01 X13.8670 Y97.8817
G01 X13.8658 Y97.8967
G01 X13.8647 Y97.9041
G01 X13.8623 Y97.9152
G01 X13.8428 Y97.9839
G01 X13.8394 Y97.9947
G01 X13.8351 Y98.0051
G01 X13.8281 Y98.0185
G01 X13.7935 Y98.0748
G01 X13.7499 Y98.2063
G01 X13.7420 Y98.2835
G01 X13.7420 Y98.8665
G01 X13.7499 Y98.9437
G01 X13.7935 Y99.0752
G01 X13.8656 Y99.1922
G01 X13.9675 Y99.2941
G01 X13.9753 Y99.3024
G01 X13.9801 Y99.3083
G01 X13.9867 Y99.3175
G01 X14.0201 Y99.3698
G01 X14.0253 Y99.3798
G01 X14.0311 Y99.3936
G01 X14.0345 Y99.4043
G01 X14.0378 Y99.4189
G01 X14.0396 Y99.4338
G01 X14.0446 Y99.5035
G01 X14.0450 Y99.5147
G01 X14.0442 Y99.5296
G01 X14.0419 Y99.5443
G01 X14.0382 Y99.5587
G01 X14.0345 Y99.5692
G01 X14.0316 Y99.5761
G01 X14.0266 Y99.5861
G01 X13.9931 Y99.6474
G01 X13.9877 Y99.6566
G01 X13.9794 Y99.6683
G01 X13.9700 Y99.6790
G01 X13.8660 Y99.7831
G01 X13.7940 Y99.8998
G01 X14.0342 Y99.8998
G01 X14.0560 Y99.8760
G01 X14.0842 Y99.8505
G01 X14.1148 Y99.8278
G01 X14.1473 Y99.8083
G01 X14.1817 Y99.7920
G01 X14.2175 Y99.7792
G01 X14.2544 Y99.7699
G01 X14.2847 Y99.7653
G01 X14.2957 Y99.7641
G01 X14.3300 Y99.7625
G01 X14.8050 Y99.7625
G01 X14.8393 Y99.7641
G01 X14.8503 Y99.7653
G01 X14.8806 Y99.7699
G01 X14.9104 Y99.7772
G01 X14.9210 Y99.7803
G01 X14.9464 Y99.7893
G01 X14.9567 Y99.7934
G01 X14.9844 Y99.8066
G01 X15.0045 Y99.8181
G01 X15.1551 Y99.6676
G01 X15.1473 Y99.6566
G01 X15.1188 Y99.6123
G01 X15.1131 Y99.6026
G01 X15.1097 Y99.5959
G01 X15.1052 Y99.5856
G01 X15.1016 Y99.5750
G01 X15.0987 Y99.5641
G01 X15.0972 Y99.5568
G01 X15.0957 Y99.5456
G01 X15.0901 Y99.4648
G01 X15.0902 Y99.4536
G01 X15.0912 Y99.4425
G01 X15.0939 Y99.4278
G01 X15.0968 Y99.4170
G01 X15.1005 Y99.4065
G01 X15.1066 Y99.3929
G01 X15.1419 Y99.3283
G01 X15.1473 Y99.3191
G01 X15.1513 Y99.3132
G01 X15.1578 Y99.3047
G01 X15.1650 Y99.2967
G01 X15.2694 Y99.1922
G01 X15.3415 Y99.0752
G01 X15.3851 Y98.9437
G01 X15.3930 Y98.8665
G01 X15.3930 Y98.2835
G01 X15.3851 Y98.2063
G01 X15.3415 Y98.0748
G01 X15.3069 Y98.0185
G01 X15.3016 Y98.0087
G01 X15.2958 Y97.9950
G01 X15.2923 Y97.9844
G01 X15.2727 Y97.9152
G01 X15.2697 Y97.9004
G01 X15.2688 Y97.8929
G01 X15.2680 Y97.8817
G01 X15.2681 Y95.9592
G01 X15.2689 Y95.9472
G01 X15.2727 Y95.9135
G01 X15.2757 Y95.8991
G01 X15.2801 Y95.8851
G01 X15.2843 Y95.8748
G01 X15.2892 Y95.8650
G01 X15.3244 Y95.8005
G01 X15.3321 Y95.7885
G01 X15.3387 Y95.7800
G01 X15.3483 Y95.7695
G01 X16.6798 Y94.4380
G01 X16.6957 Y94.4232
G01 X16.7046 Y94.4163
G01 X16.7107 Y94.4121
G01 X16.7204 Y94.4063
G01 X16.7271 Y94.4029
G01 X16.7969 Y94.3710
G01 X16.8039 Y94.3683
G01 X16.8145 Y94.3648
G01 X16.8253 Y94.3621
G01 X16.8364 Y94.3602
G01 X16.8438 Y94.3595
G01 X16.8549 Y94.3590
G01 X16.8624 Y94.3591
G01 X16.8735 Y94.3600
G01 X16.9500 Y94.3710
G01 X16.9646 Y94.3742
G01 X16.9787 Y94.3789
G01 X16.9890 Y94.3833
G01 X16.9989 Y94.3884
G01 X17.0115 Y94.3964
G01 X17.0204 Y94.4031
G01 X17.0816 Y94.4563
G01 X17.0868 Y94.4616
G01 X17.0942 Y94.4700
G01 X17.0987 Y94.4759
G01 X17.1050 Y94.4851
G01 X17.1106 Y94.4948
G01 X17.1139 Y94.5015
G01 X17.1195 Y94.5153
G01 X17.1433 Y94.5963
G01 X17.1460 Y94.6104
G01 X17.1471 Y94.6210
G01 X17.1475 Y94.6317
G01 X17.1475 Y94.6550
G01 X17.3475 Y94.6550
G01 X17.3475 Y94.2300
G01 X17.3489 Y94.2006
G01 X17.3526 Y94.1751
G01 X17.3549 Y94.1643
G01 X17.3594 Y94.1465
G01 X17.3677 Y94.1221
G01 X17.3733 Y94.1085
G01 X17.3847 Y94.0854
G01 X17.3981 Y94.0633
G01 X17.4157 Y94.0395
G01 X17.4354 Y94.0179
G01 X17.4544 Y94.0005
G01 X17.4601 Y93.9958
G01 X17.4778 Y93.9826
G01 X17.4997 Y93.9691
G01 X17.5122 Y93.9623
G01 X17.5361 Y93.9515
G01 X17.5604 Y93.9429
G01 X17.5890 Y93.9358
G01 X17.6181 Y93.9314
G01 X17.6438 Y93.9300
G01 X17.9475 Y93.9300
G01 X17.9769 Y93.9314
G01 X18.0024 Y93.9351
G01 X18.0132 Y93.9374
G01 X18.0346 Y93.9429
G01 X18.0554 Y93.9502
G01 X18.0657 Y93.9543
G01 X18.0857 Y93.9637
G01 X18.0953 Y93.9691
G01 X18.1142 Y93.9806
G01 X18.1380 Y93.9982
G01 X18.1570 Y94.0153
G01 X18.1647 Y94.0232
G01 X18.1770 Y94.0369
G01 X18.1839 Y94.0455
G01 X18.1969 Y94.0633
G01 X18.2084 Y94.0822
G01 X18.2136 Y94.0915
G01 X18.2232 Y94.1118
G01 X18.2273 Y94.1221
G01 X18.2346 Y94.1429
G01 X18.2417 Y94.1715
G01 X18.2452 Y94.1933
G01 X18.2464 Y94.2043
G01 X18.2475 Y94.2300
G01 X18.2475 Y94.8376
G01 X18.2596 Y94.8636
G01 X18.2750 Y94.9063
G01 X18.2781 Y94.9169
G01 X18.2873 Y94.9538
G01 X18.2893 Y94.9647
G01 X18.2953 Y95.0060
G01 X18.2976 Y95.0513
G01 X18.2977 Y96.4652
G01 X18.3088 Y96.4764
G01 X18.3160 Y96.4849
G01 X18.3204 Y96.4910
G01 X18.3283 Y96.5036
G01 X18.3334 Y96.5135
G01 X18.3363 Y96.5204
G01 X18.3412 Y96.5344
G01 X18.3619 Y96.6049
G01 X18.3643 Y96.6153
G01 X18.3655 Y96.6224
G01 X18.3663 Y96.6295
G01 X18.3670 Y96.6402
G01 X18.3669 Y98.0235
G01 X18.3658 Y98.0446
G01 X18.3640 Y98.0590
G01 X18.3607 Y98.0732
G01 X18.3561 Y98.0871
G01 X18.3280 Y98.1549
G01 X18.3233 Y98.1651
G01 X18.3179 Y98.1749
G01 X18.3117 Y98.1842
G01 X18.3049 Y98.1931
G01 X18.2975 Y98.2014
G01 X18.2866 Y98.2116
G01 X18.2779 Y98.2185
G01 X18.2113 Y98.2644
G01 X18.2019 Y98.2699
G01 X18.1954 Y98.2731
G01 X18.1853 Y98.2773
G01 X18.1748 Y98.2810
G01 X18.0578 Y98.3531
G01 X17.9606 Y98.4503
G01 X17.8885 Y98.5673
G01 X17.8449 Y98.6988
G01 X17.8370 Y98.7760
G01 X17.8370 Y99.3340
G01 X17.8449 Y99.4112
G01 X17.8885 Y99.5427
G01 X17.9653 Y99.6673
G01 X17.9761 Y99.6817
G01 X17.9823 Y99.6909
G01 X17.9877 Y99.7005
G01 X17.9925 Y99.7105
G01 X17.9965 Y99.7207
G01 X17.9987 Y99.7278
G01 X18.0203 Y99.8017
G01 X18.0224 Y99.8122
G01 X18.0234 Y99.8192
G01 X18.0243 Y99.8299
G01 X18.0245 Y99.8371
G01 X18.0245 Y100.2729
G01 X18.0236 Y100.2890
G01 X18.0204 Y100.3190
G01 X18.0185 Y100.3299
G01 X18.0148 Y100.3441
G01 X18.0097 Y100.3579
G01 X18.0050 Y100.3679
G01 X17.9896 Y100.3962
G01 X17.9849 Y100.4093
G01 X17.9785 Y100.4225
G01 X17.9728 Y100.4320
G01 X17.9653 Y100.4427
G01 X17.8884 Y100.5675
G01 X17.8449 Y100.6988
G01 X17.8370 Y100.7760
G01 X17.8370 Y101.3340
G01 X17.8449 Y101.4112
G01 X17.8885 Y101.5427
G01 X17.9606 Y101.6597
G01 X18.0578 Y101.7569
G01 X18.1748 Y101.8290
G01 X18.3063 Y101.8726
G01 X18.3835 Y101.8805
G01 X19.0665 Y101.8805
G01 X19.1437 Y101.8726
G01 X19.2752 Y101.8290
G01 X19.3922 Y101.7569
G01 X19.4024 Y101.7472
G01 X19.4144 Y101.7380
G01 X19.4666 Y101.7043
G01 X19.4764 Y101.6989
G01 X19.4832 Y101.6956
G01 X19.4936 Y101.6914
G01 X19.5007 Y101.6891
G01 X19.5152 Y101.6854
G01 X19.5301 Y101.6832
G01 X19.6072 Y101.6777
G01 X19.6184 Y101.6776
G01 X19.6258 Y101.6780
G01 X19.6332 Y101.6787
G01 X19.6443 Y101.6806
G01 X19.6551 Y101.6832
G01 X19.6622 Y101.6854
G01 X19.6727 Y101.6894
G01 X19.6795 Y101.6925
G01 X19.7004 Y101.7037
G01 X19.8576 Y101.5465
G01 X19.8482 Y101.5355
G01 X19.8320 Y101.5138
G01 X19.8258 Y101.5047
G01 X19.8083 Y101.4752
G01 X19.7934 Y101.4442
G01 X19.7893 Y101.4339
G01 X19.7815 Y101.4120
G01 X19.7772 Y101.3979
G01 X19.7699 Y101.3681
G01 X19.7648 Y101.3341
G01 X19.7638 Y101.3231
G01 X19.7625 Y101.2925
G01 X19.7625 Y100.8138
G01 X19.7644 Y100.7795
G01 X19.7699 Y100.7419
G01 X19.7792 Y100.7050
G01 X19.7893 Y100.6761
G01 X19.7934 Y100.6658
G01 X19.8083 Y100.6348
G01 X19.8239 Y100.6084
G01 X19.8299 Y100.5992
G01 X19.8459 Y100.5775
G01 X19.8528 Y100.5689
G01 X19.8734 Y100.5461
G01 X19.8813 Y100.5384
G01 X19.9042 Y100.5180
G01 X19.9348 Y100.4953
G01 X19.9673 Y100.4758
G01 X19.9950 Y100.4625
G01 X20.0086 Y100.4568
G01 X20.0305 Y100.4490
G01 X20.0411 Y100.4457
G01 X20.0744 Y100.4374
G01 X20.1084 Y100.4323
G01 X20.1194 Y100.4313
G01 X20.1500 Y100.4300
G01 X20.7500 Y100.4300
G01 X20.7880 Y100.4319
G01 X20.8256 Y100.4374
G01 X20.8625 Y100.4467
G01 X20.8914 Y100.4568
G01 X20.9017 Y100.4609
G01 X20.9327 Y100.4758
G01 X20.9591 Y100.4914
G01 X20.9683 Y100.4974
G01 X20.9900 Y100.5134
G01 X20.9986 Y100.5203
G01 X21.0214 Y100.5409
G01 X21.0345 Y100.5548
G01 X21.2782 Y100.5548
G01 X21.2140 Y100.4506
G01 X21.1169 Y100.3535
G01 X21.0115 Y100.2885
G01 X21.0028 Y100.2828
G01 X20.9946 Y100.2764
G01 X20.9619 Y100.2481
G01 X20.9537 Y100.2405
G01 X20.9486 Y100.2351
G01 X20.9437 Y100.2294
G01 X20.9370 Y100.2205
G01 X20.9310 Y100.2111
G01 X20.9257 Y100.2013
G01 X20.8919 Y100.1235
G01 X20.8894 Y100.1165
G01 X20.8864 Y100.1057
G01 X20.8837 Y100.0911
G01 X20.8824 Y100.0763
G01 X20.8825 Y100.0614
G01 X20.8842 Y100.0466
G01 X20.8961 Y99.9739
G01 X20.8996 Y99.9595
G01 X20.9031 Y99.9489
G01 X20.9090 Y99.9352
G01 X20.9144 Y99.9254
G01 X20.9204 Y99.9160
G01 X20.9271 Y99.9071
G01 X20.9812 Y99.8467
G01 X20.9891 Y99.8389
G01 X21.0006 Y99.8295
G01 X21.0097 Y99.8232
G01 X21.0565 Y99.7944
G01 X21.0665 Y99.7890
G01 X21.0768 Y99.7845
G01 X21.0911 Y99.7797
G01 X21.1598 Y99.7602
G01 X21.1746 Y99.7572
G01 X21.1858 Y99.7559
G01 X21.1971 Y99.7555
G01 X22.1740 Y99.7555
G01 X22.3093 Y99.7286
G01 X22.4368 Y99.6758
G01 X22.5515 Y99.5991
G01 X26.8441 Y95.3065
G01 X26.9208 Y95.1918
G01 X26.9736 Y95.0643
G01 X27.0005 Y94.9290
G01 X27.0005 Y90.3287
G01 X27.0007 Y90.3208
G01 X27.0018 Y90.3091
G01 X27.0084 Y90.2669
G01 X27.0107 Y90.2553
G01 X27.0139 Y90.2440
G01 X27.0381 Y90.1694
G01 X27.0546 Y90.0125
G01 X27.0381 Y89.8556
G01 X26.9894 Y89.7056
G01 X26.9105 Y89.5689
G01 X26.8049 Y89.4517
G01 X26.6773 Y89.3590
G01 X26.5332 Y89.2948
G01 X26.3789 Y89.2620
G01 X26.2211 Y89.2620
G01 X26.0668 Y89.2948
G01 X25.9227 Y89.3590
G01 X25.7956 Y89.4513
G01 X25.7864 Y89.4575
G01 X25.7767 Y89.4630
G01 X25.7638 Y89.4690
G01 X25.7086 Y89.4914
G01 X25.6984 Y89.4951
G01 X25.6880 Y89.4980
G01 X25.6774 Y89.5003
G01 X25.6667 Y89.5017
G01 X25.6595 Y89.5022
G01 X25.6451 Y89.5022
G01 X25.6344 Y89.5013
G01 X25.5543 Y89.4897
G01 X25.5434 Y89.4871
G01 X25.5328 Y89.4838
G01 X25.5224 Y89.4797
G01 X25.5123 Y89.4748
G01 X25.4996 Y89.4671
G01 X25.4876 Y89.4582
G01 X25.4320 Y89.4101
G01 X25.4238 Y89.4024
G01 X25.4138 Y89.3914
G01 X25.4050 Y89.3794
G01 X25.3992 Y89.3698
G01 X25.3926 Y89.3565
G01 X25.3898 Y89.3496
G01 X25.3863 Y89.3390
G01 X25.3647 Y89.2650
G01 X25.3632 Y89.2581
G01 X25.3616 Y89.2475
G01 X25.3607 Y89.2368
G01 X25.3605 Y89.2297
G01 X25.3605 Y86.0348
G01 X25.3616 Y86.0204
G01 X25.3633 Y86.0097
G01 X25.3648 Y86.0027
G01 X25.3826 Y85.9367
G01 X25.3860 Y85.9259
G01 X25.3916 Y85.9121
G01 X25.3987 Y85.8988
G01 X25.4070 Y85.8864
G01 X25.4140 Y85.8776
G01 X25.4191 Y85.8721
G01 X25.4778 Y85.8164
G01 X25.4832 Y85.8118
G01 X25.4918 Y85.8053
G01 X25.5007 Y85.7994
G01 X25.5101 Y85.7942
G01 X25.6043 Y85.7462
G01 X25.7444 Y85.6444
G01 X25.8669 Y85.5219
G01 X25.9687 Y85.3818
G01 X26.0536 Y85.2151
G01 X26.0609 Y85.2025
G01 X26.0649 Y85.1965
G01 X26.0716 Y85.1878
G01 X26.1154 Y85.1373
G01 X26.1256 Y85.1271
G01 X26.1338 Y85.1201
G01 X26.1396 Y85.1158
G01 X26.1517 Y85.1081
G01 X26.1646 Y85.1015
G01 X26.1779 Y85.0962
G01 X26.2476 Y85.0725
G01 X26.2584 Y85.0696
G01 X26.2694 Y85.0674
G01 X26.2805 Y85.0661
G01 X26.2916 Y85.0656
G01 X26.3028 Y85.0660
G01 X26.3139 Y85.0672
G01 X26.3285 Y85.0700
G01 X26.4000 Y85.0878
G01 X26.4071 Y85.0899
G01 X26.4176 Y85.0938
G01 X26.4244 Y85.0968
G01 X26.4343 Y85.1020
G01 X26.4469 Y85.1099
G01 X26.4557 Y85.1167
G01 X26.4614 Y85.1216
G01 X26.4693 Y85.1294
G01 X26.5197 Y85.1829
G01 X26.5266 Y85.1911
G01 X26.5329 Y85.1997
G01 X26.5385 Y85.2088
G01 X26.5419 Y85.2151
G01 X26.6267 Y85.3815
G01 X26.7285 Y85.5216
G01 X26.8509 Y85.6440
G01 X26.9910 Y85.7458
G01 X27.0673 Y85.7847
G01 X27.0673 Y85.5532
G01 X26.9965 Y85.5007
G01 X26.9311 Y85.4414
G01 X26.8718 Y85.3760
G01 X26.8234 Y85.3110
G01 X26.8152 Y85.2988
G01 X26.7774 Y85.2357
G01 X26.7705 Y85.2227
G01 X26.7360 Y85.1494
G01 X26.7086 Y85.0732
G01 X26.7052 Y85.0627
G01 X26.6864 Y84.9878
G01 X26.6835 Y84.9733
G01 X26.6718 Y84.8932
G01 X26.6677 Y84.8124
G01 X26.6677 Y84.2976
G01 X26.6718 Y84.2168
G01 X26.6835 Y84.1367
G01 X26.6864 Y84.1222
G01 X26.7063 Y84.0437
G01 X26.7334 Y83.9675
G01 X26.7390 Y83.9539
G01 X26.7738 Y83.8807
G01 X26.8172 Y83.8081
G01 X26.8234 Y83.7990
G01 X26.8673 Y83.7399
G01 X26.8766 Y83.7285
G01 X26.9311 Y83.6686
G01 X26.9937 Y83.6117
G01 X27.0024 Y83.6048
G01 X27.0615 Y83.5609
G01 X27.0706 Y83.5547
G01 X27.1400 Y83.5130
G01 X27.1465 Y83.5096
G01 X27.1675 Y83.4996
G01 X27.1675 Y83.2784
G01 X27.1452 Y83.2856
G01 X26.9910 Y83.3642
G01 X26.8509 Y83.4660
G01 X26.7285 Y83.5884
G01 X26.6267 Y83.7285
G01 X26.5419 Y83.8949
G01 X26.5347 Y83.9075
G01 X26.5285 Y83.9165
G01 X26.5240 Y83.9222
G01 X26.4802 Y83.9727
G01 X26.4700 Y83.9829
G01 X26.4646 Y83.9876
G01 X26.4560 Y83.9942
G01 X26.4438 Y84.0019
G01 X26.4310 Y84.0085
G01 X26.4176 Y84.0138
G01 X26.3479 Y84.0375
G01 X26.3372 Y84.0404
G01 X26.3262 Y84.0426
G01 X26.3151 Y84.0439
G01 X26.3039 Y84.0444
G01 X26.2890 Y84.0437
G01 X26.2780 Y84.0422
G01 X26.2670 Y84.0400
G01 X26.1920 Y84.0212
G01 X26.1780 Y84.0162
G01 X26.1678 Y84.0115
G01 X26.1613 Y84.0080
G01 X26.1549 Y84.0042
G01 X26.1457 Y83.9979
G01 X26.1398 Y83.9933
G01 X26.1315 Y83.9858
G01 X26.0758 Y83.9271
G01 X26.0690 Y83.9189
G01 X26.0627 Y83.9103
G01 X26.0589 Y83.9043
G01 X26.0537 Y83.8949
G01 X25.9687 Y83.7282
G01 X25.8669 Y83.5881
G01 X25.7444 Y83.4656
G01 X25.6043 Y83.3638
G01 X25.4499 Y83.2851
G01 X25.2852 Y83.2316
G01 X25.1141 Y83.2045
G01 X24.9409 Y83.2045
G01 X24.7698 Y83.2316
G01 X24.6050 Y83.2851
G01 X24.4507 Y83.3638
G01 X24.3106 Y83.4656
G01 X24.1881 Y83.5881
G01 X24.0863 Y83.7282
G01 X24.0076 Y83.8826
G01 X23.9541 Y84.0473
G01 X23.9270 Y84.2184
G01 X23.9270 Y84.8916
G01 X23.9567 Y85.0794
G01 X23.9590 Y85.1066
G01 X23.9595 Y85.1184
G01 X23.9593 Y89.2942
G01 X23.9584 Y89.3051
G01 X23.9559 Y89.3194
G01 X23.9389 Y89.3878
G01 X23.9354 Y89.3980
G01 X23.9297 Y89.4112
G01 X23.9227 Y89.4238
G01 X23.9166 Y89.4328
G01 X23.9100 Y89.4413
G01 X23.9027 Y89.4493
G01 X23.8514 Y89.5021
G01 X23.8403 Y89.5120
G01 X23.8282 Y89.5207
G01 X23.8153 Y89.5282
G01 X23.8052 Y89.5329
G01 X23.7983 Y89.5357
G01 X23.7841 Y89.5401
G01 X23.7088 Y89.5576
G01 X23.7014 Y89.5590
G01 X23.6903 Y89.5603
G01 X23.6754 Y89.5607
G01 X23.6606 Y89.5597
G01 X23.6459 Y89.5572
G01 X23.6315 Y89.5532
G01 X23.5589 Y89.5273
G01 X23.5490 Y89.5231
G01 X23.5426 Y89.5199
G01 X23.5333 Y89.5146
G01 X23.5244 Y89.5086
G01 X23.3873 Y89.4090
G01 X23.2432 Y89.3448
G01 X23.0889 Y89.3120
G01 X22.9311 Y89.3120
G01 X22.7768 Y89.3448
G01 X22.6959 Y89.3808
G01 X22.6829 Y89.3859
G01 X22.6695 Y89.3897
G01 X22.6157 Y89.4012
G01 X22.6054 Y89.4030
G01 X22.5949 Y89.4041
G01 X22.5784 Y89.4045
G01 X22.5713 Y89.4041
G01 X22.5607 Y89.4030
G01 X22.5501 Y89.4011
G01 X22.4913 Y89.3881
G01 X22.4771 Y89.3835
G01 X22.4633 Y89.3774
G01 X22.4503 Y89.3701
G01 X22.4410 Y89.3637
G01 X22.4323 Y89.3567
G01 X22.3739 Y89.3059
G01 X22.3637 Y89.2951
G01 X22.3568 Y89.2863
G01 X22.3525 Y89.2802
G01 X22.3467 Y89.2706
G01 X22.3432 Y89.2641
G01 X22.3387 Y89.2539
G01 X22.3360 Y89.2469
G01 X22.3141 Y89.1728
G01 X22.3114 Y89.1624
G01 X22.3101 Y89.1554
G01 X22.3087 Y89.1448
G01 X22.3080 Y89.1341
G01 X22.3080 Y88.8885
G01 X22.2811 Y88.7532
G01 X22.2283 Y88.6257
G01 X22.1516 Y88.5110
G01 X21.3508 Y87.7101
G01 X21.3426 Y87.7012
G01 X21.3234 Y87.6775
G01 X21.3168 Y87.6687
G01 X21.3108 Y87.6594
G01 X21.3073 Y87.6529
G01 X21.3025 Y87.6429
G01 X21.2998 Y87.6361
G01 X21.2963 Y87.6256
G01 X21.2756 Y87.5552
G01 X21.2726 Y87.5412
G01 X21.2709 Y87.5271
G01 X21.2705 Y87.5163
G01 X21.2705 Y87.1319
G01 X21.2711 Y87.1216
G01 X21.2724 Y87.1114
G01 X21.2793 Y87.0690
G01 X21.2824 Y87.0557
G01 X21.3301 Y86.9112
G01 X21.3380 Y86.8340
G01 X21.3380 Y86.2760
G01 X21.3301 Y86.1988
G01 X21.2865 Y86.0673
G01 X21.2144 Y85.9503
G01 X21.1002 Y85.8359
G01 X21.0784 Y85.8091
G01 X21.0718 Y85.8003
G01 X21.0640 Y85.7878
G01 X21.0606 Y85.7812
G01 X21.0561 Y85.7712
G01 X21.0513 Y85.7572
G01 X21.0306 Y85.6868
G01 X21.0282 Y85.6763
G01 X21.0262 Y85.6622
G01 X21.0255 Y85.6479
G01 X21.0255 Y85.4621
G01 X21.0260 Y85.4500
G01 X21.0302 Y85.4124
G01 X21.0332 Y85.3980
G01 X21.0363 Y85.3874
G01 X21.0403 Y85.3771
G01 X21.0450 Y85.3671
G01 X21.0802 Y85.3025
G01 X21.0856 Y85.2933
G01 X21.0917 Y85.2845
G01 X21.0985 Y85.2761
G01 X21.1033 Y85.2709
G01 X21.2144 Y85.1597
G01 X21.2865 Y85.0427
G01 X21.3301 Y84.9112
G01 X21.3380 Y84.8340
G01 X21.3380 Y84.2760
G01 X21.3301 Y84.1988
G01 X21.2865 Y84.0673
G01 X21.2144 Y83.9503
G01 X21.1078 Y83.8438
G01 X21.1003 Y83.8357
G01 X21.0934 Y83.8271
G01 X21.0623 Y83.7808
G01 X21.0565 Y83.7713
G01 X21.0498 Y83.7581
G01 X21.0322 Y83.7156
G01 X20.9664 Y83.6172
G01 X20.1728 Y82.8236
G01 X20.0744 Y82.7578
G01 X19.9652 Y82.7126
G01 X19.8491 Y82.6895
G01 X19.6964 Y82.6895
G01 X19.6800 Y82.6901
G01 X16.5325 Y82.6901
G01 X16.5161 Y82.6895
G01 X16.2709 Y82.6895
G01 X16.1548 Y82.7126
G01 X16.0456 Y82.7578
G01 X15.9472 Y82.8236
G01 X14.6140 Y84.1567
G01 X14.6021 Y84.1675
G01 X14.5814 Y84.1841
G01 X14.5726 Y84.1907
G01 X14.5633 Y84.1967
G01 X14.5536 Y84.2019
G01 X14.5435 Y84.2064
G01 X14.5366 Y84.2090
G01 X14.4591 Y84.2319
G01 X14.4487 Y84.2343
G01 X14.4381 Y84.2359
G01 X14.4310 Y84.2366
G01 X14.4203 Y84.2370
G01 X14.2885 Y84.2370
G01 X14.2113 Y84.2449
G01 X14.0798 Y84.2885
G01 X14.0033 Y84.3356
G01 X13.9934 Y84.3409
G01 X13.9797 Y84.3467
G01 X13.9691 Y84.3502
G01 X13.8999 Y84.3698
G01 X13.8889 Y84.3722
G01 X13.8739 Y84.3741
G01 X13.8626 Y84.3745
G01 X11.4785 Y84.3745
G01 X11.3432 Y84.4014
G01 X11.2157 Y84.4542
G01 X11.1010 Y84.5309
G01 X6.8576 Y88.7742
G01 X6.8457 Y88.7850
G01 X6.8250 Y88.8016
G01 X6.8162 Y88.8082
G01 X6.8069 Y88.8142
G01 X6.7971 Y88.8194
G01 X6.7871 Y88.8239
G01 X6.7767 Y88.8277
G01 X6.6992 Y88.8503
G01 X6.6852 Y88.8530
G01 X6.6710 Y88.8543
G01 X5.6777 Y88.8545
G01 X5.6448 Y88.8580
G01 X5.5478 Y88.8942
G01 X5.4671 Y88.9546
G01 X5.4067 Y89.0353
G01 X5.3672 Y89.1413
G01 X5.3647 Y89.1502
G01 X5.3611 Y89.1601
G01 X5.3546 Y89.1823
G01 X5.3489 Y89.1961
G01 X5.3438 Y89.2060
G01 X5.3358 Y89.2185
G01 X5.3291 Y89.2274
G01 X5.2809 Y89.2830
G01 X5.2706 Y89.2938
G01 X5.2593 Y89.3035
G01 X5.2471 Y89.3120
G01 X5.2341 Y89.3193
G01 X5.2239 Y89.3238
G01 X5.2098 Y89.3287
G01 X5.1428 Y89.3484
G01 X5.1289 Y89.3518
G01 X5.1148 Y89.3538
G01 X5.1005 Y89.3545
G01 X4.1109 Y89.3545
G01 X4.0967 Y89.3534
G01 X4.0861 Y89.3518
G01 X4.0275 Y89.3390
G01 X4.0202 Y89.3371
G01 X4.0096 Y89.3335
G01 X3.9992 Y89.3291
G01 X3.9925 Y89.3257
G01 X3.9797 Y89.3180
G01 X3.9676 Y89.3091
G01 X3.9092 Y89.2584
G01 X3.9012 Y89.2506
G01 X3.8938 Y89.2422
G01 X3.8871 Y89.2333
G01 X3.8830 Y89.2271
G01 X3.8757 Y89.2141
G01 X3.8726 Y89.2073
G01 X3.8685 Y89.1969
G01 X3.8466 Y89.1228
G01 X3.8439 Y89.1124
G01 X3.8420 Y89.1018
G01 X3.8409 Y89.0912
G01 X3.8405 Y89.0805
G01 X3.8405 Y71.0295
G01 X3.8409 Y71.0188
G01 X3.8416 Y71.0117
G01 X3.8439 Y70.9976
G01 X3.8569 Y70.9388
G01 X3.8615 Y70.9246
G01 X3.8676 Y70.9108
G01 X3.8749 Y70.8978
G01 X3.8836 Y70.8855
G01 X3.9391 Y70.8214
G01 X3.9499 Y70.8112
G01 X3.9617 Y70.8021
G01 X3.9744 Y70.7942
G01 X3.9877 Y70.7876
G01 X3.9981 Y70.7835
G01 X4.0052 Y70.7813
G01 X4.0722 Y70.7616
G01 X4.0861 Y70.7582
G01 X4.1002 Y70.7562
G01 X4.1145 Y70.7555
G01 X5.1005 Y70.7555
G01 X5.1108 Y70.7559
G01 X5.1211 Y70.7569
G01 X5.1710 Y70.7651
G01 X5.1853 Y70.7690
G01 X5.1993 Y70.7742
G01 X5.2093 Y70.7790
G01 X5.2221 Y70.7865
G01 X5.2826 Y70.8285
G01 X5.2915 Y70.8352
G01 X5.2972 Y70.8400
G01 X5.3053 Y70.8478
G01 X5.3103 Y70.8533
G01 X5.3173 Y70.8620
G01 X5.3256 Y70.8743
G01 X5.3310 Y70.8841
G01 X5.3357 Y70.8943
G01 X5.3481 Y70.9243
G01 X5.3549 Y70.9360
G01 X5.3596 Y70.9460
G01 X5.3635 Y70.9563
G01 X5.3672 Y70.9687
G01 X5.4067 Y71.0747
G01 X5.4671 Y71.1554
G01 X5.5478 Y71.2158
G01 X5.6656 Y71.2599
G01 X5.6753 Y71.2645
G01 X5.7094 Y71.2831
G01 X5.7160 Y71.2869
G01 X5.7254 Y71.2932
G01 X5.7344 Y71.3001
G01 X5.7427 Y71.3078
G01 X5.7480 Y71.3132
G01 X5.7553 Y71.3218
G01 X5.8038 Y71.3868
G01 X5.8115 Y71.3996
G01 X5.8179 Y71.4130
G01 X5.8218 Y71.4235
G01 X5.8249 Y71.4342
G01 X5.8272 Y71.4452
G01 X5.8283 Y71.4525
G01 X5.8340 Y71.5297
G01 X5.8344 Y71.5408
G01 X5.8336 Y71.5557
G01 X5.8327 Y71.5631
G01 X5.8306 Y71.5741
G01 X5.8265 Y71.5884
G01 X5.8225 Y71.5988
G01 X5.8195 Y71.6056
G01 X5.7808 Y71.6767
G01 X5.7771 Y71.6828
G01 X5.7710 Y71.6916
G01 X5.7643 Y71.6999
G01 X5.7570 Y71.7077
G01 X5.6443 Y71.8204
G01 X5.5239 Y71.9925
G01 X5.4351 Y72.1828
G01 X5.3807 Y72.3857
G01 X5.3624 Y72.5950
G01 X5.3807 Y72.8043
G01 X5.4351 Y73.0072
G01 X5.5239 Y73.1975
G01 X5.6444 Y73.3696
G01 X5.7929 Y73.5181
G01 X5.9713 Y73.6431
G01 X5.9803 Y73.6504
G01 X6.0050 Y73.6720
G01 X6.0150 Y73.6825
G01 X6.0218 Y73.6910
G01 X6.0280 Y73.7000
G01 X6.0335 Y73.7093
G01 X6.0684 Y73.7785
G01 X6.0741 Y73.7922
G01 X6.0775 Y73.8029
G01 X6.0793 Y73.8101
G01 X6.0813 Y73.8211
G01 X6.0822 Y73.8285
G01 X6.0828 Y73.8359
G01 X6.0829 Y73.8471
G01 X6.0821 Y73.8582
G01 X6.0745 Y73.9314
G01 X6.0719 Y73.9461
G01 X6.0678 Y73.9604
G01 X6.0652 Y73.9674
G01 X6.0607 Y73.9777
G01 X6.0536 Y73.9907
G01 X6.0474 Y74.0000
G01 X6.0429 Y74.0060
G01 X5.9970 Y74.0633
G01 X5.9873 Y74.0738
G01 X5.9794 Y74.0810
G01 X5.9681 Y74.0898
G01 X5.7932 Y74.2122
G01 X5.6447 Y74.3607
G01 X5.5243 Y74.5327
G01 X5.4356 Y74.7230
G01 X5.4323 Y74.7350
G01 X5.6516 Y74.7350
G01 X5.6856 Y74.6636
G01 X5.7360 Y74.5794
G01 X5.7945 Y74.5006
G01 X5.8604 Y74.4279
G01 X5.9331 Y74.3620
G01 X6.0119 Y74.3035
G01 X6.0961 Y74.2531
G01 X6.1781 Y74.2141
G01 X6.1882 Y74.2098
G01 X6.2772 Y74.1781
G01 X6.3652 Y74.1558
G01 X6.3790 Y74.1531
G01 X6.4622 Y74.1407
G01 X6.4768 Y74.1393
G01 X6.5675 Y74.1350
G01 X6.6655 Y74.1398
G01 X6.7626 Y74.1542
G01 X6.8507 Y74.1761
G01 X6.8648 Y74.1804
G01 X6.9502 Y74.2111
G01 X7.0389 Y74.2531
G01 X7.1231 Y74.3035
G01 X7.1961 Y74.3575
G01 X7.2047 Y74.3644
G01 X7.2746 Y74.4279
G01 X7.3357 Y74.4950
G01 X7.3450 Y74.5064
G01 X7.3947 Y74.5734
G01 X7.4029 Y74.5856
G01 X7.4494 Y74.6636
G01 X7.4834 Y74.7350
G01 X7.9108 Y74.7350
G01 X7.9229 Y74.7355
G01 X7.9532 Y74.7387
G01 X7.9678 Y74.7410
G01 X7.9785 Y74.7436
G01 X7.9924 Y74.7484
G01 X8.0025 Y74.7528
G01 X8.0735 Y74.7914
G01 X8.0826 Y74.7971
G01 X8.0913 Y74.8034
G01 X8.0968 Y74.8080
G01 X8.1046 Y74.8153
G01 X9.8910 Y76.6016
G01 X10.0057 Y76.6783
G01 X10.1332 Y76.7311
G01 X10.2685 Y76.7580
G01 X13.5966 Y76.7580
G01 X13.6108 Y76.7591
G01 X13.6214 Y76.7607
G01 X13.6764 Y76.7726
G01 X13.6873 Y76.7754
G01 X13.6944 Y76.7778
G01 X13.7083 Y76.7834
G01 X13.7183 Y76.7886
G01 X13.7247 Y76.7924
G01 X13.7370 Y76.8011
G01 X13.7983 Y76.8541
G01 X13.8037 Y76.8592
G01 X13.8113 Y76.8674
G01 X13.8204 Y76.8792
G01 X13.8245 Y76.8854
G01 X13.8301 Y76.8951
G01 X13.8363 Y76.9086
G01 X13.8412 Y76.9227
G01 X13.8619 Y76.9932
G01 X13.8649 Y77.0071
G01 X13.8666 Y77.0213
G01 X13.8670 Y77.0320
G01 X13.8670 Y77.8817
G01 X13.8658 Y77.8967
G01 X13.8647 Y77.9041
G01 X13.8623 Y77.9152
G01 X13.8428 Y77.9839
G01 X13.8394 Y77.9947
G01 X13.8351 Y78.0051
G01 X13.8281 Y78.0185
G01 X13.7935 Y78.0748
G01 X13.7499 Y78.2063
G01 X13.7420 Y78.2835
G01 X13.7420 Y78.8665
G01 X13.7499 Y78.9437
G01 X13.7935 Y79.0752
G01 X13.8656 Y79.1922
G01 X13.9675 Y79.2941
G01 X13.9753 Y79.3024
G01 X13.9801 Y79.3083
G01 X13.9867 Y79.3175
G01 X14.0201 Y79.3698
G01 X14.0253 Y79.3798
G01 X14.0311 Y79.3936
G01 X14.0345 Y79.4043
G01 X14.0378 Y79.4189
G01 X14.0396 Y79.4338
G01 X14.0446 Y79.5035
G01 X14.0450 Y79.5147
G01 X14.0442 Y79.5296
G01 X14.0419 Y79.5443
G01 X14.0382 Y79.5587
G01 X14.0345 Y79.5692
G01 X14.0316 Y79.5761
G01 X14.0266 Y79.5861
G01 X13.9931 Y79.6474
G01 X13.9877 Y79.6566
G01 X13.9794 Y79.6683
G01 X13.9700 Y79.6790
G01 X13.8660 Y79.7831
G01 X13.7940 Y79.8998
G01 X14.0342 Y79.8998
G01 X14.0560 Y79.8760
G01 X14.0842 Y79.8505
G01 X14.1148 Y79.8278
G01 X14.1473 Y79.8083
G01 X14.1817 Y79.7920
G01 X14.2175 Y79.7792
G01 X14.2544 Y79.7699
G01 X14.2847 Y79.7653
G01 X14.2994 Y79.7638
G01 X14.3300 Y79.7625
G01 X14.7701 Y79.7625
G01 X15.0914 Y79.4412
G01 X15.0931 Y79.4314
G01 X15.0957 Y79.4206
G01 X15.0992 Y79.4099
G01 X15.1034 Y79.3996
G01 X15.1084 Y79.3896
G01 X15.1419 Y79.3283
G01 X15.1493 Y79.3161
G01 X15.1556 Y79.3074
G01 X15.1650 Y79.2967
G01 X15.2694 Y79.1922
G01 X15.3415 Y79.0752
G01 X15.3851 Y78.9437
G01 X15.3930 Y78.8665
G01 X15.3930 Y78.2835
G01 X15.3851 Y78.2063
G01 X15.3415 Y78.0748
G01 X15.3069 Y78.0185
G01 X15.3016 Y78.0087
G01 X15.2958 Y77.9950
G01 X15.2923 Y77.9844
G01 X15.2718 Y77.9115
G01 X15.2697 Y77.9004
G01 X15.2688 Y77.8929
G01 X15.2680 Y77.8779
G01 X15.2682 Y76.4531
G01 X15.2717 Y76.4188
G01 X15.2733 Y76.4078
G01 X15.2766 Y76.3935
G01 X15.2814 Y76.3796
G01 X15.2843 Y76.3728
G01 X15.2892 Y76.3629
G01 X15.3244 Y76.2985
G01 X15.3321 Y76.2865
G01 X15.3410 Y76.2752
G01 X15.3483 Y76.2674
G01 X16.8804 Y74.7353
G01 X16.8924 Y74.7245
G01 X16.9130 Y74.7079
G01 X16.9218 Y74.7013
G01 X16.9343 Y74.6935
G01 X16.9476 Y74.6870
G01 X16.9613 Y74.6818
G01 X17.0319 Y74.6611
G01 X17.0423 Y74.6584
G01 X17.0528 Y74.6565
G01 X17.0634 Y74.6554
G01 X17.0742 Y74.6550
G01 X17.3475 Y74.6550
G01 X17.3475 Y74.2300
G01 X17.3489 Y74.2006
G01 X17.3526 Y74.1751
G01 X17.3549 Y74.1643
G01 X17.3594 Y74.1465
G01 X17.3677 Y74.1221
G01 X17.3718 Y74.1118
G01 X17.3796 Y74.0952
G01 X17.3866 Y74.0822
G01 X17.3981 Y74.0633
G01 X17.4157 Y74.0395
G01 X17.4354 Y74.0179
G01 X17.4572 Y73.9981
G01 X17.4808 Y73.9806
G01 X17.5027 Y73.9673
G01 X17.5260 Y73.9558
G01 X17.5396 Y73.9502
G01 X17.5604 Y73.9429
G01 X17.5890 Y73.9358
G01 X17.6181 Y73.9314
G01 X17.6438 Y73.9300
G01 X17.9475 Y73.9300
G01 X17.9769 Y73.9314
G01 X18.0024 Y73.9351
G01 X18.0132 Y73.9374
G01 X18.0346 Y73.9429
G01 X18.0554 Y73.9502
G01 X18.0657 Y73.9543
G01 X18.0857 Y73.9637
G01 X18.0953 Y73.9691
G01 X18.1142 Y73.9806
G01 X18.1380 Y73.9982
G01 X18.1570 Y74.0153
G01 X18.1647 Y74.0232
G01 X18.1770 Y74.0369
G01 X18.1839 Y74.0455
G01 X18.1969 Y74.0633
G01 X18.2084 Y74.0822
G01 X18.2136 Y74.0915
G01 X18.2232 Y74.1118
G01 X18.2273 Y74.1221
G01 X18.2346 Y74.1429
G01 X18.2417 Y74.1715
G01 X18.2452 Y74.1933
G01 X18.2464 Y74.2043
G01 X18.2475 Y74.2300
G01 X18.2475 Y74.8376
G01 X18.2596 Y74.8636
G01 X18.2750 Y74.9063
G01 X18.2781 Y74.9169
G01 X18.2873 Y74.9538
G01 X18.2893 Y74.9647
G01 X18.2953 Y75.0060
G01 X18.2976 Y75.0513
G01 X18.2977 Y76.4652
G01 X18.3088 Y76.4764
G01 X18.3160 Y76.4849
G01 X18.3204 Y76.4910
G01 X18.3283 Y76.5036
G01 X18.3334 Y76.5135
G01 X18.3363 Y76.5204
G01 X18.3412 Y76.5344
G01 X18.3619 Y76.6049
G01 X18.3643 Y76.6153
G01 X18.3655 Y76.6224
G01 X18.3663 Y76.6295
G01 X18.3670 Y76.6402
G01 X18.3669 Y78.0235
G01 X18.3658 Y78.0446
G01 X18.3640 Y78.0590
G01 X18.3607 Y78.0732
G01 X18.3561 Y78.0871
G01 X18.3280 Y78.1549
G01 X18.3233 Y78.1651
G01 X18.3179 Y78.1749
G01 X18.3117 Y78.1842
G01 X18.3049 Y78.1931
G01 X18.2975 Y78.2014
G01 X18.2866 Y78.2116
G01 X18.2779 Y78.2185
G01 X18.2113 Y78.2644
G01 X18.2019 Y78.2699
G01 X18.1954 Y78.2731
G01 X18.1853 Y78.2773
G01 X18.1748 Y78.2810
G01 X18.0578 Y78.3531
G01 X17.9606 Y78.4503
G01 X17.8885 Y78.5673
G01 X17.8449 Y78.6988
G01 X17.8370 Y78.7760
G01 X17.8370 Y79.3340
G01 X17.8449 Y79.4112
G01 X17.8885 Y79.5427
G01 X17.9653 Y79.6673
G01 X17.9761 Y79.6817
G01 X17.9823 Y79.6909
G01 X17.9877 Y79.7005
G01 X17.9925 Y79.7105
G01 X17.9965 Y79.7207
G01 X17.9987 Y79.7278
G01 X18.0203 Y79.8017
G01 X18.0224 Y79.8122
G01 X18.0234 Y79.8192
G01 X18.0243 Y79.8299
G01 X18.0245 Y79.8371
G01 X18.0245 Y80.2729
G01 X18.0236 Y80.2890
G01 X18.0204 Y80.3190
G01 X18.0185 Y80.3299
G01 X18.0148 Y80.3441
G01 X18.0097 Y80.3579
G01 X18.0050 Y80.3679
G01 X17.9896 Y80.3962
G01 X17.9849 Y80.4093
G01 X17.9785 Y80.4225
G01 X17.9728 Y80.4320
G01 X17.9653 Y80.4427
G01 X17.8884 Y80.5675
G01 X17.8449 Y80.6988
G01 X17.8370 Y80.7760
G01 X17.8370 Y81.3340
G01 X17.8449 Y81.4112
G01 X17.8885 Y81.5427
G01 X17.9606 Y81.6597
G01 X18.0578 Y81.7569
G01 X18.1748 Y81.8290
G01 X18.3063 Y81.8726
G01 X18.3835 Y81.8805
G01 X19.0665 Y81.8805
G01 X19.1437 Y81.8726
G01 X19.2752 Y81.8290
G01 X19.3922 Y81.7569
G01 X19.4024 Y81.7472
G01 X19.4144 Y81.7380
G01 X19.4666 Y81.7043
G01 X19.4764 Y81.6989
G01 X19.4832 Y81.6956
G01 X19.4936 Y81.6914
G01 X19.5007 Y81.6891
G01 X19.5152 Y81.6854
G01 X19.5301 Y81.6832
G01 X19.6072 Y81.6777
G01 X19.6184 Y81.6776
G01 X19.6258 Y81.6780
G01 X19.6332 Y81.6787
G01 X19.6443 Y81.6806
G01 X19.6551 Y81.6832
G01 X19.6622 Y81.6854
G01 X19.6727 Y81.6894
G01 X19.6795 Y81.6925
G01 X19.7004 Y81.7037
G01 X19.8576 Y81.5465
G01 X19.8482 Y81.5355
G01 X19.8320 Y81.5138
G01 X19.8258 Y81.5047
G01 X19.8083 Y81.4752
G01 X19.7934 Y81.4442
G01 X19.7893 Y81.4339
G01 X19.7815 Y81.4120
G01 X19.7772 Y81.3979
G01 X19.7699 Y81.3681
G01 X19.7648 Y81.3341
G01 X19.7638 Y81.3231
G01 X19.7625 Y81.2925
G01 X19.7627 Y80.8101
G01 X19.7641 Y80.7832
G01 X19.7653 Y80.7722
G01 X19.7699 Y80.7419
G01 X19.7772 Y80.7121
G01 X19.7803 Y80.7015
G01 X19.7906 Y80.6726
G01 X19.7950 Y80.6625
G01 X19.8049 Y80.6414
G01 X19.8100 Y80.6316
G01 X19.8258 Y80.6053
G01 X19.8320 Y80.5962
G01 X19.8482 Y80.5745
G01 X19.8553 Y80.5661
G01 X19.8760 Y80.5435
G01 X19.9014 Y80.5203
G01 X19.9100 Y80.5134
G01 X19.9287 Y80.4995
G01 X19.9379 Y80.4932
G01 X19.9673 Y80.4758
G01 X19.9950 Y80.4625
G01 X20.0086 Y80.4568
G01 X20.0375 Y80.4467
G01 X20.0672 Y80.4391
G01 X20.0817 Y80.4362
G01 X20.1120 Y80.4319
G01 X20.1463 Y80.4300
G01 X20.4895 Y80.4300
G01 X20.4927 Y80.4113
G01 X20.5019 Y80.3744
G01 X20.5048 Y80.3642
G01 X20.5204 Y80.3211
G01 X20.5397 Y80.2800
G01 X20.5450 Y80.2703
G01 X20.5627 Y80.2408
G01 X20.5709 Y80.2286
G01 X20.5959 Y80.1952
G01 X20.6237 Y80.1642
G01 X20.6342 Y80.1537
G01 X20.6624 Y80.1282
G01 X20.6710 Y80.1213
G01 X20.7046 Y80.0966
G01 X20.7467 Y80.0714
G01 X20.7911 Y80.0504
G01 X20.8303 Y80.0362
G01 X20.8444 Y80.0319
G01 X20.8777 Y80.0235
G01 X20.8883 Y80.0213
G01 X20.8961 Y79.9739
G01 X20.8985 Y79.9630
G01 X20.9018 Y79.9524
G01 X20.9059 Y79.9420
G01 X20.9125 Y79.9286
G01 X20.9204 Y79.9160
G01 X20.9271 Y79.9071
G01 X20.9812 Y79.8467
G01 X20.9891 Y79.8389
G01 X20.9976 Y79.8317
G01 X21.0097 Y79.8232
G01 X21.0565 Y79.7944
