(G-CODE GENERATED BY FLATCAM v8.994 - www.flatcam.org - Version Date: 2020/11/7)

(Name: Beecounter-User_2.gbr_edit_iso_combined_cnc)
(Type: G-code from Geometry)
(Units: MM)

(Created on Monday, 16 December 2024 at 15:24)

(This preprocessor is the default preprocessor used by FlatCAM.)
(It is made to work with MACH3 compatible motion controllers.)

(TOOL DIAMETER: 1.5 mm)
(Feedrate_XY: 120.0 mm/min)
(Feedrate_Z: 60.0 mm/min)
(Feedrate rapids 1500.0 mm/min)

(Z_Cut: -0.8 mm)
(Z_Move: 2.0 mm)
(Z Start: None mm)
(Z End: 15.0 mm)
(X,Y End: None mm)
(Steps per circle: 64)
(Preprocessor Geometry: default)

(X range:   21.5936 ...   38.1937  mm)
(Y range:    7.3427 ...  138.9427  mm)

(Spindle Speed: 0.0 RPM)
G21
G90
G94

G01 F120.00

M5
G00 Z15.0000
G00 X0.0000 Y0.0000
T1
M6    
(MSG, Change to Tool Dia = 1.5000)
M0
G00 Z15.0000

M03
G01 F120.00
G00 X21.5936 Y18.1427
G01 F60.00
G01 Z-0.8000
G01 F120.00
G01 X21.5938 Y8.1243
G01 X21.5948 Y8.1010
G01 X21.5975 Y8.0643
G01 X21.5995 Y8.0460
G01 X21.6027 Y8.0229
G01 X21.6056 Y8.0047
G01 X21.6128 Y7.9686
G01 X21.6229 Y7.9281
G01 X21.6336 Y7.8929
G01 X21.6396 Y7.8755
G01 X21.6477 Y7.8536
G01 X21.6545 Y7.8365
G01 X21.6618 Y7.8196
G01 X21.6715 Y7.7984
G01 X21.6881 Y7.7656
G01 X21.6970 Y7.7494
G01 X21.7184 Y7.7137
G01 X21.7389 Y7.6830
G01 X21.7496 Y7.6681
G01 X21.7637 Y7.6495
G01 X21.7752 Y7.6352
G01 X21.7993 Y7.6073
G01 X21.8151 Y7.5902
G01 X21.8279 Y7.5770
G01 X21.8546 Y7.5516
G01 X21.8720 Y7.5361
G01 X21.8861 Y7.5243
G01 X21.9005 Y7.5128
G01 X21.9191 Y7.4987
G01 X21.9340 Y7.4879
G01 X21.9646 Y7.4675
G01 X21.9845 Y7.4553
G01 X22.0165 Y7.4371
G01 X22.0328 Y7.4287
G01 X22.0538 Y7.4185
G01 X22.0875 Y7.4036
G01 X22.1046 Y7.3967
G01 X22.1264 Y7.3887
G01 X22.1614 Y7.3771
G01 X22.1969 Y7.3673
G01 X22.2195 Y7.3619
G01 X22.2557 Y7.3547
G01 X22.2787 Y7.3510
G01 X22.3152 Y7.3465
G01 X22.3336 Y7.3449
G01 X22.3568 Y7.3436
G01 X22.3936 Y7.3427
G01 X37.4120 Y7.3429
G01 X37.4353 Y7.3438
G01 X37.4721 Y7.3465
G01 X37.4903 Y7.3486
G01 X37.5134 Y7.3518
G01 X37.5316 Y7.3547
G01 X37.5677 Y7.3619
G01 X37.6082 Y7.3720
G01 X37.6259 Y7.3771
G01 X37.6608 Y7.3887
G01 X37.6827 Y7.3967
G01 X37.6998 Y7.4036
G01 X37.7167 Y7.4108
G01 X37.7379 Y7.4206
G01 X37.7544 Y7.4287
G01 X37.7869 Y7.4460
G01 X37.8227 Y7.4675
G01 X37.8533 Y7.4879
G01 X37.8682 Y7.4987
G01 X37.8868 Y7.5128
G01 X37.9012 Y7.5243
G01 X37.9290 Y7.5483
G01 X37.9462 Y7.5641
G01 X37.9722 Y7.5902
G01 X37.9847 Y7.6037
G01 X38.0002 Y7.6211
G01 X38.0121 Y7.6352
G01 X38.0236 Y7.6495
G01 X38.0376 Y7.6681
G01 X38.0484 Y7.6831
G01 X38.0689 Y7.7137
G01 X38.0810 Y7.7335
G01 X38.0992 Y7.7656
G01 X38.1077 Y7.7819
G01 X38.1178 Y7.8029
G01 X38.1255 Y7.8196
G01 X38.1396 Y7.8536
G01 X38.1477 Y7.8755
G01 X38.1592 Y7.9105
G01 X38.1690 Y7.9459
G01 X38.1745 Y7.9686
G01 X38.1783 Y7.9866
G01 X38.1846 Y8.0229
G01 X38.1878 Y8.0460
G01 X38.1914 Y8.0826
G01 X38.1928 Y8.1059
G01 X38.1937 Y8.1427
G01 X38.1934 Y18.1611
G01 X38.1925 Y18.1844
G01 X38.1898 Y18.2211
G01 X38.1878 Y18.2394
G01 X38.1846 Y18.2625
G01 X38.1783 Y18.2988
G01 X38.1745 Y18.3168
G01 X38.1643 Y18.3573
G01 X38.1537 Y18.3925
G01 X38.1477 Y18.4099
G01 X38.1396 Y18.4318
G01 X38.1328 Y18.4489
G01 X38.1255 Y18.4658
G01 X38.1157 Y18.4869
G01 X38.0992 Y18.5198
G01 X38.0903 Y18.5360
G01 X38.0689 Y18.5717
G01 X38.0588 Y18.5872
G01 X38.0376 Y18.6173
G01 X38.0236 Y18.6359
G01 X38.0121 Y18.6502
G01 X37.9880 Y18.6781
G01 X37.9722 Y18.6952
G01 X37.9462 Y18.7213
G01 X37.9327 Y18.7338
G01 X37.9152 Y18.7493
G01 X37.9012 Y18.7611
G01 X37.8868 Y18.7726
G01 X37.8682 Y18.7867
G01 X37.8381 Y18.8079
G01 X37.8227 Y18.8179
G01 X37.8028 Y18.8301
G01 X37.7708 Y18.8483
G01 X37.7544 Y18.8567
G01 X37.7334 Y18.8669
G01 X37.6998 Y18.8818
G01 X37.6827 Y18.8887
G01 X37.6608 Y18.8967
G01 X37.6259 Y18.9083
G01 X37.5904 Y18.9181
G01 X37.5677 Y18.9235
G01 X37.5316 Y18.9307
G01 X37.5086 Y18.9344
G01 X37.4721 Y18.9389
G01 X37.4537 Y18.9404
G01 X37.4304 Y18.9418
G01 X37.3936 Y18.9427
G01 X22.3936 Y18.9427
G01 X22.3568 Y18.9418
G01 X22.3336 Y18.9404
G01 X22.2969 Y18.9368
G01 X22.2557 Y18.9307
G01 X22.2195 Y18.9235
G01 X22.1791 Y18.9134
G01 X22.1439 Y18.9027
G01 X22.1046 Y18.8887
G01 X22.0706 Y18.8746
G01 X22.0328 Y18.8567
G01 X22.0004 Y18.8394
G01 X21.9646 Y18.8179
G01 X21.9340 Y18.7975
G01 X21.9005 Y18.7726
G01 X21.8720 Y18.7493
G01 X21.8411 Y18.7213
G01 X21.8151 Y18.6952
G01 X21.7993 Y18.6781
G01 X21.7752 Y18.6502
G01 X21.7637 Y18.6359
G01 X21.7496 Y18.6173
G01 X21.7284 Y18.5872
G01 X21.7184 Y18.5717
G01 X21.7062 Y18.5519
G01 X21.6881 Y18.5198
G01 X21.6715 Y18.4869
G01 X21.6618 Y18.4658
G01 X21.6545 Y18.4489
G01 X21.6477 Y18.4318
G01 X21.6396 Y18.4099
G01 X21.6281 Y18.3749
G01 X21.6229 Y18.3573
G01 X21.6170 Y18.3347
G01 X21.6090 Y18.2988
G01 X21.6027 Y18.2625
G01 X21.5995 Y18.2394
G01 X21.5975 Y18.2211
G01 X21.5948 Y18.1844
G01 X21.5938 Y18.1611
G01 X21.5936 Y18.1427
G00 Z2.0000
G00 X23.1937 Y17.3427
G01 F60.00
G01 Z-0.8000
G01 F120.00
G01 X23.1937 Y8.9427
G01 X36.5936 Y8.9427
G01 X36.5936 Y17.3427
G01 X23.1937 Y17.3427
G00 Z2.0000
G00 X23.1937 Y37.3427
G01 F60.00
G01 Z-0.8000
G01 F120.00
G01 X23.1937 Y28.9427
G01 X36.5936 Y28.9427
G01 X36.5936 Y37.3427
G01 X23.1937 Y37.3427
G00 Z2.0000
G00 X21.5936 Y38.1427
G01 F60.00
G01 Z-0.8000
G01 F120.00
G01 X21.5938 Y28.1243
G01 X21.5948 Y28.1010
G01 X21.5975 Y28.0643
G01 X21.5995 Y28.0460
G01 X21.6027 Y28.0229
G01 X21.6056 Y28.0047
G01 X21.6128 Y27.9686
G01 X21.6229 Y27.9281
G01 X21.6336 Y27.8929
G01 X21.6396 Y27.8755
G01 X21.6477 Y27.8536
G01 X21.6545 Y27.8365
G01 X21.6618 Y27.8196
G01 X21.6715 Y27.7984
G01 X21.6881 Y27.7656
G01 X21.6970 Y27.7494
G01 X21.7184 Y27.7137
G01 X21.7389 Y27.6831
G01 X21.7496 Y27.6681
G01 X21.7637 Y27.6495
G01 X21.7752 Y27.6352
G01 X21.7993 Y27.6073
G01 X21.8151 Y27.5902
G01 X21.8279 Y27.5770
G01 X21.8546 Y27.5516
G01 X21.8720 Y27.5361
G01 X21.8861 Y27.5243
G01 X21.9005 Y27.5128
G01 X21.9191 Y27.4987
G01 X21.9340 Y27.4879
G01 X21.9646 Y27.4675
G01 X21.9845 Y27.4553
G01 X22.0165 Y27.4371
G01 X22.0328 Y27.4287
G01 X22.0538 Y27.4185
G01 X22.0875 Y27.4036
G01 X22.1046 Y27.3967
G01 X22.1264 Y27.3887
G01 X22.1614 Y27.3771
G01 X22.1969 Y27.3673
G01 X22.2195 Y27.3619
G01 X22.2557 Y27.3547
G01 X22.2787 Y27.3510
G01 X22.3152 Y27.3465
G01 X22.3336 Y27.3449
G01 X22.3568 Y27.3436
G01 X22.3936 Y27.3427
G01 X37.4120 Y27.3429
G01 X37.4353 Y27.3438
G01 X37.4721 Y27.3465
G01 X37.4903 Y27.3486
G01 X37.5134 Y27.3518
G01 X37.5316 Y27.3547
G01 X37.5677 Y27.3619
G01 X37.6082 Y27.3720
G01 X37.6434 Y27.3827
G01 X37.6608 Y27.3887
G01 X37.6827 Y27.3967
G01 X37.6998 Y27.4036
G01 X37.7167 Y27.4108
G01 X37.7379 Y27.4206
G01 X37.7708 Y27.4371
G01 X37.7869 Y27.4460
G01 X37.8070 Y27.4578
G01 X37.8381 Y27.4775
G01 X37.8533 Y27.4879
G01 X37.8721 Y27.5016
G01 X37.9012 Y27.5243
G01 X37.9152 Y27.5361
G01 X37.9462 Y27.5641
G01 X37.9593 Y27.5770
G01 X37.9847 Y27.6037
G01 X38.0002 Y27.6211
G01 X38.0121 Y27.6352
G01 X38.0236 Y27.6495
G01 X38.0376 Y27.6681
G01 X38.0588 Y27.6982
G01 X38.0689 Y27.7137
G01 X38.0810 Y27.7335
G01 X38.0992 Y27.7656
G01 X38.1077 Y27.7819
G01 X38.1178 Y27.8029
G01 X38.1328 Y27.8365
G01 X38.1396 Y27.8536
G01 X38.1477 Y27.8755
G01 X38.1592 Y27.9105
G01 X38.1690 Y27.9459
G01 X38.1745 Y27.9686
G01 X38.1817 Y28.0047
G01 X38.1853 Y28.0277
G01 X38.1898 Y28.0643
G01 X38.1914 Y28.0826
G01 X38.1928 Y28.1059
G01 X38.1937 Y28.1427
G01 X38.1934 Y38.1611
G01 X38.1925 Y38.1844
G01 X38.1898 Y38.2211
G01 X38.1878 Y38.2394
G01 X38.1846 Y38.2625
G01 X38.1783 Y38.2988
G01 X38.1745 Y38.3168
G01 X38.1643 Y38.3573
G01 X38.1537 Y38.3925
G01 X38.1477 Y38.4099
G01 X38.1396 Y38.4318
G01 X38.1328 Y38.4489
G01 X38.1255 Y38.4658
G01 X38.1157 Y38.4869
G01 X38.1077 Y38.5035
G01 X38.0903 Y38.5360
G01 X38.0785 Y38.5561
G01 X38.0588 Y38.5872
G01 X38.0484 Y38.6023
G01 X38.0347 Y38.6212
G01 X38.0121 Y38.6502
G01 X38.0002 Y38.6643
G01 X37.9722 Y38.6952
G01 X37.9593 Y38.7084
G01 X37.9327 Y38.7338
G01 X37.9152 Y38.7493
G01 X37.9012 Y38.7611
G01 X37.8868 Y38.7726
G01 X37.8682 Y38.7867
G01 X37.8533 Y38.7975
G01 X37.8227 Y38.8179
G01 X37.8028 Y38.8301
G01 X37.7708 Y38.8483
G01 X37.7544 Y38.8567
G01 X37.7334 Y38.8669
G01 X37.6998 Y38.8818
G01 X37.6827 Y38.8887
G01 X37.6608 Y38.8967
G01 X37.6259 Y38.9083
G01 X37.5904 Y38.9181
G01 X37.5677 Y38.9235
G01 X37.5316 Y38.9307
G01 X37.5086 Y38.9344
G01 X37.4721 Y38.9389
G01 X37.4537 Y38.9404
G01 X37.4304 Y38.9418
G01 X37.3936 Y38.9427
G01 X22.3936 Y38.9427
G01 X22.3568 Y38.9418
G01 X22.3336 Y38.9404
G01 X22.2969 Y38.9368
G01 X22.2557 Y38.9307
G01 X22.2196 Y38.9235
G01 X22.1791 Y38.9134
G01 X22.1439 Y38.9027
G01 X22.1046 Y38.8887
G01 X22.0706 Y38.8746
G01 X22.0328 Y38.8567
G01 X22.0004 Y38.8394
G01 X21.9646 Y38.8179
G01 X21.9340 Y38.7975
G01 X21.9005 Y38.7726
G01 X21.8720 Y38.7493
G01 X21.8411 Y38.7213
G01 X21.8151 Y38.6952
G01 X21.7993 Y38.6781
G01 X21.7752 Y38.6502
G01 X21.7526 Y38.6212
G01 X21.7389 Y38.6023
G01 X21.7284 Y38.5872
G01 X21.7087 Y38.5561
G01 X21.6970 Y38.5360
G01 X21.6881 Y38.5198
G01 X21.6715 Y38.4869
G01 X21.6618 Y38.4658
G01 X21.6545 Y38.4489
G01 X21.6413 Y38.4145
G01 X21.6336 Y38.3925
G01 X21.6281 Y38.3749
G01 X21.6182 Y38.3395
G01 X21.6128 Y38.3168
G01 X21.6090 Y38.2988
G01 X21.6027 Y38.2625
G01 X21.5995 Y38.2394
G01 X21.5975 Y38.2211
G01 X21.5948 Y38.1844
G01 X21.5938 Y38.1611
G01 X21.5936 Y38.1427
G00 Z2.0000
G00 X23.1937 Y57.3427
G01 F60.00
G01 Z-0.8000
G01 F120.00
G01 X23.1937 Y48.9427
G01 X36.5936 Y48.9427
G01 X36.5936 Y57.3427
G01 X23.1937 Y57.3427
G00 Z2.0000
G00 X21.5936 Y58.1427
G01 F60.00
G01 Z-0.8000
G01 F120.00
G01 X21.5938 Y48.1243
G01 X21.5948 Y48.1010
G01 X21.5975 Y48.0643
G01 X21.5995 Y48.0460
G01 X21.6027 Y48.0229
G01 X21.6056 Y48.0047
G01 X21.6128 Y47.9686
G01 X21.6229 Y47.9281
G01 X21.6336 Y47.8929
G01 X21.6396 Y47.8755
G01 X21.6477 Y47.8536
G01 X21.6545 Y47.8365
G01 X21.6618 Y47.8196
G01 X21.6715 Y47.7984
G01 X21.6881 Y47.7656
G01 X21.6970 Y47.7494
G01 X21.7087 Y47.7293
G01 X21.7284 Y47.6982
G01 X21.7389 Y47.6830
G01 X21.7526 Y47.6642
G01 X21.7752 Y47.6352
G01 X21.7871 Y47.6211
G01 X21.8151 Y47.5902
G01 X21.8279 Y47.5770
G01 X21.8546 Y47.5516
G01 X21.8720 Y47.5361
G01 X21.8861 Y47.5243
G01 X21.9005 Y47.5128
G01 X21.9191 Y47.4987
G01 X21.9492 Y47.4775
G01 X21.9646 Y47.4675
G01 X21.9845 Y47.4553
G01 X22.0165 Y47.4371
G01 X22.0328 Y47.4287
G01 X22.0538 Y47.4185
G01 X22.0875 Y47.4036
G01 X22.1046 Y47.3967
G01 X22.1264 Y47.3887
G01 X22.1614 Y47.3771
G01 X22.1969 Y47.3673
G01 X22.2196 Y47.3619
G01 X22.2557 Y47.3547
G01 X22.2787 Y47.3510
G01 X22.3152 Y47.3465
G01 X22.3336 Y47.3449
G01 X22.3568 Y47.3436
G01 X22.3936 Y47.3427
G01 X37.4120 Y47.3429
G01 X37.4353 Y47.3438
G01 X37.4721 Y47.3465
G01 X37.4903 Y47.3486
G01 X37.5134 Y47.3518
G01 X37.5497 Y47.3580
G01 X37.5677 Y47.3619
G01 X37.6082 Y47.3720
G01 X37.6434 Y47.3827
G01 X37.6608 Y47.3887
G01 X37.6827 Y47.3967
G01 X37.6998 Y47.4036
G01 X37.7167 Y47.4108
G01 X37.7379 Y47.4206
G01 X37.7544 Y47.4287
G01 X37.7869 Y47.4460
G01 X37.8070 Y47.4578
G01 X37.8381 Y47.4775
G01 X37.8533 Y47.4879
G01 X37.8721 Y47.5016
G01 X37.9012 Y47.5243
G01 X37.9152 Y47.5361
G01 X37.9462 Y47.5641
G01 X37.9593 Y47.5770
G01 X37.9847 Y47.6037
G01 X38.0002 Y47.6211
G01 X38.0121 Y47.6352
G01 X38.0236 Y47.6495
G01 X38.0376 Y47.6681
G01 X38.0484 Y47.6831
G01 X38.0689 Y47.7137
G01 X38.0810 Y47.7335
G01 X38.0992 Y47.7656
G01 X38.1077 Y47.7819
G01 X38.1178 Y47.8029
G01 X38.1328 Y47.8365
G01 X38.1396 Y47.8536
G01 X38.1477 Y47.8755
G01 X38.1592 Y47.9105
G01 X38.1690 Y47.9459
G01 X38.1745 Y47.9686
G01 X38.1817 Y48.0047
G01 X38.1853 Y48.0277
G01 X38.1898 Y48.0643
G01 X38.1914 Y48.0826
G01 X38.1928 Y48.1059
G01 X38.1937 Y48.1427
G01 X38.1934 Y58.1611
G01 X38.1925 Y58.1844
G01 X38.1898 Y58.2211
G01 X38.1878 Y58.2394
G01 X38.1846 Y58.2625
G01 X38.1783 Y58.2988
G01 X38.1745 Y58.3168
G01 X38.1643 Y58.3573
G01 X38.1537 Y58.3925
G01 X38.1477 Y58.4099
G01 X38.1396 Y58.4318
G01 X38.1328 Y58.4489
G01 X38.1255 Y58.4658
G01 X38.1157 Y58.4869
G01 X38.1077 Y58.5035
G01 X38.0903 Y58.5360
G01 X38.0785 Y58.5561
G01 X38.0588 Y58.5872
G01 X38.0484 Y58.6023
G01 X38.0347 Y58.6212
G01 X38.0121 Y58.6502
G01 X38.0002 Y58.6643
G01 X37.9722 Y58.6952
G01 X37.9593 Y58.7084
G01 X37.9327 Y58.7338
G01 X37.9152 Y58.7493
G01 X37.9012 Y58.7611
G01 X37.8868 Y58.7726
G01 X37.8682 Y58.7867
G01 X37.8533 Y58.7975
G01 X37.8227 Y58.8179
G01 X37.8028 Y58.8301
G01 X37.7708 Y58.8483
G01 X37.7544 Y58.8567
G01 X37.7334 Y58.8669
G01 X37.6998 Y58.8818
G01 X37.6827 Y58.8887
G01 X37.6608 Y58.8967
G01 X37.6259 Y58.9083
G01 X37.5904 Y58.9181
G01 X37.5677 Y58.9235
G01 X37.5316 Y58.9307
G01 X37.5086 Y58.9344
G01 X37.4721 Y58.9389
G01 X37.4537 Y58.9404
G01 X37.4304 Y58.9418
G01 X37.3936 Y58.9427
G01 X22.3936 Y58.9427
G01 X22.3568 Y58.9418
G01 X22.3336 Y58.9404
G01 X22.2969 Y58.9368
G01 X22.2557 Y58.9307
G01 X22.2196 Y58.9235
G01 X22.1791 Y58.9134
G01 X22.1439 Y58.9027
G01 X22.1046 Y58.8887
G01 X22.0706 Y58.8746
G01 X22.0328 Y58.8567
G01 X22.0004 Y58.8394
G01 X21.9646 Y58.8179
G01 X21.9340 Y58.7975
G01 X21.9005 Y58.7726
G01 X21.8720 Y58.7493
G01 X21.8411 Y58.7213
G01 X21.8151 Y58.6952
G01 X21.7993 Y58.6781
G01 X21.7752 Y58.6502
G01 X21.7526 Y58.6212
G01 X21.7389 Y58.6023
G01 X21.7284 Y58.5872
G01 X21.7087 Y58.5561
G01 X21.6970 Y58.5360
G01 X21.6881 Y58.5198
G01 X21.6715 Y58.4869
G01 X21.6618 Y58.4658
G01 X21.6545 Y58.4489
G01 X21.6413 Y58.4145
G01 X21.6336 Y58.3925
G01 X21.6281 Y58.3749
G01 X21.6182 Y58.3395
G01 X21.6128 Y58.3168
G01 X21.6090 Y58.2988
G01 X21.6027 Y58.2625
G01 X21.5995 Y58.2394
G01 X21.5975 Y58.2211
G01 X21.5948 Y58.1844
G01 X21.5938 Y58.1611
G01 X21.5936 Y58.1427
G00 Z2.0000
G00 X23.1937 Y77.3427
G01 F60.00
G01 Z-0.8000
G01 F120.00
G01 X23.1937 Y68.9427
G01 X36.5936 Y68.9427
G01 X36.5936 Y77.3427
G01 X23.1937 Y77.3427
G00 Z2.0000
G00 X21.5936 Y78.1427
G01 F60.00
G01 Z-0.8000
G01 F120.00
G01 X21.5938 Y68.1243
G01 X21.5948 Y68.1010
G01 X21.5975 Y68.0643
G01 X21.5995 Y68.0460
G01 X21.6027 Y68.0229
G01 X21.6090 Y67.9866
G01 X21.6128 Y67.9686
G01 X21.6229 Y67.9281
G01 X21.6336 Y67.8929
G01 X21.6396 Y67.8755
G01 X21.6477 Y67.8536
G01 X21.6545 Y67.8365
G01 X21.6618 Y67.8196
G01 X21.6715 Y67.7984
G01 X21.6881 Y67.7656
G01 X21.6969 Y67.7494
G01 X21.7184 Y67.7137
G01 X21.7284 Y67.6982
G01 X21.7496 Y67.6681
G01 X21.7637 Y67.6495
G01 X21.7752 Y67.6352
G01 X21.7993 Y67.6073
G01 X21.8151 Y67.5902
G01 X21.8279 Y67.5770
G01 X21.8546 Y67.5516
G01 X21.8720 Y67.5361
G01 X21.8861 Y67.5243
G01 X21.9005 Y67.5128
G01 X21.9191 Y67.4987
G01 X21.9492 Y67.4775
G01 X21.9646 Y67.4675
G01 X21.9845 Y67.4553
G01 X22.0165 Y67.4371
G01 X22.0328 Y67.4287
G01 X22.0538 Y67.4185
G01 X22.0706 Y67.4108
G01 X22.1046 Y67.3967
G01 X22.1264 Y67.3887
G01 X22.1614 Y67.3771
G01 X22.1969 Y67.3673
G01 X22.2196 Y67.3619
G01 X22.2557 Y67.3547
G01 X22.2787 Y67.3510
G01 X22.3152 Y67.3465
G01 X22.3335 Y67.3449
G01 X22.3568 Y67.3436
G01 X22.3936 Y67.3427
G01 X37.4120 Y67.3429
G01 X37.4537 Y67.3449
G01 X37.4903 Y67.3486
G01 X37.5086 Y67.3510
G01 X37.5316 Y67.3547
G01 X37.5497 Y67.3580
G01 X37.5856 Y67.3661
G01 X37.6082 Y67.3720
G01 X37.6259 Y67.3771
G01 X37.6608 Y67.3887
G01 X37.6827 Y67.3967
G01 X37.6998 Y67.4036
G01 X37.7167 Y67.4108
G01 X37.7379 Y67.4206
G01 X37.7708 Y67.4371
G01 X37.7869 Y67.4460
G01 X37.8227 Y67.4675
G01 X37.8381 Y67.4775
G01 X37.8682 Y67.4987
G01 X37.8868 Y67.5128
G01 X37.9012 Y67.5243
G01 X37.9290 Y67.5483
G01 X37.9462 Y67.5641
G01 X37.9722 Y67.5902
G01 X37.9847 Y67.6037
G01 X38.0002 Y67.6211
G01 X38.0121 Y67.6352
G01 X38.0236 Y67.6495
G01 X38.0376 Y67.6681
G01 X38.0588 Y67.6982
G01 X38.0689 Y67.7137
G01 X38.0810 Y67.7335
G01 X38.0992 Y67.7656
G01 X38.1077 Y67.7819
G01 X38.1178 Y67.8029
G01 X38.1255 Y67.8196
G01 X38.1396 Y67.8536
G01 X38.1477 Y67.8755
G01 X38.1592 Y67.9105
G01 X38.1690 Y67.9459
G01 X38.1745 Y67.9686
G01 X38.1817 Y68.0047
G01 X38.1853 Y68.0277
G01 X38.1898 Y68.0643
G01 X38.1914 Y68.0826
G01 X38.1928 Y68.1059
G01 X38.1937 Y68.1427
G01 X38.1934 Y78.1611
G01 X38.1925 Y78.1844
G01 X38.1898 Y78.2211
G01 X38.1878 Y78.2394
G01 X38.1846 Y78.2625
G01 X38.1817 Y78.2807
G01 X38.1745 Y78.3168
G01 X38.1643 Y78.3573
G01 X38.1537 Y78.3925
G01 X38.1477 Y78.4099
G01 X38.1396 Y78.4318
G01 X38.1328 Y78.4489
G01 X38.1255 Y78.4658
G01 X38.1157 Y78.4869
G01 X38.0992 Y78.5198
G01 X38.0903 Y78.5359
G01 X38.0689 Y78.5717
G01 X38.0588 Y78.5872
G01 X38.0376 Y78.6173
G01 X38.0236 Y78.6359
G01 X38.0121 Y78.6502
G01 X37.9880 Y78.6781
G01 X37.9722 Y78.6952
G01 X37.9593 Y78.7084
G01 X37.9327 Y78.7338
G01 X37.9153 Y78.7493
G01 X37.9012 Y78.7611
G01 X37.8868 Y78.7726
G01 X37.8682 Y78.7867
G01 X37.8381 Y78.8079
G01 X37.8227 Y78.8179
G01 X37.8028 Y78.8301
G01 X37.7708 Y78.8483
G01 X37.7544 Y78.8567
G01 X37.7334 Y78.8669
G01 X37.6998 Y78.8818
G01 X37.6827 Y78.8887
G01 X37.6608 Y78.8967
G01 X37.6259 Y78.9083
G01 X37.5904 Y78.9181
G01 X37.5677 Y78.9235
G01 X37.5316 Y78.9307
G01 X37.5134 Y78.9336
G01 X37.4903 Y78.9368
G01 X37.4537 Y78.9404
G01 X37.4304 Y78.9418
G01 X37.3936 Y78.9427
G01 X22.3936 Y78.9427
G01 X22.3568 Y78.9418
G01 X22.3335 Y78.9404
G01 X22.2969 Y78.9368
G01 X22.2557 Y78.9307
G01 X22.2196 Y78.9235
G01 X22.1791 Y78.9134
G01 X22.1439 Y78.9027
G01 X22.1046 Y78.8887
G01 X22.0706 Y78.8746
G01 X22.0328 Y78.8567
G01 X22.0004 Y78.8394
G01 X21.9646 Y78.8179
G01 X21.9340 Y78.7975
G01 X21.9005 Y78.7726
G01 X21.8720 Y78.7493
G01 X21.8411 Y78.7213
G01 X21.8151 Y78.6952
G01 X21.7993 Y78.6781
G01 X21.7752 Y78.6502
G01 X21.7526 Y78.6212
G01 X21.7389 Y78.6024
G01 X21.7284 Y78.5872
G01 X21.7087 Y78.5561
G01 X21.6969 Y78.5360
G01 X21.6881 Y78.5198
G01 X21.6796 Y78.5035
G01 X21.6694 Y78.4825
G01 X21.6545 Y78.4489
G01 X21.6413 Y78.4145
G01 X21.6336 Y78.3925
G01 X21.6281 Y78.3749
G01 X21.6229 Y78.3573
G01 X21.6170 Y78.3347
G01 X21.6090 Y78.2988
G01 X21.6056 Y78.2807
G01 X21.6020 Y78.2576
G01 X21.5975 Y78.2211
G01 X21.5948 Y78.1844
G01 X21.5938 Y78.1611
G01 X21.5936 Y78.1427
G00 Z2.0000
G00 X23.1937 Y97.3427
G01 F60.00
G01 Z-0.8000
G01 F120.00
G01 X23.1937 Y88.9427
G01 X36.5936 Y88.9427
G01 X36.5936 Y97.3427
G01 X23.1937 Y97.3427
G00 Z2.0000
G00 X21.5936 Y98.1427
G01 F60.00
G01 Z-0.8000
G01 F120.00
G01 X21.5938 Y88.1243
G01 X21.5948 Y88.1010
G01 X21.5975 Y88.0643
G01 X21.5995 Y88.0460
G01 X21.6027 Y88.0229
G01 X21.6090 Y87.9866
G01 X21.6128 Y87.9686
G01 X21.6229 Y87.9281
G01 X21.6336 Y87.8929
G01 X21.6396 Y87.8755
G01 X21.6477 Y87.8536
G01 X21.6545 Y87.8365
G01 X21.6618 Y87.8196
G01 X21.6715 Y87.7984
G01 X21.6881 Y87.7656
G01 X21.6969 Y87.7494
G01 X21.7184 Y87.7137
G01 X21.7284 Y87.6982
G01 X21.7496 Y87.6681
G01 X21.7637 Y87.6495
G01 X21.7752 Y87.6352
G01 X21.7993 Y87.6073
G01 X21.8151 Y87.5902
G01 X21.8279 Y87.5770
G01 X21.8546 Y87.5516
G01 X21.8720 Y87.5361
G01 X21.8861 Y87.5243
G01 X21.9005 Y87.5128
G01 X21.9191 Y87.4987
G01 X21.9492 Y87.4775
G01 X21.9646 Y87.4675
G01 X21.9845 Y87.4553
G01 X22.0165 Y87.4371
G01 X22.0328 Y87.4287
G01 X22.0538 Y87.4185
G01 X22.0706 Y87.4108
G01 X22.1046 Y87.3967
G01 X22.1264 Y87.3887
G01 X22.1614 Y87.3771
G01 X22.1969 Y87.3673
G01 X22.2196 Y87.3619
G01 X22.2557 Y87.3547
G01 X22.2787 Y87.3510
G01 X22.3152 Y87.3465
G01 X22.3335 Y87.3449
G01 X22.3568 Y87.3436
G01 X22.3936 Y87.3427
G01 X37.4120 Y87.3429
G01 X37.4537 Y87.3449
G01 X37.4903 Y87.3486
G01 X37.5086 Y87.3510
G01 X37.5316 Y87.3547
G01 X37.5497 Y87.3580
G01 X37.5856 Y87.3661
G01 X37.6082 Y87.3720
G01 X37.6259 Y87.3771
G01 X37.6608 Y87.3887
G01 X37.6827 Y87.3967
G01 X37.6998 Y87.4036
G01 X37.7167 Y87.4108
G01 X37.7379 Y87.4206
G01 X37.7708 Y87.4371
G01 X37.7869 Y87.4460
G01 X37.8227 Y87.4675
G01 X37.8381 Y87.4775
G01 X37.8682 Y87.4987
G01 X37.8868 Y87.5128
G01 X37.9012 Y87.5243
G01 X37.9290 Y87.5483
G01 X37.9462 Y87.5641
G01 X37.9722 Y87.5902
G01 X37.9847 Y87.6037
G01 X38.0002 Y87.6211
G01 X38.0121 Y87.6352
G01 X38.0236 Y87.6495
G01 X38.0376 Y87.6681
G01 X38.0588 Y87.6982
G01 X38.0689 Y87.7137
G01 X38.0810 Y87.7335
G01 X38.0992 Y87.7656
G01 X38.1077 Y87.7819
G01 X38.1178 Y87.8029
G01 X38.1255 Y87.8196
G01 X38.1396 Y87.8536
G01 X38.1477 Y87.8755
G01 X38.1592 Y87.9105
G01 X38.1690 Y87.9459
G01 X38.1745 Y87.9686
G01 X38.1817 Y88.0047
G01 X38.1853 Y88.0277
G01 X38.1898 Y88.0643
G01 X38.1914 Y88.0826
G01 X38.1928 Y88.1059
G01 X38.1937 Y88.1427
G01 X38.1934 Y98.1611
G01 X38.1925 Y98.1844
G01 X38.1898 Y98.2211
G01 X38.1878 Y98.2394
G01 X38.1846 Y98.2625
G01 X38.1817 Y98.2807
G01 X38.1745 Y98.3168
G01 X38.1643 Y98.3573
G01 X38.1537 Y98.3925
G01 X38.1477 Y98.4099
G01 X38.1396 Y98.4318
G01 X38.1328 Y98.4489
G01 X38.1255 Y98.4658
G01 X38.1157 Y98.4869
G01 X38.0992 Y98.5198
G01 X38.0903 Y98.5359
G01 X38.0689 Y98.5717
G01 X38.0588 Y98.5872
G01 X38.0376 Y98.6173
G01 X38.0236 Y98.6359
G01 X38.0121 Y98.6502
G01 X37.9880 Y98.6781
G01 X37.9722 Y98.6952
G01 X37.9593 Y98.7084
G01 X37.9327 Y98.7338
G01 X37.9153 Y98.7493
G01 X37.9012 Y98.7611
G01 X37.8868 Y98.7726
G01 X37.8682 Y98.7867
G01 X37.8381 Y98.8079
G01 X37.8227 Y98.8179
G01 X37.8028 Y98.8301
G01 X37.7708 Y98.8483
G01 X37.7544 Y98.8567
G01 X37.7334 Y98.8669
G01 X37.6998 Y98.8818
G01 X37.6827 Y98.8887
G01 X37.6608 Y98.8967
G01 X37.6259 Y98.9083
G01 X37.5904 Y98.9181
G01 X37.5677 Y98.9235
G01 X37.5316 Y98.9307
G01 X37.5134 Y98.9336
G01 X37.4903 Y98.9368
G01 X37.4537 Y98.9404
G01 X37.4304 Y98.9418
G01 X37.3936 Y98.9427
G01 X22.3936 Y98.9427
G01 X22.3568 Y98.9418
G01 X22.3335 Y98.9404
G01 X22.2969 Y98.9368
G01 X22.2557 Y98.9307
G01 X22.2196 Y98.9235
G01 X22.1791 Y98.9134
G01 X22.1439 Y98.9027
G01 X22.1046 Y98.8887
G01 X22.0706 Y98.8746
G01 X22.0328 Y98.8567
G01 X22.0004 Y98.8394
G01 X21.9646 Y98.8179
G01 X21.9340 Y98.7975
G01 X21.9005 Y98.7726
G01 X21.8720 Y98.7493
G01 X21.8411 Y98.7213
G01 X21.8151 Y98.6952
G01 X21.7993 Y98.6781
G01 X21.7752 Y98.6502
G01 X21.7526 Y98.6212
G01 X21.7389 Y98.6024
G01 X21.7284 Y98.5872
G01 X21.7087 Y98.5561
G01 X21.6969 Y98.5360
G01 X21.6881 Y98.5198
G01 X21.6796 Y98.5035
G01 X21.6694 Y98.4825
G01 X21.6545 Y98.4489
G01 X21.6413 Y98.4145
G01 X21.6336 Y98.3925
G01 X21.6281 Y98.3749
G01 X21.6229 Y98.3573
G01 X21.6170 Y98.3347
G01 X21.6090 Y98.2988
G01 X21.6056 Y98.2807
G01 X21.6020 Y98.2576
G01 X21.5975 Y98.2211
G01 X21.5948 Y98.1844
G01 X21.5938 Y98.1611
G01 X21.5936 Y98.1427
G00 Z2.0000
G00 X23.1937 Y117.3427
G01 F60.00
G01 Z-0.8000
G01 F120.00
G01 X23.1937 Y108.9427
G01 X36.5936 Y108.9427
G01 X36.5936 Y117.3427
G01 X23.1937 Y117.3427
G00 Z2.0000
G00 X21.5936 Y118.1427
G01 F60.00
G01 Z-0.8000
G01 F120.00
G01 X21.5938 Y108.1243
G01 X21.5948 Y108.1010
G01 X21.5975 Y108.0643
G01 X21.5995 Y108.0460
G01 X21.6027 Y108.0229
G01 X21.6090 Y107.9866
G01 X21.6128 Y107.9686
G01 X21.6229 Y107.9281
G01 X21.6336 Y107.8929
G01 X21.6396 Y107.8755
G01 X21.6477 Y107.8536
G01 X21.6545 Y107.8365
G01 X21.6618 Y107.8196
G01 X21.6715 Y107.7984
G01 X21.6881 Y107.7656
G01 X21.6969 Y107.7494
G01 X21.7184 Y107.7137
G01 X21.7284 Y107.6982
G01 X21.7496 Y107.6681
G01 X21.7637 Y107.6495
G01 X21.7752 Y107.6352
G01 X21.7993 Y107.6073
G01 X21.8151 Y107.5902
G01 X21.8279 Y107.5770
G01 X21.8546 Y107.5516
G01 X21.8720 Y107.5361
G01 X21.8861 Y107.5243
G01 X21.9005 Y107.5128
G01 X21.9191 Y107.4987
G01 X21.9492 Y107.4775
G01 X21.9646 Y107.4675
G01 X21.9845 Y107.4553
G01 X22.0165 Y107.4371
G01 X22.0328 Y107.4287
G01 X22.0538 Y107.4185
G01 X22.0706 Y107.4108
G01 X22.1046 Y107.3967
G01 X22.1264 Y107.3887
G01 X22.1614 Y107.3771
G01 X22.1969 Y107.3673
G01 X22.2196 Y107.3619
G01 X22.2557 Y107.3547
G01 X22.2787 Y107.3510
G01 X22.3152 Y107.3465
G01 X22.3335 Y107.3449
G01 X22.3568 Y107.3436
G01 X22.3936 Y107.3427
G01 X37.4120 Y107.3429
G01 X37.4537 Y107.3449
G01 X37.4903 Y107.3486
G01 X37.5086 Y107.3510
G01 X37.5316 Y107.3547
G01 X37.5497 Y107.3580
G01 X37.5856 Y107.3661
G01 X37.6082 Y107.3720
G01 X37.6259 Y107.3771
G01 X37.6608 Y107.3887
G01 X37.6827 Y107.3967
G01 X37.6998 Y107.4036
G01 X37.7167 Y107.4108
G01 X37.7379 Y107.4206
G01 X37.7708 Y107.4371
G01 X37.7869 Y107.4460
G01 X37.8227 Y107.4675
G01 X37.8381 Y107.4775
G01 X37.8682 Y107.4987
G01 X37.8868 Y107.5128
G01 X37.9012 Y107.5243
G01 X37.9290 Y107.5483
G01 X37.9462 Y107.5641
G01 X37.9722 Y107.5902
G01 X37.9847 Y107.6037
G01 X38.0002 Y107.6211
G01 X38.0121 Y107.6352
G01 X38.0236 Y107.6495
G01 X38.0376 Y107.6681
G01 X38.0588 Y107.6982
G01 X38.0689 Y107.7137
G01 X38.0810 Y107.7335
G01 X38.0992 Y107.7656
G01 X38.1077 Y107.7819
G01 X38.1178 Y107.8029
G01 X38.1255 Y107.8196
G01 X38.1396 Y107.8536
G01 X38.1477 Y107.8755
G01 X38.1592 Y107.9105
G01 X38.1690 Y107.9459
G01 X38.1745 Y107.9686
G01 X38.1817 Y108.0047
G01 X38.1853 Y108.0277
G01 X38.1898 Y108.0643
G01 X38.1914 Y108.0826
G01 X38.1928 Y108.1059
G01 X38.1937 Y108.1427
G01 X38.1934 Y118.1611
G01 X38.1925 Y118.1844
G01 X38.1898 Y118.2211
G01 X38.1878 Y118.2394
G01 X38.1846 Y118.2625
G01 X38.1817 Y118.2807
G01 X38.1745 Y118.3168
G01 X38.1643 Y118.3573
G01 X38.1537 Y118.3925
G01 X38.1477 Y118.4099
G01 X38.1396 Y118.4318
G01 X38.1328 Y118.4489
G01 X38.1255 Y118.4658
G01 X38.1157 Y118.4869
G01 X38.0992 Y118.5198
G01 X38.0903 Y118.5359
G01 X38.0689 Y118.5717
G01 X38.0588 Y118.5872
G01 X38.0376 Y118.6173
G01 X38.0236 Y118.6359
G01 X38.0121 Y118.6502
G01 X37.9880 Y118.6781
G01 X37.9722 Y118.6952
G01 X37.9593 Y118.7084
G01 X37.9327 Y118.7338
G01 X37.9153 Y118.7493
G01 X37.9012 Y118.7611
G01 X37.8868 Y118.7726
G01 X37.8682 Y118.7867
G01 X37.8381 Y118.8079
G01 X37.8227 Y118.8179
G01 X37.8028 Y118.8301
G01 X37.7708 Y118.8483
G01 X37.7544 Y118.8567
G01 X37.7334 Y118.8669
G01 X37.6998 Y118.8818
G01 X37.6827 Y118.8887
G01 X37.6608 Y118.8967
G01 X37.6259 Y118.9083
G01 X37.5904 Y118.9181
G01 X37.5677 Y118.9235
G01 X37.5316 Y118.9307
G01 X37.5134 Y118.9336
G01 X37.4903 Y118.9368
G01 X37.4537 Y118.9404
G01 X37.4304 Y118.9418
G01 X37.3936 Y118.9427
G01 X22.3936 Y118.9427
G01 X22.3568 Y118.9418
G01 X22.3335 Y118.9404
G01 X22.2969 Y118.9368
G01 X22.2557 Y118.9307
G01 X22.2196 Y118.9235
G01 X22.1791 Y118.9134
G01 X22.1439 Y118.9027
G01 X22.1046 Y118.8887
G01 X22.0706 Y118.8746
G01 X22.0328 Y118.8567
G01 X22.0004 Y118.8394
G01 X21.9646 Y118.8179
G01 X21.9340 Y118.7975
G01 X21.9005 Y118.7726
G01 X21.8720 Y118.7493
G01 X21.8411 Y118.7213
G01 X21.8151 Y118.6952
G01 X21.7993 Y118.6781
G01 X21.7752 Y118.6502
G01 X21.7526 Y118.6212
G01 X21.7389 Y118.6024
G01 X21.7284 Y118.5872
G01 X21.7087 Y118.5561
G01 X21.6969 Y118.5360
G01 X21.6881 Y118.5198
G01 X21.6796 Y118.5035
G01 X21.6694 Y118.4825
G01 X21.6545 Y118.4489
G01 X21.6413 Y118.4145
G01 X21.6336 Y118.3925
G01 X21.6281 Y118.3749
G01 X21.6229 Y118.3573
G01 X21.6170 Y118.3347
G01 X21.6090 Y118.2988
G01 X21.6056 Y118.2807
G01 X21.6020 Y118.2576
G01 X21.5975 Y118.2211
G01 X21.5948 Y118.1844
G01 X21.5938 Y118.1611
G01 X21.5936 Y118.1427
G00 Z2.0000
G00 X23.1937 Y137.3427
G01 F60.00
G01 Z-0.8000
G01 F120.00
G01 X23.1937 Y128.9427
G01 X36.5936 Y128.9427
G01 X36.5936 Y137.3427
G01 X23.1937 Y137.3427
G00 Z2.0000
G00 X21.5936 Y138.1427
G01 F60.00
G01 Z-0.8000
G01 F120.00
G01 X21.5938 Y128.1243
G01 X21.5959 Y128.0826
G01 X21.5995 Y128.0460
G01 X21.6020 Y128.0277
G01 X21.6056 Y128.0047
G01 X21.6090 Y127.9866
G01 X21.6170 Y127.9507
G01 X21.6229 Y127.9281
G01 X21.6336 Y127.8929
G01 X21.6396 Y127.8755
G01 X21.6477 Y127.8536
G01 X21.6545 Y127.8365
G01 X21.6618 Y127.8196
G01 X21.6715 Y127.7984
G01 X21.6796 Y127.7819
G01 X21.6970 Y127.7494
G01 X21.7087 Y127.7293
G01 X21.7284 Y127.6982
G01 X21.7388 Y127.6831
G01 X21.7526 Y127.6642
G01 X21.7752 Y127.6352
G01 X21.7871 Y127.6211
G01 X21.8151 Y127.5902
G01 X21.8279 Y127.5770
G01 X21.8546 Y127.5516
G01 X21.8720 Y127.5361
G01 X21.8861 Y127.5243
G01 X21.9005 Y127.5128
G01 X21.9191 Y127.4987
G01 X21.9340 Y127.4879
G01 X21.9646 Y127.4675
G01 X21.9845 Y127.4553
G01 X22.0165 Y127.4371
G01 X22.0328 Y127.4287
G01 X22.0538 Y127.4185
G01 X22.0706 Y127.4108
G01 X22.1046 Y127.3967
G01 X22.1264 Y127.3887
G01 X22.1614 Y127.3771
G01 X22.1969 Y127.3673
G01 X22.2195 Y127.3619
G01 X22.2556 Y127.3547
G01 X22.2787 Y127.3510
G01 X22.3152 Y127.3465
G01 X22.3335 Y127.3449
G01 X22.3568 Y127.3436
G01 X22.3936 Y127.3427
G01 X37.4120 Y127.3429
G01 X37.4537 Y127.3449
G01 X37.4721 Y127.3465
G01 X37.5086 Y127.3510
G01 X37.5316 Y127.3547
G01 X37.5497 Y127.3580
G01 X37.5856 Y127.3661
G01 X37.6082 Y127.3720
G01 X37.6434 Y127.3827
G01 X37.6608 Y127.3887
G01 X37.6827 Y127.3967
G01 X37.6998 Y127.4036
G01 X37.7167 Y127.4108
G01 X37.7379 Y127.4206
G01 X37.7544 Y127.4287
G01 X37.7869 Y127.4460
G01 X37.8227 Y127.4675
G01 X37.8533 Y127.4879
G01 X37.8682 Y127.4987
G01 X37.8868 Y127.5128
G01 X37.9012 Y127.5243
G01 X37.9290 Y127.5483
G01 X37.9462 Y127.5641
G01 X37.9722 Y127.5902
G01 X37.9847 Y127.6037
G01 X38.0002 Y127.6211
G01 X38.0121 Y127.6352
G01 X38.0236 Y127.6495
G01 X38.0376 Y127.6681
G01 X38.0484 Y127.6831
G01 X38.0689 Y127.7137
G01 X38.0810 Y127.7335
G01 X38.0992 Y127.7656
G01 X38.1077 Y127.7819
G01 X38.1178 Y127.8029
G01 X38.1255 Y127.8196
G01 X38.1396 Y127.8536
G01 X38.1477 Y127.8755
G01 X38.1592 Y127.9104
G01 X38.1690 Y127.9459
G01 X38.1745 Y127.9686
G01 X38.1783 Y127.9866
G01 X38.1846 Y128.0229
G01 X38.1878 Y128.0460
G01 X38.1914 Y128.0826
G01 X38.1928 Y128.1059
G01 X38.1937 Y128.1427
G01 X38.1934 Y138.1611
G01 X38.1925 Y138.1844
G01 X38.1898 Y138.2211
G01 X38.1878 Y138.2394
G01 X38.1846 Y138.2625
G01 X38.1783 Y138.2988
G01 X38.1745 Y138.3168
G01 X38.1643 Y138.3573
G01 X38.1592 Y138.3749
G01 X38.1477 Y138.4099
G01 X38.1396 Y138.4318
G01 X38.1328 Y138.4489
G01 X38.1255 Y138.4658
G01 X38.1157 Y138.4869
G01 X38.1077 Y138.5035
G01 X38.0903 Y138.5360
G01 X38.0785 Y138.5561
G01 X38.0588 Y138.5872
G01 X38.0484 Y138.6023
G01 X38.0347 Y138.6212
G01 X38.0121 Y138.6502
G01 X38.0002 Y138.6643
G01 X37.9722 Y138.6952
G01 X37.9593 Y138.7084
G01 X37.9327 Y138.7338
G01 X37.9153 Y138.7493
G01 X37.9012 Y138.7611
G01 X37.8868 Y138.7726
G01 X37.8682 Y138.7867
G01 X37.8533 Y138.7975
G01 X37.8227 Y138.8179
G01 X37.8028 Y138.8301
G01 X37.7708 Y138.8483
G01 X37.7544 Y138.8567
G01 X37.7334 Y138.8669
G01 X37.7167 Y138.8746
G01 X37.6827 Y138.8887
G01 X37.6608 Y138.8967
G01 X37.6259 Y138.9083
G01 X37.5904 Y138.9181
G01 X37.5677 Y138.9235
G01 X37.5316 Y138.9307
G01 X37.5086 Y138.9344
G01 X37.4721 Y138.9389
G01 X37.4537 Y138.9404
G01 X37.4304 Y138.9418
G01 X37.3936 Y138.9427
G01 X22.3936 Y138.9427
G01 X22.3568 Y138.9418
G01 X22.3335 Y138.9404
G01 X22.2969 Y138.9368
G01 X22.2556 Y138.9307
G01 X22.2195 Y138.9235
G01 X22.1791 Y138.9134
G01 X22.1439 Y138.9027
G01 X22.1046 Y138.8887
G01 X22.0706 Y138.8746
G01 X22.0328 Y138.8567
G01 X22.0004 Y138.8394
G01 X21.9646 Y138.8179
G01 X21.9340 Y138.7975
G01 X21.9005 Y138.7726
G01 X21.8720 Y138.7493
G01 X21.8411 Y138.7213
G01 X21.8151 Y138.6952
G01 X21.7993 Y138.6781
G01 X21.7752 Y138.6502
G01 X21.7637 Y138.6359
G01 X21.7496 Y138.6173
G01 X21.7284 Y138.5872
G01 X21.7184 Y138.5717
G01 X21.7062 Y138.5519
G01 X21.6881 Y138.5198
G01 X21.6715 Y138.4869
G01 X21.6618 Y138.4658
G01 X21.6545 Y138.4489
G01 X21.6477 Y138.4318
G01 X21.6396 Y138.4099
G01 X21.6281 Y138.3749
G01 X21.6229 Y138.3572
G01 X21.6170 Y138.3347
G01 X21.6090 Y138.2988
G01 X21.6056 Y138.2807
G01 X21.6020 Y138.2576
G01 X21.5975 Y138.2211
G01 X21.5959 Y138.2028
G01 X21.5945 Y138.1795
G01 X21.5936 Y138.1427
G00 Z2.0000
M05
G00 Z2.0000
G00 Z15.00


