(G-CODE GENERATED BY FLATCAM v8.994 - www.flatcam.org - Version Date: 2020/11/7)

(Name: Beecounter-User_5.gbr_edit_iso_combined_ncc_cnc)
(Type: G-code from Geometry)
(Units: MM)

(Created on Monday, 16 December 2024 at 16:23)

(This preprocessor is the default preprocessor used by FlatCAM.)
(It is made to work with MACH3 compatible motion controllers.)

(TOOL DIAMETER: 1.5 mm)
(Feedrate_XY: 120.0 mm/min)
(Feedrate_Z: 60.0 mm/min)
(Feedrate rapids 1500.0 mm/min)

(Z_Cut: 0.0 mm)
(Z_Move: 2.0 mm)
(Z Start: None mm)
(Z End: 15.0 mm)
(X,Y End: None mm)
(Steps per circle: 64)
(Preprocessor Geometry: default)

(X range:    6.3800 ...   53.4000  mm)
(Y range:    9.5200 ...  136.3100  mm)

(Spindle Speed: 0.0 RPM)
G21
G90
G94

G01 F120.00

M5
G00 Z15.0000
G00 X0.0000 Y0.0000
T1
M6    
(MSG, Change to Tool Dia = 1.5000)
M0
G00 Z15.0000

M03
G01 F120.00
G00 X6.4700 Y9.8524
G01 F60.00
G01 Z0.0000
G01 F120.00
G01 X6.5344 Y9.8437
G01 X6.6112 Y9.8352
G01 X6.6883 Y9.8285
G01 X6.7654 Y9.8238
G01 X6.8427 Y9.8209
G01 X6.9200 Y9.8200
G01 X6.9973 Y9.8209
G01 X7.0746 Y9.8238
G01 X7.1517 Y9.8285
G01 X7.2288 Y9.8352
G01 X7.3056 Y9.8437
G01 X7.3700 Y9.8524
G00 Z2.0000
G00 X6.4700 Y10.7656
G01 F60.00
G01 Z0.0000
G01 F120.00
G01 X6.5353 Y10.7531
G01 X6.5899 Y10.7444
G01 X6.6446 Y10.7369
G01 X6.6995 Y10.7308
G01 X6.7545 Y10.7261
G01 X6.8096 Y10.7227
G01 X6.8648 Y10.7207
G01 X6.9200 Y10.7200
G01 X6.9752 Y10.7207
G01 X7.0304 Y10.7227
G01 X7.0855 Y10.7261
G01 X7.1405 Y10.7308
G01 X7.1954 Y10.7369
G01 X7.2501 Y10.7444
G01 X7.3047 Y10.7531
G01 X7.3700 Y10.7656
G00 Z2.0000
G00 X6.4700 Y11.6973
G01 F60.00
G01 Z0.0000
G01 F120.00
G01 X6.4965 Y11.6881
G01 X6.5281 Y11.6781
G01 X6.5599 Y11.6689
G01 X6.5920 Y11.6605
G01 X6.6242 Y11.6528
G01 X6.6566 Y11.6459
G01 X6.6892 Y11.6399
G01 X6.7219 Y11.6346
G01 X6.7547 Y11.6302
G01 X6.7877 Y11.6265
G01 X6.8207 Y11.6237
G01 X6.8538 Y11.6216
G01 X6.8869 Y11.6204
G01 X6.9200 Y11.6200
G01 X6.9531 Y11.6204
G01 X6.9862 Y11.6216
G01 X7.0193 Y11.6237
G01 X7.0523 Y11.6265
G01 X7.0853 Y11.6302
G01 X7.1181 Y11.6346
G01 X7.1508 Y11.6399
G01 X7.1834 Y11.6459
G01 X7.2158 Y11.6528
G01 X7.2480 Y11.6605
G01 X7.2801 Y11.6689
G01 X7.3119 Y11.6781
G01 X7.3435 Y11.6881
G01 X7.3700 Y11.6973
G00 Z2.0000
G00 X6.4700 Y12.9680
G01 F60.00
G01 Z0.0000
G01 F120.00
G01 X6.4705 Y12.9479
G01 X6.4722 Y12.9259
G01 X6.4749 Y12.9040
G01 X6.4786 Y12.8822
G01 X6.4835 Y12.8607
G01 X6.4894 Y12.8394
G01 X6.4963 Y12.8184
G01 X6.5043 Y12.7978
G01 X6.5132 Y12.7776
G01 X6.5231 Y12.7579
G01 X6.5340 Y12.7387
G01 X6.5458 Y12.7200
G01 X6.5586 Y12.7019
G01 X6.5721 Y12.6845
G01 X6.5866 Y12.6678
G01 X6.6018 Y12.6518
G01 X6.6178 Y12.6366
G01 X6.6345 Y12.6221
G01 X6.6519 Y12.6086
G01 X6.6700 Y12.5958
G01 X6.6887 Y12.5840
G01 X6.7079 Y12.5731
G01 X6.7276 Y12.5632
G01 X6.7478 Y12.5543
G01 X6.7684 Y12.5463
G01 X6.7894 Y12.5394
G01 X6.8107 Y12.5335
G01 X6.8322 Y12.5286
G01 X6.8540 Y12.5249
G01 X6.8759 Y12.5222
G01 X6.8979 Y12.5205
G01 X6.9200 Y12.5200
G01 X6.9421 Y12.5205
G01 X6.9641 Y12.5222
G01 X6.9860 Y12.5249
G01 X7.0078 Y12.5286
G01 X7.0293 Y12.5335
G01 X7.0506 Y12.5394
G01 X7.0716 Y12.5463
G01 X7.0922 Y12.5543
G01 X7.1124 Y12.5632
G01 X7.1321 Y12.5731
G01 X7.1513 Y12.5840
G01 X7.1700 Y12.5958
G01 X7.1881 Y12.6086
G01 X7.2055 Y12.6221
G01 X7.2222 Y12.6366
G01 X7.2382 Y12.6518
G01 X7.2534 Y12.6678
G01 X7.2679 Y12.6845
G01 X7.2814 Y12.7019
G01 X7.2942 Y12.7200
G01 X7.3060 Y12.7387
G01 X7.3169 Y12.7579
G01 X7.3268 Y12.7776
G01 X7.3357 Y12.7978
G01 X7.3437 Y12.8184
G01 X7.3506 Y12.8394
G01 X7.3565 Y12.8607
G01 X7.3614 Y12.8822
G01 X7.3651 Y12.9040
G01 X7.3678 Y12.9259
G01 X7.3695 Y12.9479
G01 X7.3700 Y12.9680
G00 Z2.0000
G00 X6.4700 Y12.9720
G01 F60.00
G01 Z0.0000
G01 F120.00
G01 X6.4705 Y12.9921
G01 X6.4722 Y13.0141
G01 X6.4749 Y13.0360
G01 X6.4786 Y13.0578
G01 X6.4835 Y13.0793
G01 X6.4894 Y13.1006
G01 X6.4963 Y13.1216
G01 X6.5043 Y13.1422
G01 X6.5132 Y13.1624
G01 X6.5231 Y13.1821
G01 X6.5340 Y13.2013
G01 X6.5458 Y13.2200
G01 X6.5586 Y13.2381
G01 X6.5721 Y13.2555
G01 X6.5866 Y13.2722
G01 X6.6018 Y13.2882
G01 X6.6178 Y13.3034
G01 X6.6345 Y13.3179
G01 X6.6519 Y13.3314
G01 X6.6700 Y13.3442
G01 X6.6887 Y13.3560
G01 X6.7079 Y13.3669
G01 X6.7276 Y13.3768
G01 X6.7478 Y13.3857
G01 X6.7684 Y13.3937
G01 X6.7894 Y13.4006
G01 X6.8107 Y13.4065
G01 X6.8322 Y13.4114
G01 X6.8540 Y13.4151
G01 X6.8759 Y13.4178
G01 X6.8979 Y13.4195
G01 X6.9200 Y13.4200
G01 X6.9421 Y13.4195
G01 X6.9641 Y13.4178
G01 X6.9860 Y13.4151
G01 X7.0078 Y13.4114
G01 X7.0293 Y13.4065
G01 X7.0506 Y13.4006
G01 X7.0716 Y13.3937
G01 X7.0922 Y13.3857
G01 X7.1124 Y13.3768
G01 X7.1321 Y13.3669
G01 X7.1513 Y13.3560
G01 X7.1700 Y13.3442
G01 X7.1881 Y13.3314
G01 X7.2055 Y13.3179
G01 X7.2222 Y13.3034
G01 X7.2382 Y13.2882
G01 X7.2534 Y13.2722
G01 X7.2679 Y13.2555
G01 X7.2814 Y13.2381
G01 X7.2942 Y13.2200
G01 X7.3060 Y13.2013
G01 X7.3169 Y13.1821
G01 X7.3268 Y13.1624
G01 X7.3357 Y13.1422
G01 X7.3437 Y13.1216
G01 X7.3506 Y13.1006
G01 X7.3565 Y13.0793
G01 X7.3614 Y13.0578
G01 X7.3651 Y13.0360
G01 X7.3678 Y13.0141
G01 X7.3695 Y12.9921
G01 X7.3700 Y12.9720
G00 Z2.0000
G00 X7.3700 Y14.2427
G01 F60.00
G01 Z0.0000
G01 F120.00
G01 X7.3435 Y14.2519
G01 X7.3119 Y14.2619
G01 X7.2801 Y14.2711
G01 X7.2480 Y14.2795
G01 X7.2158 Y14.2872
G01 X7.1834 Y14.2941
G01 X7.1508 Y14.3001
G01 X7.1181 Y14.3054
G01 X7.0853 Y14.3098
G01 X7.0523 Y14.3135
G01 X7.0193 Y14.3163
G01 X6.9862 Y14.3184
G01 X6.9531 Y14.3196
G01 X6.9200 Y14.3200
G01 X6.8869 Y14.3196
G01 X6.8538 Y14.3184
G01 X6.8207 Y14.3163
G01 X6.7877 Y14.3135
G01 X6.7547 Y14.3098
G01 X6.7219 Y14.3054
G01 X6.6892 Y14.3001
G01 X6.6566 Y14.2941
G01 X6.6242 Y14.2872
G01 X6.5920 Y14.2795
G01 X6.5599 Y14.2711
G01 X6.5281 Y14.2619
G01 X6.4965 Y14.2519
G01 X6.4700 Y14.2427
G00 Z2.0000
G00 X7.3700 Y15.1744
G01 F60.00
G01 Z0.0000
G01 F120.00
G01 X7.3047 Y15.1869
G01 X7.2501 Y15.1956
G01 X7.1954 Y15.2031
G01 X7.1405 Y15.2092
G01 X7.0855 Y15.2139
G01 X7.0304 Y15.2173
G01 X6.9752 Y15.2193
G01 X6.9200 Y15.2200
G01 X6.8648 Y15.2193
G01 X6.8096 Y15.2173
G01 X6.7545 Y15.2139
G01 X6.6995 Y15.2092
G01 X6.6446 Y15.2031
G01 X6.5899 Y15.1956
G01 X6.5353 Y15.1869
G01 X6.4700 Y15.1744
G00 Z2.0000
G00 X7.3700 Y16.0876
G01 F60.00
G01 Z0.0000
G01 F120.00
G01 X7.3056 Y16.0963
G01 X7.2288 Y16.1048
G01 X7.1517 Y16.1115
G01 X7.0746 Y16.1162
G01 X6.9973 Y16.1191
G01 X6.9200 Y16.1200
G01 X6.8427 Y16.1191
G01 X6.7654 Y16.1162
G01 X6.6883 Y16.1115
G01 X6.6112 Y16.1048
G01 X6.5344 Y16.0963
G01 X6.4700 Y16.0876
G00 Z2.0000
G00 X6.4700 Y16.4200
G01 F60.00
G01 Z0.0000
G01 F120.00
G01 X7.3700 Y16.4200
G01 X7.3700 Y9.5200
G01 X6.4700 Y9.5200
G01 X6.4700 Y16.4200
G00 Z2.0000
G00 X6.5500 Y29.8824
G01 F60.00
G01 Z0.0000
G01 F120.00
G01 X6.6144 Y29.8737
G01 X6.6912 Y29.8652
G01 X6.7683 Y29.8585
G01 X6.8454 Y29.8538
G01 X6.9227 Y29.8509
G01 X7.0000 Y29.8500
G01 X7.0773 Y29.8509
G01 X7.1546 Y29.8538
G01 X7.2317 Y29.8585
G01 X7.3088 Y29.8652
G01 X7.3856 Y29.8737
G01 X7.4500 Y29.8824
G00 Z2.0000
G00 X6.5500 Y30.7956
G01 F60.00
G01 Z0.0000
G01 F120.00
G01 X6.6153 Y30.7831
G01 X6.6699 Y30.7744
G01 X6.7246 Y30.7669
G01 X6.7795 Y30.7608
G01 X6.8345 Y30.7561
G01 X6.8896 Y30.7527
G01 X6.9448 Y30.7507
G01 X7.0000 Y30.7500
G01 X7.0552 Y30.7507
G01 X7.1104 Y30.7527
G01 X7.1655 Y30.7561
G01 X7.2205 Y30.7608
G01 X7.2754 Y30.7669
G01 X7.3301 Y30.7744
G01 X7.3847 Y30.7831
G01 X7.4500 Y30.7956
G00 Z2.0000
G00 X6.5500 Y31.7273
G01 F60.00
G01 Z0.0000
G01 F120.00
G01 X6.5765 Y31.7181
G01 X6.6081 Y31.7081
G01 X6.6399 Y31.6989
G01 X6.6720 Y31.6905
G01 X6.7042 Y31.6828
G01 X6.7366 Y31.6759
G01 X6.7692 Y31.6699
G01 X6.8019 Y31.6646
G01 X6.8347 Y31.6602
G01 X6.8677 Y31.6565
G01 X6.9007 Y31.6537
G01 X6.9338 Y31.6516
G01 X6.9669 Y31.6504
G01 X7.0000 Y31.6500
G01 X7.0331 Y31.6504
G01 X7.0662 Y31.6516
G01 X7.0993 Y31.6537
G01 X7.1323 Y31.6565
G01 X7.1653 Y31.6602
G01 X7.1981 Y31.6646
G01 X7.2308 Y31.6699
G01 X7.2634 Y31.6759
G01 X7.2958 Y31.6828
G01 X7.3280 Y31.6905
G01 X7.3601 Y31.6989
G01 X7.3919 Y31.7081
G01 X7.4235 Y31.7181
G01 X7.4500 Y31.7273
G00 Z2.0000
G00 X6.5500 Y32.9980
G01 F60.00
G01 Z0.0000
G01 F120.00
G01 X6.5505 Y32.9779
G01 X6.5522 Y32.9559
G01 X6.5549 Y32.9340
G01 X6.5586 Y32.9122
G01 X6.5635 Y32.8907
G01 X6.5694 Y32.8694
G01 X6.5763 Y32.8484
G01 X6.5843 Y32.8278
G01 X6.5932 Y32.8076
G01 X6.6031 Y32.7879
G01 X6.6140 Y32.7687
G01 X6.6258 Y32.7500
G01 X6.6386 Y32.7319
G01 X6.6521 Y32.7145
G01 X6.6666 Y32.6978
G01 X6.6818 Y32.6818
G01 X6.6978 Y32.6666
G01 X6.7145 Y32.6521
G01 X6.7319 Y32.6386
G01 X6.7500 Y32.6258
G01 X6.7687 Y32.6140
G01 X6.7879 Y32.6031
G01 X6.8076 Y32.5932
G01 X6.8278 Y32.5843
G01 X6.8484 Y32.5763
G01 X6.8694 Y32.5694
G01 X6.8907 Y32.5635
G01 X6.9122 Y32.5586
G01 X6.9340 Y32.5549
G01 X6.9559 Y32.5522
G01 X6.9779 Y32.5505
G01 X7.0000 Y32.5500
G01 X7.0221 Y32.5505
G01 X7.0441 Y32.5522
G01 X7.0660 Y32.5549
G01 X7.0878 Y32.5586
G01 X7.1093 Y32.5635
G01 X7.1306 Y32.5694
G01 X7.1516 Y32.5763
G01 X7.1722 Y32.5843
G01 X7.1924 Y32.5932
G01 X7.2121 Y32.6031
G01 X7.2313 Y32.6140
G01 X7.2500 Y32.6258
G01 X7.2681 Y32.6386
G01 X7.2855 Y32.6521
G01 X7.3022 Y32.6666
G01 X7.3182 Y32.6818
G01 X7.3334 Y32.6978
G01 X7.3479 Y32.7145
G01 X7.3614 Y32.7319
G01 X7.3742 Y32.7500
G01 X7.3860 Y32.7687
G01 X7.3969 Y32.7879
G01 X7.4068 Y32.8076
G01 X7.4157 Y32.8278
G01 X7.4237 Y32.8484
G01 X7.4306 Y32.8694
G01 X7.4365 Y32.8907
G01 X7.4414 Y32.9122
G01 X7.4451 Y32.9340
G01 X7.4478 Y32.9559
G01 X7.4495 Y32.9779
G01 X7.4500 Y32.9980
G00 Z2.0000
G00 X6.5500 Y33.0020
G01 F60.00
G01 Z0.0000
G01 F120.00
G01 X6.5505 Y33.0221
G01 X6.5522 Y33.0441
G01 X6.5549 Y33.0660
G01 X6.5586 Y33.0878
G01 X6.5635 Y33.1093
G01 X6.5694 Y33.1306
G01 X6.5763 Y33.1516
G01 X6.5843 Y33.1722
G01 X6.5932 Y33.1924
G01 X6.6031 Y33.2121
G01 X6.6140 Y33.2313
G01 X6.6258 Y33.2500
G01 X6.6386 Y33.2681
G01 X6.6521 Y33.2855
G01 X6.6666 Y33.3022
G01 X6.6818 Y33.3182
G01 X6.6978 Y33.3334
G01 X6.7145 Y33.3479
G01 X6.7319 Y33.3614
G01 X6.7500 Y33.3742
G01 X6.7687 Y33.3860
G01 X6.7879 Y33.3969
G01 X6.8076 Y33.4068
G01 X6.8278 Y33.4157
G01 X6.8484 Y33.4237
G01 X6.8694 Y33.4306
G01 X6.8907 Y33.4365
G01 X6.9122 Y33.4414
G01 X6.9340 Y33.4451
G01 X6.9559 Y33.4478
G01 X6.9779 Y33.4495
G01 X7.0000 Y33.4500
G01 X7.0221 Y33.4495
G01 X7.0441 Y33.4478
G01 X7.0660 Y33.4451
G01 X7.0878 Y33.4414
G01 X7.1093 Y33.4365
G01 X7.1306 Y33.4306
G01 X7.1516 Y33.4237
G01 X7.1722 Y33.4157
G01 X7.1924 Y33.4068
G01 X7.2121 Y33.3969
G01 X7.2313 Y33.3860
G01 X7.2500 Y33.3742
G01 X7.2681 Y33.3614
G01 X7.2855 Y33.3479
G01 X7.3022 Y33.3334
G01 X7.3182 Y33.3182
G01 X7.3334 Y33.3022
G01 X7.3479 Y33.2855
G01 X7.3614 Y33.2681
G01 X7.3742 Y33.2500
G01 X7.3860 Y33.2313
G01 X7.3969 Y33.2121
G01 X7.4068 Y33.1924
G01 X7.4157 Y33.1722
G01 X7.4237 Y33.1516
G01 X7.4306 Y33.1306
G01 X7.4365 Y33.1093
G01 X7.4414 Y33.0878
G01 X7.4451 Y33.0660
G01 X7.4478 Y33.0441
G01 X7.4495 Y33.0221
G01 X7.4500 Y33.0020
G00 Z2.0000
G00 X7.4500 Y34.2727
G01 F60.00
G01 Z0.0000
G01 F120.00
G01 X7.4235 Y34.2819
G01 X7.3919 Y34.2919
G01 X7.3601 Y34.3011
G01 X7.3280 Y34.3095
G01 X7.2958 Y34.3172
G01 X7.2634 Y34.3241
G01 X7.2308 Y34.3301
G01 X7.1981 Y34.3354
G01 X7.1653 Y34.3398
G01 X7.1323 Y34.3435
G01 X7.0993 Y34.3463
G01 X7.0662 Y34.3484
G01 X7.0331 Y34.3496
G01 X7.0000 Y34.3500
G01 X6.9669 Y34.3496
G01 X6.9338 Y34.3484
G01 X6.9007 Y34.3463
G01 X6.8677 Y34.3435
G01 X6.8347 Y34.3398
G01 X6.8019 Y34.3354
G01 X6.7692 Y34.3301
G01 X6.7366 Y34.3241
G01 X6.7042 Y34.3172
G01 X6.6720 Y34.3095
G01 X6.6399 Y34.3011
G01 X6.6081 Y34.2919
G01 X6.5765 Y34.2819
G01 X6.5500 Y34.2727
G00 Z2.0000
G00 X7.4500 Y35.2044
G01 F60.00
G01 Z0.0000
G01 F120.00
G01 X7.3847 Y35.2169
G01 X7.3301 Y35.2256
G01 X7.2754 Y35.2331
G01 X7.2205 Y35.2392
G01 X7.1655 Y35.2439
G01 X7.1104 Y35.2473
G01 X7.0552 Y35.2493
G01 X7.0000 Y35.2500
G01 X6.9448 Y35.2493
G01 X6.8896 Y35.2473
G01 X6.8345 Y35.2439
G01 X6.7795 Y35.2392
G01 X6.7246 Y35.2331
G01 X6.6699 Y35.2256
G01 X6.6153 Y35.2169
G01 X6.5500 Y35.2044
G00 Z2.0000
G00 X7.4500 Y36.1176
G01 F60.00
G01 Z0.0000
G01 F120.00
G01 X7.3856 Y36.1263
G01 X7.3088 Y36.1348
G01 X7.2317 Y36.1415
G01 X7.1546 Y36.1462
G01 X7.0773 Y36.1491
G01 X7.0000 Y36.1500
G01 X6.9227 Y36.1491
G01 X6.8454 Y36.1462
G01 X6.7683 Y36.1415
G01 X6.6912 Y36.1348
G01 X6.6144 Y36.1263
G01 X6.5500 Y36.1176
G00 Z2.0000
G00 X6.5500 Y36.4500
G01 F60.00
G01 Z0.0000
G01 F120.00
G01 X7.4500 Y36.4500
G01 X7.4500 Y29.5500
G01 X6.5500 Y29.5500
G01 X6.5500 Y36.4500
G00 Z2.0000
G00 X6.5500 Y49.6824
G01 F60.00
G01 Z0.0000
G01 F120.00
G01 X6.6144 Y49.6737
G01 X6.6912 Y49.6652
G01 X6.7683 Y49.6585
G01 X6.8454 Y49.6538
G01 X6.9227 Y49.6509
G01 X7.0000 Y49.6500
G01 X7.0773 Y49.6509
G01 X7.1546 Y49.6538
G01 X7.2317 Y49.6585
G01 X7.3088 Y49.6652
G01 X7.3856 Y49.6737
G01 X7.4500 Y49.6824
G00 Z2.0000
G00 X6.5500 Y50.5956
G01 F60.00
G01 Z0.0000
G01 F120.00
G01 X6.6153 Y50.5831
G01 X6.6699 Y50.5744
G01 X6.7246 Y50.5669
G01 X6.7795 Y50.5608
G01 X6.8345 Y50.5561
G01 X6.8896 Y50.5527
G01 X6.9448 Y50.5507
G01 X7.0000 Y50.5500
G01 X7.0552 Y50.5507
G01 X7.1104 Y50.5527
G01 X7.1655 Y50.5561
G01 X7.2205 Y50.5608
G01 X7.2754 Y50.5669
G01 X7.3301 Y50.5744
G01 X7.3847 Y50.5831
G01 X7.4500 Y50.5956
G00 Z2.0000
G00 X6.5500 Y51.5273
G01 F60.00
G01 Z0.0000
G01 F120.00
G01 X6.5765 Y51.5181
G01 X6.6081 Y51.5081
G01 X6.6399 Y51.4989
G01 X6.6720 Y51.4905
G01 X6.7042 Y51.4828
G01 X6.7366 Y51.4759
G01 X6.7692 Y51.4699
G01 X6.8019 Y51.4646
G01 X6.8347 Y51.4602
G01 X6.8677 Y51.4565
G01 X6.9007 Y51.4537
G01 X6.9338 Y51.4516
G01 X6.9669 Y51.4504
G01 X7.0000 Y51.4500
G01 X7.0331 Y51.4504
G01 X7.0662 Y51.4516
G01 X7.0993 Y51.4537
G01 X7.1323 Y51.4565
G01 X7.1653 Y51.4602
G01 X7.1981 Y51.4646
G01 X7.2308 Y51.4699
G01 X7.2634 Y51.4759
G01 X7.2958 Y51.4828
G01 X7.3280 Y51.4905
G01 X7.3601 Y51.4989
G01 X7.3919 Y51.5081
G01 X7.4235 Y51.5181
G01 X7.4500 Y51.5273
G00 Z2.0000
G00 X6.5500 Y52.7980
G01 F60.00
G01 Z0.0000
G01 F120.00
G01 X6.5505 Y52.7779
G01 X6.5522 Y52.7559
G01 X6.5549 Y52.7340
G01 X6.5586 Y52.7122
G01 X6.5635 Y52.6907
G01 X6.5694 Y52.6694
G01 X6.5763 Y52.6484
G01 X6.5843 Y52.6278
G01 X6.5932 Y52.6076
G01 X6.6031 Y52.5879
G01 X6.6140 Y52.5687
G01 X6.6258 Y52.5500
G01 X6.6386 Y52.5319
G01 X6.6521 Y52.5145
G01 X6.6666 Y52.4978
G01 X6.6818 Y52.4818
G01 X6.6978 Y52.4666
G01 X6.7145 Y52.4521
G01 X6.7319 Y52.4386
G01 X6.7500 Y52.4258
G01 X6.7687 Y52.4140
G01 X6.7879 Y52.4031
G01 X6.8076 Y52.3932
G01 X6.8278 Y52.3843
G01 X6.8484 Y52.3763
G01 X6.8694 Y52.3694
G01 X6.8907 Y52.3635
G01 X6.9122 Y52.3586
G01 X6.9340 Y52.3549
G01 X6.9559 Y52.3522
G01 X6.9779 Y52.3505
G01 X7.0000 Y52.3500
G01 X7.0221 Y52.3505
G01 X7.0441 Y52.3522
G01 X7.0660 Y52.3549
G01 X7.0878 Y52.3586
G01 X7.1093 Y52.3635
G01 X7.1306 Y52.3694
G01 X7.1516 Y52.3763
G01 X7.1722 Y52.3843
G01 X7.1924 Y52.3932
G01 X7.2121 Y52.4031
G01 X7.2313 Y52.4140
G01 X7.2500 Y52.4258
G01 X7.2681 Y52.4386
G01 X7.2855 Y52.4521
G01 X7.3022 Y52.4666
G01 X7.3182 Y52.4818
G01 X7.3334 Y52.4978
G01 X7.3479 Y52.5145
G01 X7.3614 Y52.5319
G01 X7.3742 Y52.5500
G01 X7.3860 Y52.5687
G01 X7.3969 Y52.5879
G01 X7.4068 Y52.6076
G01 X7.4157 Y52.6278
G01 X7.4237 Y52.6484
G01 X7.4306 Y52.6694
G01 X7.4365 Y52.6907
G01 X7.4414 Y52.7122
G01 X7.4451 Y52.7340
G01 X7.4478 Y52.7559
G01 X7.4495 Y52.7779
G01 X7.4500 Y52.7980
G00 Z2.0000
G00 X6.5500 Y52.8020
G01 F60.00
G01 Z0.0000
G01 F120.00
G01 X6.5505 Y52.8221
G01 X6.5522 Y52.8441
G01 X6.5549 Y52.8660
G01 X6.5586 Y52.8878
G01 X6.5635 Y52.9093
G01 X6.5694 Y52.9306
G01 X6.5763 Y52.9516
G01 X6.5843 Y52.9722
G01 X6.5932 Y52.9924
G01 X6.6031 Y53.0121
G01 X6.6140 Y53.0313
G01 X6.6258 Y53.0500
G01 X6.6386 Y53.0681
G01 X6.6521 Y53.0855
G01 X6.6666 Y53.1022
G01 X6.6818 Y53.1182
G01 X6.6978 Y53.1334
G01 X6.7145 Y53.1479
G01 X6.7319 Y53.1614
G01 X6.7500 Y53.1742
G01 X6.7687 Y53.1860
G01 X6.7879 Y53.1969
G01 X6.8076 Y53.2068
G01 X6.8278 Y53.2157
G01 X6.8484 Y53.2237
G01 X6.8694 Y53.2306
G01 X6.8907 Y53.2365
G01 X6.9122 Y53.2414
G01 X6.9340 Y53.2451
G01 X6.9559 Y53.2478
G01 X6.9779 Y53.2495
G01 X7.0000 Y53.2500
G01 X7.0221 Y53.2495
G01 X7.0441 Y53.2478
G01 X7.0660 Y53.2451
G01 X7.0878 Y53.2414
G01 X7.1093 Y53.2365
G01 X7.1306 Y53.2306
G01 X7.1516 Y53.2237
G01 X7.1722 Y53.2157
G01 X7.1924 Y53.2068
G01 X7.2121 Y53.1969
G01 X7.2313 Y53.1860
G01 X7.2500 Y53.1742
G01 X7.2681 Y53.1614
G01 X7.2855 Y53.1479
G01 X7.3022 Y53.1334
G01 X7.3182 Y53.1182
G01 X7.3334 Y53.1022
G01 X7.3479 Y53.0855
G01 X7.3614 Y53.0681
G01 X7.3742 Y53.0500
G01 X7.3860 Y53.0313
G01 X7.3969 Y53.0121
G01 X7.4068 Y52.9924
G01 X7.4157 Y52.9722
G01 X7.4237 Y52.9516
G01 X7.4306 Y52.9306
G01 X7.4365 Y52.9093
G01 X7.4414 Y52.8878
G01 X7.4451 Y52.8660
G01 X7.4478 Y52.8441
G01 X7.4495 Y52.8221
G01 X7.4500 Y52.8020
G00 Z2.0000
G00 X7.4500 Y54.0727
G01 F60.00
G01 Z0.0000
G01 F120.00
G01 X7.4235 Y54.0819
G01 X7.3919 Y54.0919
G01 X7.3601 Y54.1011
G01 X7.3280 Y54.1095
G01 X7.2958 Y54.1172
G01 X7.2634 Y54.1241
G01 X7.2308 Y54.1301
G01 X7.1981 Y54.1354
G01 X7.1653 Y54.1398
G01 X7.1323 Y54.1435
G01 X7.0993 Y54.1463
G01 X7.0662 Y54.1484
G01 X7.0331 Y54.1496
G01 X7.0000 Y54.1500
G01 X6.9669 Y54.1496
G01 X6.9338 Y54.1484
G01 X6.9007 Y54.1463
G01 X6.8677 Y54.1435
G01 X6.8347 Y54.1398
G01 X6.8019 Y54.1354
G01 X6.7692 Y54.1301
G01 X6.7366 Y54.1241
G01 X6.7042 Y54.1172
G01 X6.6720 Y54.1095
G01 X6.6399 Y54.1011
G01 X6.6081 Y54.0919
G01 X6.5765 Y54.0819
G01 X6.5500 Y54.0727
G00 Z2.0000
G00 X7.4500 Y55.0044
G01 F60.00
G01 Z0.0000
G01 F120.00
G01 X7.3847 Y55.0169
G01 X7.3301 Y55.0256
G01 X7.2754 Y55.0331
G01 X7.2205 Y55.0392
G01 X7.1655 Y55.0439
G01 X7.1104 Y55.0473
G01 X7.0552 Y55.0493
G01 X7.0000 Y55.0500
G01 X6.9448 Y55.0493
G01 X6.8896 Y55.0473
G01 X6.8345 Y55.0439
G01 X6.7795 Y55.0392
G01 X6.7246 Y55.0331
G01 X6.6699 Y55.0256
G01 X6.6153 Y55.0169
G01 X6.5500 Y55.0044
G00 Z2.0000
G00 X7.4500 Y55.9176
G01 F60.00
G01 Z0.0000
G01 F120.00
G01 X7.3856 Y55.9263
G01 X7.3088 Y55.9348
G01 X7.2317 Y55.9415
G01 X7.1546 Y55.9462
G01 X7.0773 Y55.9491
G01 X7.0000 Y55.9500
G01 X6.9227 Y55.9491
G01 X6.8454 Y55.9462
G01 X6.7683 Y55.9415
G01 X6.6912 Y55.9348
G01 X6.6144 Y55.9263
G01 X6.5500 Y55.9176
G00 Z2.0000
G00 X6.5500 Y56.2500
G01 F60.00
G01 Z0.0000
G01 F120.00
G01 X7.4500 Y56.2500
G01 X7.4500 Y49.3500
G01 X6.5500 Y49.3500
G01 X6.5500 Y56.2500
G00 Z2.0000
G00 X6.6300 Y69.8824
G01 F60.00
G01 Z0.0000
G01 F120.00
G01 X6.6944 Y69.8737
G01 X6.7712 Y69.8652
G01 X6.8483 Y69.8585
G01 X6.9254 Y69.8538
G01 X7.0027 Y69.8509
G01 X7.0800 Y69.8500
G01 X7.1573 Y69.8509
G01 X7.2346 Y69.8538
G01 X7.3117 Y69.8585
G01 X7.3888 Y69.8652
G01 X7.4656 Y69.8737
G01 X7.5300 Y69.8824
G00 Z2.0000
G00 X6.6300 Y70.7956
G01 F60.00
G01 Z0.0000
G01 F120.00
G01 X6.6953 Y70.7831
G01 X6.7499 Y70.7744
G01 X6.8046 Y70.7669
G01 X6.8595 Y70.7608
G01 X6.9145 Y70.7561
G01 X6.9696 Y70.7527
G01 X7.0248 Y70.7507
G01 X7.0800 Y70.7500
G01 X7.1352 Y70.7507
G01 X7.1904 Y70.7527
G01 X7.2455 Y70.7561
G01 X7.3005 Y70.7608
G01 X7.3554 Y70.7669
G01 X7.4101 Y70.7744
G01 X7.4647 Y70.7831
G01 X7.5300 Y70.7956
G00 Z2.0000
G00 X6.6300 Y71.7273
G01 F60.00
G01 Z0.0000
G01 F120.00
G01 X6.6565 Y71.7181
G01 X6.6881 Y71.7081
G01 X6.7199 Y71.6989
G01 X6.7520 Y71.6905
G01 X6.7842 Y71.6828
G01 X6.8166 Y71.6759
G01 X6.8492 Y71.6699
G01 X6.8819 Y71.6646
G01 X6.9147 Y71.6602
G01 X6.9477 Y71.6565
G01 X6.9807 Y71.6537
G01 X7.0138 Y71.6516
G01 X7.0469 Y71.6504
G01 X7.0800 Y71.6500
G01 X7.1131 Y71.6504
G01 X7.1462 Y71.6516
G01 X7.1793 Y71.6537
G01 X7.2123 Y71.6565
G01 X7.2453 Y71.6602
G01 X7.2781 Y71.6646
G01 X7.3108 Y71.6699
G01 X7.3434 Y71.6759
G01 X7.3758 Y71.6828
G01 X7.4080 Y71.6905
G01 X7.4401 Y71.6989
G01 X7.4719 Y71.7081
G01 X7.5035 Y71.7181
G01 X7.5300 Y71.7273
G00 Z2.0000
G00 X6.6300 Y72.9980
G01 F60.00
G01 Z0.0000
G01 F120.00
G01 X6.6305 Y72.9779
G01 X6.6322 Y72.9559
G01 X6.6349 Y72.9340
G01 X6.6386 Y72.9122
G01 X6.6435 Y72.8907
G01 X6.6494 Y72.8694
G01 X6.6563 Y72.8484
G01 X6.6643 Y72.8278
G01 X6.6732 Y72.8076
G01 X6.6831 Y72.7879
G01 X6.6940 Y72.7687
G01 X6.7058 Y72.7500
G01 X6.7186 Y72.7319
G01 X6.7321 Y72.7145
G01 X6.7466 Y72.6978
G01 X6.7618 Y72.6818
G01 X6.7778 Y72.6666
G01 X6.7945 Y72.6521
G01 X6.8119 Y72.6386
G01 X6.8300 Y72.6258
G01 X6.8487 Y72.6140
G01 X6.8679 Y72.6031
G01 X6.8876 Y72.5932
G01 X6.9078 Y72.5843
G01 X6.9284 Y72.5763
G01 X6.9494 Y72.5694
G01 X6.9707 Y72.5635
G01 X6.9922 Y72.5586
G01 X7.0140 Y72.5549
G01 X7.0359 Y72.5522
G01 X7.0579 Y72.5505
G01 X7.0800 Y72.5500
G01 X7.1021 Y72.5505
G01 X7.1241 Y72.5522
G01 X7.1460 Y72.5549
G01 X7.1678 Y72.5586
G01 X7.1893 Y72.5635
G01 X7.2106 Y72.5694
G01 X7.2316 Y72.5763
G01 X7.2522 Y72.5843
G01 X7.2724 Y72.5932
G01 X7.2921 Y72.6031
G01 X7.3113 Y72.6140
G01 X7.3300 Y72.6258
G01 X7.3481 Y72.6386
G01 X7.3655 Y72.6521
G01 X7.3822 Y72.6666
G01 X7.3982 Y72.6818
G01 X7.4134 Y72.6978
G01 X7.4279 Y72.7145
G01 X7.4414 Y72.7319
G01 X7.4542 Y72.7500
G01 X7.4660 Y72.7687
G01 X7.4769 Y72.7879
G01 X7.4868 Y72.8076
G01 X7.4957 Y72.8278
G01 X7.5037 Y72.8484
G01 X7.5106 Y72.8694
G01 X7.5165 Y72.8907
G01 X7.5214 Y72.9122
G01 X7.5251 Y72.9340
G01 X7.5278 Y72.9559
G01 X7.5295 Y72.9779
G01 X7.5300 Y72.9980
G00 Z2.0000
G00 X6.6300 Y73.0020
G01 F60.00
G01 Z0.0000
G01 F120.00
G01 X6.6305 Y73.0221
G01 X6.6322 Y73.0441
G01 X6.6349 Y73.0660
G01 X6.6386 Y73.0878
G01 X6.6435 Y73.1093
G01 X6.6494 Y73.1306
G01 X6.6563 Y73.1516
G01 X6.6643 Y73.1722
G01 X6.6732 Y73.1924
G01 X6.6831 Y73.2121
G01 X6.6940 Y73.2313
G01 X6.7058 Y73.2500
G01 X6.7186 Y73.2681
G01 X6.7321 Y73.2855
G01 X6.7466 Y73.3022
G01 X6.7618 Y73.3182
G01 X6.7778 Y73.3334
G01 X6.7945 Y73.3479
G01 X6.8119 Y73.3614
G01 X6.8300 Y73.3742
G01 X6.8487 Y73.3860
G01 X6.8679 Y73.3969
G01 X6.8876 Y73.4068
G01 X6.9078 Y73.4157
G01 X6.9284 Y73.4237
G01 X6.9494 Y73.4306
G01 X6.9707 Y73.4365
G01 X6.9922 Y73.4414
G01 X7.0140 Y73.4451
G01 X7.0359 Y73.4478
G01 X7.0579 Y73.4495
G01 X7.0800 Y73.4500
G01 X7.1021 Y73.4495
G01 X7.1241 Y73.4478
G01 X7.1460 Y73.4451
G01 X7.1678 Y73.4414
G01 X7.1893 Y73.4365
G01 X7.2106 Y73.4306
G01 X7.2316 Y73.4237
G01 X7.2522 Y73.4157
G01 X7.2724 Y73.4068
G01 X7.2921 Y73.3969
G01 X7.3113 Y73.3860
G01 X7.3300 Y73.3742
G01 X7.3481 Y73.3614
G01 X7.3655 Y73.3479
G01 X7.3822 Y73.3334
G01 X7.3982 Y73.3182
G01 X7.4134 Y73.3022
G01 X7.4279 Y73.2855
G01 X7.4414 Y73.2681
G01 X7.4542 Y73.2500
G01 X7.4660 Y73.2313
G01 X7.4769 Y73.2121
G01 X7.4868 Y73.1924
G01 X7.4957 Y73.1722
G01 X7.5037 Y73.1516
G01 X7.5106 Y73.1306
G01 X7.5165 Y73.1093
G01 X7.5214 Y73.0878
G01 X7.5251 Y73.0660
G01 X7.5278 Y73.0441
G01 X7.5295 Y73.0221
G01 X7.5300 Y73.0020
G00 Z2.0000
G00 X7.5300 Y74.2727
G01 F60.00
G01 Z0.0000
G01 F120.00
G01 X7.5035 Y74.2819
G01 X7.4719 Y74.2919
G01 X7.4401 Y74.3011
G01 X7.4080 Y74.3095
G01 X7.3758 Y74.3172
G01 X7.3434 Y74.3241
G01 X7.3108 Y74.3301
G01 X7.2781 Y74.3354
G01 X7.2453 Y74.3398
G01 X7.2123 Y74.3435
G01 X7.1793 Y74.3463
G01 X7.1462 Y74.3484
G01 X7.1131 Y74.3496
G01 X7.0800 Y74.3500
G01 X7.0469 Y74.3496
G01 X7.0138 Y74.3484
G01 X6.9807 Y74.3463
G01 X6.9477 Y74.3435
G01 X6.9147 Y74.3398
G01 X6.8819 Y74.3354
G01 X6.8492 Y74.3301
G01 X6.8166 Y74.3241
G01 X6.7842 Y74.3172
G01 X6.7520 Y74.3095
G01 X6.7199 Y74.3011
G01 X6.6881 Y74.2919
G01 X6.6565 Y74.2819
G01 X6.6300 Y74.2727
G00 Z2.0000
G00 X7.5300 Y75.2044
G01 F60.00
G01 Z0.0000
G01 F120.00
G01 X7.4647 Y75.2169
G01 X7.4101 Y75.2256
G01 X7.3554 Y75.2331
G01 X7.3005 Y75.2392
G01 X7.2455 Y75.2439
G01 X7.1904 Y75.2473
G01 X7.1352 Y75.2493
G01 X7.0800 Y75.2500
G01 X7.0248 Y75.2493
G01 X6.9696 Y75.2473
G01 X6.9145 Y75.2439
G01 X6.8595 Y75.2392
G01 X6.8046 Y75.2331
G01 X6.7499 Y75.2256
G01 X6.6953 Y75.2169
G01 X6.6300 Y75.2044
G00 Z2.0000
G00 X7.5300 Y76.1176
G01 F60.00
G01 Z0.0000
G01 F120.00
G01 X7.4656 Y76.1263
G01 X7.3888 Y76.1348
G01 X7.3117 Y76.1415
G01 X7.2346 Y76.1462
G01 X7.1573 Y76.1491
G01 X7.0800 Y76.1500
G01 X7.0027 Y76.1491
G01 X6.9254 Y76.1462
G01 X6.8483 Y76.1415
G01 X6.7712 Y76.1348
G01 X6.6944 Y76.1263
G01 X6.6300 Y76.1176
G00 Z2.0000
G00 X6.6300 Y76.4500
G01 F60.00
G01 Z0.0000
G01 F120.00
G01 X7.5300 Y76.4500
G01 X7.5300 Y69.5500
G01 X6.6300 Y69.5500
G01 X6.6300 Y76.4500
G00 Z2.0000
G00 X6.5500 Y89.8424
G01 F60.00
G01 Z0.0000
G01 F120.00
G01 X6.6144 Y89.8337
G01 X6.6912 Y89.8252
G01 X6.7683 Y89.8185
G01 X6.8454 Y89.8138
G01 X6.9227 Y89.8109
G01 X7.0000 Y89.8100
G01 X7.0773 Y89.8109
G01 X7.1546 Y89.8138
G01 X7.2317 Y89.8185
G01 X7.3088 Y89.8252
G01 X7.3856 Y89.8337
G01 X7.4500 Y89.8424
G00 Z2.0000
G00 X6.5500 Y90.7556
G01 F60.00
G01 Z0.0000
G01 F120.00
G01 X6.6153 Y90.7431
G01 X6.6699 Y90.7344
G01 X6.7246 Y90.7269
G01 X6.7795 Y90.7208
G01 X6.8345 Y90.7161
G01 X6.8896 Y90.7127
G01 X6.9448 Y90.7107
G01 X7.0000 Y90.7100
G01 X7.0552 Y90.7107
G01 X7.1104 Y90.7127
G01 X7.1655 Y90.7161
G01 X7.2205 Y90.7208
G01 X7.2754 Y90.7269
G01 X7.3301 Y90.7344
G01 X7.3847 Y90.7431
G01 X7.4500 Y90.7556
G00 Z2.0000
G00 X6.5500 Y91.6873
G01 F60.00
G01 Z0.0000
G01 F120.00
G01 X6.5765 Y91.6781
G01 X6.6081 Y91.6681
G01 X6.6399 Y91.6589
G01 X6.6720 Y91.6505
G01 X6.7042 Y91.6428
G01 X6.7366 Y91.6359
G01 X6.7692 Y91.6299
G01 X6.8019 Y91.6246
G01 X6.8347 Y91.6202
G01 X6.8677 Y91.6165
G01 X6.9007 Y91.6137
G01 X6.9338 Y91.6116
G01 X6.9669 Y91.6104
G01 X7.0000 Y91.6100
G01 X7.0331 Y91.6104
G01 X7.0662 Y91.6116
G01 X7.0993 Y91.6137
G01 X7.1323 Y91.6165
G01 X7.1653 Y91.6202
G01 X7.1981 Y91.6246
G01 X7.2308 Y91.6299
G01 X7.2634 Y91.6359
G01 X7.2958 Y91.6428
G01 X7.3280 Y91.6505
G01 X7.3601 Y91.6589
G01 X7.3919 Y91.6681
G01 X7.4235 Y91.6781
G01 X7.4500 Y91.6873
G00 Z2.0000
G00 X6.5500 Y92.9580
G01 F60.00
G01 Z0.0000
G01 F120.00
G01 X6.5505 Y92.9379
G01 X6.5522 Y92.9159
G01 X6.5549 Y92.8940
G01 X6.5586 Y92.8722
G01 X6.5635 Y92.8507
G01 X6.5694 Y92.8294
G01 X6.5763 Y92.8084
G01 X6.5843 Y92.7878
G01 X6.5932 Y92.7676
G01 X6.6031 Y92.7479
G01 X6.6140 Y92.7287
G01 X6.6258 Y92.7100
G01 X6.6386 Y92.6919
G01 X6.6521 Y92.6745
G01 X6.6666 Y92.6578
G01 X6.6818 Y92.6418
G01 X6.6978 Y92.6266
G01 X6.7145 Y92.6121
G01 X6.7319 Y92.5986
G01 X6.7500 Y92.5858
G01 X6.7687 Y92.5740
G01 X6.7879 Y92.5631
G01 X6.8076 Y92.5532
G01 X6.8278 Y92.5443
G01 X6.8484 Y92.5363
G01 X6.8694 Y92.5294
G01 X6.8907 Y92.5235
G01 X6.9122 Y92.5186
G01 X6.9340 Y92.5149
G01 X6.9559 Y92.5122
G01 X6.9779 Y92.5105
G01 X7.0000 Y92.5100
G01 X7.0221 Y92.5105
G01 X7.0441 Y92.5122
G01 X7.0660 Y92.5149
G01 X7.0878 Y92.5186
G01 X7.1093 Y92.5235
G01 X7.1306 Y92.5294
G01 X7.1516 Y92.5363
G01 X7.1722 Y92.5443
G01 X7.1924 Y92.5532
G01 X7.2121 Y92.5631
G01 X7.2313 Y92.5740
G01 X7.2500 Y92.5858
G01 X7.2681 Y92.5986
G01 X7.2855 Y92.6121
G01 X7.3022 Y92.6266
G01 X7.3182 Y92.6418
G01 X7.3334 Y92.6578
G01 X7.3479 Y92.6745
G01 X7.3614 Y92.6919
G01 X7.3742 Y92.7100
G01 X7.3860 Y92.7287
G01 X7.3969 Y92.7479
G01 X7.4068 Y92.7676
G01 X7.4157 Y92.7878
G01 X7.4237 Y92.8084
G01 X7.4306 Y92.8294
G01 X7.4365 Y92.8507
G01 X7.4414 Y92.8722
G01 X7.4451 Y92.8940
G01 X7.4478 Y92.9159
G01 X7.4495 Y92.9379
G01 X7.4500 Y92.9580
G00 Z2.0000
G00 X6.5500 Y92.9620
G01 F60.00
G01 Z0.0000
G01 F120.00
G01 X6.5505 Y92.9821
G01 X6.5522 Y93.0041
G01 X6.5549 Y93.0260
G01 X6.5586 Y93.0478
G01 X6.5635 Y93.0693
G01 X6.5694 Y93.0906
G01 X6.5763 Y93.1116
G01 X6.5843 Y93.1322
G01 X6.5932 Y93.1524
G01 X6.6031 Y93.1721
G01 X6.6140 Y93.1913
G01 X6.6258 Y93.2100
G01 X6.6386 Y93.2281
G01 X6.6521 Y93.2455
G01 X6.6666 Y93.2622
G01 X6.6818 Y93.2782
G01 X6.6978 Y93.2934
G01 X6.7145 Y93.3079
G01 X6.7319 Y93.3214
G01 X6.7500 Y93.3342
G01 X6.7687 Y93.3460
G01 X6.7879 Y93.3569
G01 X6.8076 Y93.3668
G01 X6.8278 Y93.3757
G01 X6.8484 Y93.3837
G01 X6.8694 Y93.3906
G01 X6.8907 Y93.3965
G01 X6.9122 Y93.4014
G01 X6.9340 Y93.4051
G01 X6.9559 Y93.4078
G01 X6.9779 Y93.4095
G01 X7.0000 Y93.4100
G01 X7.0221 Y93.4095
G01 X7.0441 Y93.4078
G01 X7.0660 Y93.4051
G01 X7.0878 Y93.4014
G01 X7.1093 Y93.3965
G01 X7.1306 Y93.3906
G01 X7.1516 Y93.3837
G01 X7.1722 Y93.3757
G01 X7.1924 Y93.3668
G01 X7.2121 Y93.3569
G01 X7.2313 Y93.3460
G01 X7.2500 Y93.3342
G01 X7.2681 Y93.3214
G01 X7.2855 Y93.3079
G01 X7.3022 Y93.2934
G01 X7.3182 Y93.2782
G01 X7.3334 Y93.2622
G01 X7.3479 Y93.2455
G01 X7.3614 Y93.2281
G01 X7.3742 Y93.2100
G01 X7.3860 Y93.1913
G01 X7.3969 Y93.1721
G01 X7.4068 Y93.1524
G01 X7.4157 Y93.1322
G01 X7.4237 Y93.1116
G01 X7.4306 Y93.0906
G01 X7.4365 Y93.0693
G01 X7.4414 Y93.0478
G01 X7.4451 Y93.0260
G01 X7.4478 Y93.0041
G01 X7.4495 Y92.9821
G01 X7.4500 Y92.9620
G00 Z2.0000
G00 X7.4500 Y94.2327
G01 F60.00
G01 Z0.0000
G01 F120.00
G01 X7.4235 Y94.2419
G01 X7.3919 Y94.2519
G01 X7.3601 Y94.2611
G01 X7.3280 Y94.2695
G01 X7.2958 Y94.2772
G01 X7.2634 Y94.2841
G01 X7.2308 Y94.2901
G01 X7.1981 Y94.2954
G01 X7.1653 Y94.2998
G01 X7.1323 Y94.3035
G01 X7.0993 Y94.3063
G01 X7.0662 Y94.3084
G01 X7.0331 Y94.3096
G01 X7.0000 Y94.3100
G01 X6.9669 Y94.3096
G01 X6.9338 Y94.3084
G01 X6.9007 Y94.3063
G01 X6.8677 Y94.3035
G01 X6.8347 Y94.2998
G01 X6.8019 Y94.2954
G01 X6.7692 Y94.2901
G01 X6.7366 Y94.2841
G01 X6.7042 Y94.2772
G01 X6.6720 Y94.2695
G01 X6.6399 Y94.2611
G01 X6.6081 Y94.2519
G01 X6.5765 Y94.2419
G01 X6.5500 Y94.2327
G00 Z2.0000
G00 X7.4500 Y95.1644
G01 F60.00
G01 Z0.0000
G01 F120.00
G01 X7.3847 Y95.1769
G01 X7.3301 Y95.1856
G01 X7.2754 Y95.1931
G01 X7.2205 Y95.1992
G01 X7.1655 Y95.2039
G01 X7.1104 Y95.2073
G01 X7.0552 Y95.2093
G01 X7.0000 Y95.2100
G01 X6.9448 Y95.2093
G01 X6.8896 Y95.2073
G01 X6.8345 Y95.2039
G01 X6.7795 Y95.1992
G01 X6.7246 Y95.1931
G01 X6.6699 Y95.1856
G01 X6.6153 Y95.1769
G01 X6.5500 Y95.1644
G00 Z2.0000
G00 X7.4500 Y96.0776
G01 F60.00
G01 Z0.0000
G01 F120.00
G01 X7.3856 Y96.0863
G01 X7.3088 Y96.0948
G01 X7.2317 Y96.1015
G01 X7.1546 Y96.1062
G01 X7.0773 Y96.1091
G01 X7.0000 Y96.1100
G01 X6.9227 Y96.1091
G01 X6.8454 Y96.1062
G01 X6.7683 Y96.1015
G01 X6.6912 Y96.0948
G01 X6.6144 Y96.0863
G01 X6.5500 Y96.0776
G00 Z2.0000
G00 X6.5500 Y96.4100
G01 F60.00
G01 Z0.0000
G01 F120.00
G01 X7.4500 Y96.4100
G01 X7.4500 Y89.5100
G01 X6.5500 Y89.5100
G01 X6.5500 Y96.4100
G00 Z2.0000
G00 X6.4600 Y109.8824
G01 F60.00
G01 Z0.0000
G01 F120.00
G01 X6.5244 Y109.8737
G01 X6.6012 Y109.8652
G01 X6.6783 Y109.8585
G01 X6.7554 Y109.8538
G01 X6.8327 Y109.8509
G01 X6.9100 Y109.8500
G01 X6.9873 Y109.8509
G01 X7.0646 Y109.8538
G01 X7.1417 Y109.8585
G01 X7.2188 Y109.8652
G01 X7.2956 Y109.8737
G01 X7.3600 Y109.8824
G00 Z2.0000
G00 X6.4600 Y110.7956
G01 F60.00
G01 Z0.0000
G01 F120.00
G01 X6.5253 Y110.7831
G01 X6.5799 Y110.7744
G01 X6.6346 Y110.7669
G01 X6.6895 Y110.7608
G01 X6.7445 Y110.7561
G01 X6.7996 Y110.7527
G01 X6.8548 Y110.7507
G01 X6.9100 Y110.7500
G01 X6.9652 Y110.7507
G01 X7.0204 Y110.7527
G01 X7.0755 Y110.7561
G01 X7.1305 Y110.7608
G01 X7.1854 Y110.7669
G01 X7.2401 Y110.7744
G01 X7.2947 Y110.7831
G01 X7.3600 Y110.7956
G00 Z2.0000
G00 X6.4600 Y111.7273
G01 F60.00
G01 Z0.0000
G01 F120.00
G01 X6.4865 Y111.7181
G01 X6.5181 Y111.7081
G01 X6.5499 Y111.6989
G01 X6.5820 Y111.6905
G01 X6.6142 Y111.6828
G01 X6.6466 Y111.6759
G01 X6.6792 Y111.6699
G01 X6.7119 Y111.6646
G01 X6.7447 Y111.6602
G01 X6.7777 Y111.6565
G01 X6.8107 Y111.6537
G01 X6.8438 Y111.6516
G01 X6.8769 Y111.6504
G01 X6.9100 Y111.6500
G01 X6.9431 Y111.6504
G01 X6.9762 Y111.6516
G01 X7.0093 Y111.6537
G01 X7.0423 Y111.6565
G01 X7.0753 Y111.6602
G01 X7.1081 Y111.6646
G01 X7.1408 Y111.6699
G01 X7.1734 Y111.6759
G01 X7.2058 Y111.6828
G01 X7.2380 Y111.6905
G01 X7.2701 Y111.6989
G01 X7.3019 Y111.7081
G01 X7.3335 Y111.7181
G01 X7.3600 Y111.7273
G00 Z2.0000
G00 X6.4600 Y112.9980
G01 F60.00
G01 Z0.0000
G01 F120.00
G01 X6.4605 Y112.9779
G01 X6.4622 Y112.9559
G01 X6.4649 Y112.9340
G01 X6.4686 Y112.9122
G01 X6.4735 Y112.8907
G01 X6.4794 Y112.8694
G01 X6.4863 Y112.8484
G01 X6.4943 Y112.8278
G01 X6.5032 Y112.8076
G01 X6.5131 Y112.7879
G01 X6.5240 Y112.7687
G01 X6.5358 Y112.7500
G01 X6.5486 Y112.7319
G01 X6.5621 Y112.7145
G01 X6.5766 Y112.6978
G01 X6.5918 Y112.6818
G01 X6.6078 Y112.6666
G01 X6.6245 Y112.6521
G01 X6.6419 Y112.6386
G01 X6.6600 Y112.6258
G01 X6.6787 Y112.6140
G01 X6.6979 Y112.6031
G01 X6.7176 Y112.5932
G01 X6.7378 Y112.5843
G01 X6.7584 Y112.5763
G01 X6.7794 Y112.5694
G01 X6.8007 Y112.5635
G01 X6.8222 Y112.5586
G01 X6.8440 Y112.5549
G01 X6.8659 Y112.5522
G01 X6.8879 Y112.5505
G01 X6.9100 Y112.5500
G01 X6.9321 Y112.5505
G01 X6.9541 Y112.5522
G01 X6.9760 Y112.5549
G01 X6.9978 Y112.5586
G01 X7.0193 Y112.5635
G01 X7.0406 Y112.5694
G01 X7.0616 Y112.5763
G01 X7.0822 Y112.5843
G01 X7.1024 Y112.5932
G01 X7.1221 Y112.6031
G01 X7.1413 Y112.6140
G01 X7.1600 Y112.6258
G01 X7.1781 Y112.6386
G01 X7.1955 Y112.6521
G01 X7.2122 Y112.6666
G01 X7.2282 Y112.6818
G01 X7.2434 Y112.6978
G01 X7.2579 Y112.7145
G01 X7.2714 Y112.7319
G01 X7.2842 Y112.7500
G01 X7.2960 Y112.7687
G01 X7.3069 Y112.7879
G01 X7.3168 Y112.8076
G01 X7.3257 Y112.8278
G01 X7.3337 Y112.8484
G01 X7.3406 Y112.8694
G01 X7.3465 Y112.8907
G01 X7.3514 Y112.9122
G01 X7.3551 Y112.9340
G01 X7.3578 Y112.9559
G01 X7.3595 Y112.9779
G01 X7.3600 Y112.9980
G00 Z2.0000
G00 X6.4600 Y113.0020
G01 F60.00
G01 Z0.0000
G01 F120.00
G01 X6.4605 Y113.0221
G01 X6.4622 Y113.0441
G01 X6.4649 Y113.0660
G01 X6.4686 Y113.0878
G01 X6.4735 Y113.1093
G01 X6.4794 Y113.1306
G01 X6.4863 Y113.1516
G01 X6.4943 Y113.1722
G01 X6.5032 Y113.1924
G01 X6.5131 Y113.2121
G01 X6.5240 Y113.2313
G01 X6.5358 Y113.2500
G01 X6.5486 Y113.2681
G01 X6.5621 Y113.2855
G01 X6.5766 Y113.3022
G01 X6.5918 Y113.3182
G01 X6.6078 Y113.3334
G01 X6.6245 Y113.3479
G01 X6.6419 Y113.3614
G01 X6.6600 Y113.3742
G01 X6.6787 Y113.3860
G01 X6.6979 Y113.3969
G01 X6.7176 Y113.4068
G01 X6.7378 Y113.4157
G01 X6.7584 Y113.4237
G01 X6.7794 Y113.4306
G01 X6.8007 Y113.4365
G01 X6.8222 Y113.4414
G01 X6.8440 Y113.4451
G01 X6.8659 Y113.4478
G01 X6.8879 Y113.4495
G01 X6.9100 Y113.4500
G01 X6.9321 Y113.4495
G01 X6.9541 Y113.4478
G01 X6.9760 Y113.4451
G01 X6.9978 Y113.4414
G01 X7.0193 Y113.4365
G01 X7.0406 Y113.4306
G01 X7.0616 Y113.4237
G01 X7.0822 Y113.4157
G01 X7.1024 Y113.4068
G01 X7.1221 Y113.3969
G01 X7.1413 Y113.3860
G01 X7.1600 Y113.3742
G01 X7.1781 Y113.3614
G01 X7.1955 Y113.3479
G01 X7.2122 Y113.3334
G01 X7.2282 Y113.3182
G01 X7.2434 Y113.3022
G01 X7.2579 Y113.2855
G01 X7.2714 Y113.2681
G01 X7.2842 Y113.2500
G01 X7.2960 Y113.2313
G01 X7.3069 Y113.2121
G01 X7.3168 Y113.1924
G01 X7.3257 Y113.1722
G01 X7.3337 Y113.1516
G01 X7.3406 Y113.1306
G01 X7.3465 Y113.1093
G01 X7.3514 Y113.0878
G01 X7.3551 Y113.0660
G01 X7.3578 Y113.0441
G01 X7.3595 Y113.0221
G01 X7.3600 Y113.0020
G00 Z2.0000
G00 X7.3600 Y114.2727
G01 F60.00
G01 Z0.0000
G01 F120.00
G01 X7.3335 Y114.2819
G01 X7.3019 Y114.2919
G01 X7.2701 Y114.3011
G01 X7.2380 Y114.3095
G01 X7.2058 Y114.3172
G01 X7.1734 Y114.3241
G01 X7.1408 Y114.3301
G01 X7.1081 Y114.3354
G01 X7.0753 Y114.3398
G01 X7.0423 Y114.3435
G01 X7.0093 Y114.3463
G01 X6.9762 Y114.3484
G01 X6.9431 Y114.3496
G01 X6.9100 Y114.3500
G01 X6.8769 Y114.3496
G01 X6.8438 Y114.3484
G01 X6.8107 Y114.3463
G01 X6.7777 Y114.3435
G01 X6.7447 Y114.3398
G01 X6.7119 Y114.3354
G01 X6.6792 Y114.3301
G01 X6.6466 Y114.3241
G01 X6.6142 Y114.3172
G01 X6.5820 Y114.3095
G01 X6.5499 Y114.3011
G01 X6.5181 Y114.2919
G01 X6.4865 Y114.2819
G01 X6.4600 Y114.2727
G00 Z2.0000
G00 X7.3600 Y115.2044
G01 F60.00
G01 Z0.0000
G01 F120.00
G01 X7.2947 Y115.2169
G01 X7.2401 Y115.2256
G01 X7.1854 Y115.2331
G01 X7.1305 Y115.2392
G01 X7.0755 Y115.2439
G01 X7.0204 Y115.2473
G01 X6.9652 Y115.2493
G01 X6.9100 Y115.2500
G01 X6.8548 Y115.2493
G01 X6.7996 Y115.2473
G01 X6.7445 Y115.2439
G01 X6.6895 Y115.2392
G01 X6.6346 Y115.2331
G01 X6.5799 Y115.2256
G01 X6.5253 Y115.2169
G01 X6.4600 Y115.2044
G00 Z2.0000
G00 X7.3600 Y116.1176
G01 F60.00
G01 Z0.0000
G01 F120.00
G01 X7.2956 Y116.1263
G01 X7.2188 Y116.1348
G01 X7.1417 Y116.1415
G01 X7.0646 Y116.1462
G01 X6.9873 Y116.1491
G01 X6.9100 Y116.1500
G01 X6.8327 Y116.1491
G01 X6.7554 Y116.1462
G01 X6.6783 Y116.1415
G01 X6.6012 Y116.1348
G01 X6.5244 Y116.1263
G01 X6.4600 Y116.1176
G00 Z2.0000
G00 X6.4600 Y116.4500
G01 F60.00
G01 Z0.0000
G01 F120.00
G01 X7.3600 Y116.4500
G01 X7.3600 Y109.5500
G01 X6.4600 Y109.5500
G01 X6.4600 Y116.4500
G00 Z2.0000
G00 X6.3800 Y129.7424
G01 F60.00
G01 Z0.0000
G01 F120.00
G01 X6.4444 Y129.7337
G01 X6.5212 Y129.7252
G01 X6.5983 Y129.7185
G01 X6.6754 Y129.7138
G01 X6.7527 Y129.7109
G01 X6.8300 Y129.7100
G01 X6.9073 Y129.7109
G01 X6.9846 Y129.7138
G01 X7.0617 Y129.7185
G01 X7.1388 Y129.7252
G01 X7.2156 Y129.7337
G01 X7.2800 Y129.7424
G00 Z2.0000
G00 X6.3800 Y130.6556
G01 F60.00
G01 Z0.0000
G01 F120.00
G01 X6.4453 Y130.6431
G01 X6.4999 Y130.6344
G01 X6.5546 Y130.6269
G01 X6.6095 Y130.6208
G01 X6.6645 Y130.6161
G01 X6.7196 Y130.6127
G01 X6.7748 Y130.6107
G01 X6.8300 Y130.6100
G01 X6.8852 Y130.6107
G01 X6.9404 Y130.6127
G01 X6.9955 Y130.6161
G01 X7.0505 Y130.6208
G01 X7.1054 Y130.6269
G01 X7.1601 Y130.6344
G01 X7.2147 Y130.6431
G01 X7.2800 Y130.6556
G00 Z2.0000
G00 X6.3800 Y131.5873
G01 F60.00
G01 Z0.0000
G01 F120.00
G01 X6.4065 Y131.5781
G01 X6.4381 Y131.5681
G01 X6.4699 Y131.5589
G01 X6.5020 Y131.5505
G01 X6.5342 Y131.5428
G01 X6.5666 Y131.5359
G01 X6.5992 Y131.5299
G01 X6.6319 Y131.5246
G01 X6.6647 Y131.5202
G01 X6.6977 Y131.5165
G01 X6.7307 Y131.5137
G01 X6.7638 Y131.5116
G01 X6.7969 Y131.5104
G01 X6.8300 Y131.5100
G01 X6.8631 Y131.5104
G01 X6.8962 Y131.5116
G01 X6.9293 Y131.5137
G01 X6.9623 Y131.5165
G01 X6.9953 Y131.5202
G01 X7.0281 Y131.5246
G01 X7.0608 Y131.5299
G01 X7.0934 Y131.5359
G01 X7.1258 Y131.5428
G01 X7.1580 Y131.5505
G01 X7.1901 Y131.5589
G01 X7.2219 Y131.5681
G01 X7.2535 Y131.5781
G01 X7.2800 Y131.5873
G00 Z2.0000
G00 X6.3800 Y132.8580
G01 F60.00
G01 Z0.0000
G01 F120.00
G01 X6.3805 Y132.8379
G01 X6.3822 Y132.8159
G01 X6.3849 Y132.7940
G01 X6.3886 Y132.7722
G01 X6.3935 Y132.7507
G01 X6.3994 Y132.7294
G01 X6.4063 Y132.7084
G01 X6.4143 Y132.6878
G01 X6.4232 Y132.6676
G01 X6.4331 Y132.6479
G01 X6.4440 Y132.6287
G01 X6.4558 Y132.6100
G01 X6.4686 Y132.5919
G01 X6.4821 Y132.5745
G01 X6.4966 Y132.5578
G01 X6.5118 Y132.5418
G01 X6.5278 Y132.5266
G01 X6.5445 Y132.5121
G01 X6.5619 Y132.4986
G01 X6.5800 Y132.4858
G01 X6.5987 Y132.4740
G01 X6.6179 Y132.4631
G01 X6.6376 Y132.4532
G01 X6.6578 Y132.4443
G01 X6.6784 Y132.4363
G01 X6.6994 Y132.4294
G01 X6.7207 Y132.4235
G01 X6.7422 Y132.4186
G01 X6.7640 Y132.4149
G01 X6.7859 Y132.4122
G01 X6.8079 Y132.4105
G01 X6.8300 Y132.4100
G01 X6.8521 Y132.4105
G01 X6.8741 Y132.4122
G01 X6.8960 Y132.4149
G01 X6.9178 Y132.4186
G01 X6.9393 Y132.4235
G01 X6.9606 Y132.4294
G01 X6.9816 Y132.4363
G01 X7.0022 Y132.4443
G01 X7.0224 Y132.4532
G01 X7.0421 Y132.4631
G01 X7.0613 Y132.4740
G01 X7.0800 Y132.4858
G01 X7.0981 Y132.4986
G01 X7.1155 Y132.5121
G01 X7.1322 Y132.5266
G01 X7.1482 Y132.5418
G01 X7.1634 Y132.5578
G01 X7.1779 Y132.5745
G01 X7.1914 Y132.5919
G01 X7.2042 Y132.6100
G01 X7.2160 Y132.6287
G01 X7.2269 Y132.6479
G01 X7.2368 Y132.6676
G01 X7.2457 Y132.6878
G01 X7.2537 Y132.7084
G01 X7.2606 Y132.7294
G01 X7.2665 Y132.7507
G01 X7.2714 Y132.7722
G01 X7.2751 Y132.7940
G01 X7.2778 Y132.8159
G01 X7.2795 Y132.8379
G01 X7.2800 Y132.8580
G00 Z2.0000
G00 X6.3800 Y132.8620
G01 F60.00
G01 Z0.0000
G01 F120.00
G01 X6.3805 Y132.8821
G01 X6.3822 Y132.9041
G01 X6.3849 Y132.9260
G01 X6.3886 Y132.9478
G01 X6.3935 Y132.9693
G01 X6.3994 Y132.9906
G01 X6.4063 Y133.0116
G01 X6.4143 Y133.0322
G01 X6.4232 Y133.0524
G01 X6.4331 Y133.0721
G01 X6.4440 Y133.0913
G01 X6.4558 Y133.1100
G01 X6.4686 Y133.1281
G01 X6.4821 Y133.1455
G01 X6.4966 Y133.1622
G01 X6.5118 Y133.1782
G01 X6.5278 Y133.1934
G01 X6.5445 Y133.2079
G01 X6.5619 Y133.2214
G01 X6.5800 Y133.2342
G01 X6.5987 Y133.2460
G01 X6.6179 Y133.2569
G01 X6.6376 Y133.2668
G01 X6.6578 Y133.2757
G01 X6.6784 Y133.2837
G01 X6.6994 Y133.2906
G01 X6.7207 Y133.2965
G01 X6.7422 Y133.3014
G01 X6.7640 Y133.3051
G01 X6.7859 Y133.3078
G01 X6.8079 Y133.3095
G01 X6.8300 Y133.3100
G01 X6.8521 Y133.3095
G01 X6.8741 Y133.3078
G01 X6.8960 Y133.3051
G01 X6.9178 Y133.3014
G01 X6.9393 Y133.2965
G01 X6.9606 Y133.2906
G01 X6.9816 Y133.2837
G01 X7.0022 Y133.2757
G01 X7.0224 Y133.2668
G01 X7.0421 Y133.2569
G01 X7.0613 Y133.2460
G01 X7.0800 Y133.2342
G01 X7.0981 Y133.2214
G01 X7.1155 Y133.2079
G01 X7.1322 Y133.1934
G01 X7.1482 Y133.1782
G01 X7.1634 Y133.1622
G01 X7.1779 Y133.1455
G01 X7.1914 Y133.1281
G01 X7.2042 Y133.1100
G01 X7.2160 Y133.0913
G01 X7.2269 Y133.0721
G01 X7.2368 Y133.0524
G01 X7.2457 Y133.0322
G01 X7.2537 Y133.0116
G01 X7.2606 Y132.9906
G01 X7.2665 Y132.9693
G01 X7.2714 Y132.9478
G01 X7.2751 Y132.9260
G01 X7.2778 Y132.9041
G01 X7.2795 Y132.8821
G01 X7.2800 Y132.8620
G00 Z2.0000
G00 X7.2800 Y134.1327
G01 F60.00
G01 Z0.0000
G01 F120.00
G01 X7.2535 Y134.1419
G01 X7.2219 Y134.1519
G01 X7.1901 Y134.1611
G01 X7.1580 Y134.1695
G01 X7.1258 Y134.1772
G01 X7.0934 Y134.1841
G01 X7.0608 Y134.1901
G01 X7.0281 Y134.1954
G01 X6.9953 Y134.1998
G01 X6.9623 Y134.2035
G01 X6.9293 Y134.2063
G01 X6.8962 Y134.2084
G01 X6.8631 Y134.2096
G01 X6.8300 Y134.2100
G01 X6.7969 Y134.2096
G01 X6.7638 Y134.2084
G01 X6.7307 Y134.2063
G01 X6.6977 Y134.2035
G01 X6.6647 Y134.1998
G01 X6.6319 Y134.1954
G01 X6.5992 Y134.1901
G01 X6.5666 Y134.1841
G01 X6.5342 Y134.1772
G01 X6.5020 Y134.1695
G01 X6.4699 Y134.1611
G01 X6.4381 Y134.1519
G01 X6.4065 Y134.1419
G01 X6.3800 Y134.1327
G00 Z2.0000
G00 X7.2800 Y135.0644
G01 F60.00
G01 Z0.0000
G01 F120.00
G01 X7.2147 Y135.0769
G01 X7.1601 Y135.0856
G01 X7.1054 Y135.0931
G01 X7.0505 Y135.0992
G01 X6.9955 Y135.1039
G01 X6.9404 Y135.1073
G01 X6.8852 Y135.1093
G01 X6.8300 Y135.1100
G01 X6.7748 Y135.1093
G01 X6.7196 Y135.1073
G01 X6.6645 Y135.1039
G01 X6.6095 Y135.0992
G01 X6.5546 Y135.0931
G01 X6.4999 Y135.0856
G01 X6.4453 Y135.0769
G01 X6.3800 Y135.0644
G00 Z2.0000
G00 X7.2800 Y135.9776
G01 F60.00
G01 Z0.0000
G01 F120.00
G01 X7.2156 Y135.9863
G01 X7.1388 Y135.9948
G01 X7.0617 Y136.0015
G01 X6.9846 Y136.0062
G01 X6.9073 Y136.0091
G01 X6.8300 Y136.0100
G01 X6.7527 Y136.0091
G01 X6.6754 Y136.0062
G01 X6.5983 Y136.0015
G01 X6.5212 Y135.9948
G01 X6.4444 Y135.9863
G01 X6.3800 Y135.9776
G00 Z2.0000
G00 X6.3800 Y136.3100
G01 F60.00
G01 Z0.0000
G01 F120.00
G01 X7.2800 Y136.3100
G01 X7.2800 Y129.4100
G01 X6.3800 Y129.4100
G01 X6.3800 Y136.3100
G00 Z2.0000
G00 X52.2500 Y136.3100
G01 F60.00
G01 Z0.0000
G01 F120.00
G01 X53.1500 Y136.3100
G01 X53.1500 Y129.4100
G01 X52.2500 Y129.4100
G01 X52.2500 Y136.3100
G00 Z2.0000
G00 X52.2500 Y135.9776
G01 F60.00
G01 Z0.0000
G01 F120.00
G01 X52.3144 Y135.9863
G01 X52.3912 Y135.9948
G01 X52.4683 Y136.0015
G01 X52.5454 Y136.0062
G01 X52.6227 Y136.0091
G01 X52.7000 Y136.0100
G01 X52.7773 Y136.0091
G01 X52.8546 Y136.0062
G01 X52.9317 Y136.0015
G01 X53.0088 Y135.9948
G01 X53.0856 Y135.9863
G01 X53.1500 Y135.9776
G00 Z2.0000
G00 X53.1500 Y135.0644
G01 F60.00
G01 Z0.0000
G01 F120.00
G01 X53.0847 Y135.0769
G01 X53.0301 Y135.0856
G01 X52.9754 Y135.0931
G01 X52.9205 Y135.0992
G01 X52.8655 Y135.1039
G01 X52.8104 Y135.1073
G01 X52.7552 Y135.1093
G01 X52.7000 Y135.1100
G01 X52.6448 Y135.1093
G01 X52.5896 Y135.1073
G01 X52.5345 Y135.1039
G01 X52.4795 Y135.0992
G01 X52.4246 Y135.0931
G01 X52.3699 Y135.0856
G01 X52.3153 Y135.0769
G01 X52.2500 Y135.0644
G00 Z2.0000
G00 X53.1500 Y134.1327
G01 F60.00
G01 Z0.0000
G01 F120.00
G01 X53.1235 Y134.1419
G01 X53.0919 Y134.1519
G01 X53.0601 Y134.1611
G01 X53.0280 Y134.1695
G01 X52.9958 Y134.1772
G01 X52.9634 Y134.1841
G01 X52.9308 Y134.1901
G01 X52.8981 Y134.1954
G01 X52.8653 Y134.1998
G01 X52.8323 Y134.2035
G01 X52.7993 Y134.2063
G01 X52.7662 Y134.2084
G01 X52.7331 Y134.2096
G01 X52.7000 Y134.2100
G01 X52.6669 Y134.2096
G01 X52.6338 Y134.2084
G01 X52.6007 Y134.2063
G01 X52.5677 Y134.2035
G01 X52.5347 Y134.1998
G01 X52.5019 Y134.1954
G01 X52.4692 Y134.1901
G01 X52.4366 Y134.1841
G01 X52.4042 Y134.1772
G01 X52.3720 Y134.1695
G01 X52.3399 Y134.1611
G01 X52.3081 Y134.1519
G01 X52.2765 Y134.1419
G01 X52.2500 Y134.1327
G00 Z2.0000
G00 X53.1500 Y132.8620
G01 F60.00
G01 Z0.0000
G01 F120.00
G01 X53.1495 Y132.8821
G01 X53.1478 Y132.9041
G01 X53.1451 Y132.9260
G01 X53.1414 Y132.9478
G01 X53.1365 Y132.9693
G01 X53.1306 Y132.9906
G01 X53.1237 Y133.0116
G01 X53.1157 Y133.0322
G01 X53.1068 Y133.0524
G01 X53.0969 Y133.0721
G01 X53.0860 Y133.0913
G01 X53.0742 Y133.1100
G01 X53.0614 Y133.1281
G01 X53.0479 Y133.1455
G01 X53.0334 Y133.1622
G01 X53.0182 Y133.1782
G01 X53.0022 Y133.1934
G01 X52.9855 Y133.2079
G01 X52.9681 Y133.2214
G01 X52.9500 Y133.2342
G01 X52.9313 Y133.2460
G01 X52.9121 Y133.2569
G01 X52.8924 Y133.2668
G01 X52.8722 Y133.2757
G01 X52.8516 Y133.2837
G01 X52.8306 Y133.2906
G01 X52.8093 Y133.2965
G01 X52.7878 Y133.3014
G01 X52.7660 Y133.3051
G01 X52.7441 Y133.3078
G01 X52.7221 Y133.3095
G01 X52.7000 Y133.3100
G01 X52.6779 Y133.3095
G01 X52.6559 Y133.3078
G01 X52.6340 Y133.3051
G01 X52.6122 Y133.3014
G01 X52.5907 Y133.2965
G01 X52.5694 Y133.2906
G01 X52.5484 Y133.2837
G01 X52.5278 Y133.2757
G01 X52.5076 Y133.2668
G01 X52.4879 Y133.2569
G01 X52.4687 Y133.2460
G01 X52.4500 Y133.2342
G01 X52.4319 Y133.2214
G01 X52.4145 Y133.2079
G01 X52.3978 Y133.1934
G01 X52.3818 Y133.1782
G01 X52.3666 Y133.1622
G01 X52.3521 Y133.1455
G01 X52.3386 Y133.1281
G01 X52.3258 Y133.1100
G01 X52.3140 Y133.0913
G01 X52.3031 Y133.0721
G01 X52.2932 Y133.0524
G01 X52.2843 Y133.0322
G01 X52.2763 Y133.0116
G01 X52.2694 Y132.9906
G01 X52.2635 Y132.9693
G01 X52.2586 Y132.9478
G01 X52.2549 Y132.9260
G01 X52.2522 Y132.9041
G01 X52.2505 Y132.8821
G01 X52.2500 Y132.8620
G00 Z2.0000
G00 X53.1500 Y132.8580
G01 F60.00
G01 Z0.0000
G01 F120.00
G01 X53.1495 Y132.8379
G01 X53.1478 Y132.8159
G01 X53.1451 Y132.7940
G01 X53.1414 Y132.7722
G01 X53.1365 Y132.7507
G01 X53.1306 Y132.7294
G01 X53.1237 Y132.7084
G01 X53.1157 Y132.6878
G01 X53.1068 Y132.6676
G01 X53.0969 Y132.6479
G01 X53.0860 Y132.6287
G01 X53.0742 Y132.6100
G01 X53.0614 Y132.5919
G01 X53.0479 Y132.5745
G01 X53.0334 Y132.5578
G01 X53.0182 Y132.5418
G01 X53.0022 Y132.5266
G01 X52.9855 Y132.5121
G01 X52.9681 Y132.4986
G01 X52.9500 Y132.4858
G01 X52.9313 Y132.4740
G01 X52.9121 Y132.4631
G01 X52.8924 Y132.4532
G01 X52.8722 Y132.4443
G01 X52.8516 Y132.4363
G01 X52.8306 Y132.4294
G01 X52.8093 Y132.4235
G01 X52.7878 Y132.4186
G01 X52.7660 Y132.4149
G01 X52.7441 Y132.4122
G01 X52.7221 Y132.4105
G01 X52.7000 Y132.4100
G01 X52.6779 Y132.4105
G01 X52.6559 Y132.4122
G01 X52.6340 Y132.4149
G01 X52.6122 Y132.4186
G01 X52.5907 Y132.4235
G01 X52.5694 Y132.4294
G01 X52.5484 Y132.4363
G01 X52.5278 Y132.4443
G01 X52.5076 Y132.4532
G01 X52.4879 Y132.4631
G01 X52.4687 Y132.4740
G01 X52.4500 Y132.4858
G01 X52.4319 Y132.4986
G01 X52.4145 Y132.5121
G01 X52.3978 Y132.5266
G01 X52.3818 Y132.5418
G01 X52.3666 Y132.5578
G01 X52.3521 Y132.5745
G01 X52.3386 Y132.5919
G01 X52.3258 Y132.6100
G01 X52.3140 Y132.6287
G01 X52.3031 Y132.6479
G01 X52.2932 Y132.6676
G01 X52.2843 Y132.6878
G01 X52.2763 Y132.7084
G01 X52.2694 Y132.7294
G01 X52.2635 Y132.7507
G01 X52.2586 Y132.7722
G01 X52.2549 Y132.7940
G01 X52.2522 Y132.8159
G01 X52.2505 Y132.8379
G01 X52.2500 Y132.8580
G00 Z2.0000
G00 X52.2500 Y131.5873
G01 F60.00
G01 Z0.0000
G01 F120.00
G01 X52.2765 Y131.5781
G01 X52.3081 Y131.5681
G01 X52.3399 Y131.5589
G01 X52.3720 Y131.5505
G01 X52.4042 Y131.5428
G01 X52.4366 Y131.5359
G01 X52.4692 Y131.5299
G01 X52.5019 Y131.5246
G01 X52.5347 Y131.5202
G01 X52.5677 Y131.5165
G01 X52.6007 Y131.5137
G01 X52.6338 Y131.5116
G01 X52.6669 Y131.5104
G01 X52.7000 Y131.5100
G01 X52.7331 Y131.5104
G01 X52.7662 Y131.5116
G01 X52.7993 Y131.5137
G01 X52.8323 Y131.5165
G01 X52.8653 Y131.5202
G01 X52.8981 Y131.5246
G01 X52.9308 Y131.5299
G01 X52.9634 Y131.5359
G01 X52.9958 Y131.5428
G01 X53.0280 Y131.5505
G01 X53.0601 Y131.5589
G01 X53.0919 Y131.5681
G01 X53.1235 Y131.5781
G01 X53.1500 Y131.5873
G00 Z2.0000
G00 X52.2500 Y130.6556
G01 F60.00
G01 Z0.0000
G01 F120.00
G01 X52.3153 Y130.6431
G01 X52.3699 Y130.6344
G01 X52.4246 Y130.6269
G01 X52.4795 Y130.6208
G01 X52.5345 Y130.6161
G01 X52.5896 Y130.6127
G01 X52.6448 Y130.6107
G01 X52.7000 Y130.6100
G01 X52.7552 Y130.6107
G01 X52.8104 Y130.6127
G01 X52.8655 Y130.6161
G01 X52.9205 Y130.6208
G01 X52.9754 Y130.6269
G01 X53.0301 Y130.6344
G01 X53.0847 Y130.6431
G01 X53.1500 Y130.6556
G00 Z2.0000
G00 X52.2500 Y129.7424
G01 F60.00
G01 Z0.0000
G01 F120.00
G01 X52.3144 Y129.7337
G01 X52.3912 Y129.7252
G01 X52.4683 Y129.7185
G01 X52.5454 Y129.7138
G01 X52.6227 Y129.7109
G01 X52.7000 Y129.7100
G01 X52.7773 Y129.7109
G01 X52.8546 Y129.7138
G01 X52.9317 Y129.7185
G01 X53.0088 Y129.7252
G01 X53.0856 Y129.7337
G01 X53.1500 Y129.7424
G00 Z2.0000
G00 X52.3300 Y116.4500
G01 F60.00
G01 Z0.0000
G01 F120.00
G01 X53.2300 Y116.4500
G01 X53.2300 Y109.5500
G01 X52.3300 Y109.5500
G01 X52.3300 Y116.4500
G00 Z2.0000
G00 X52.3300 Y116.1176
G01 F60.00
G01 Z0.0000
G01 F120.00
G01 X52.3944 Y116.1263
G01 X52.4712 Y116.1348
G01 X52.5483 Y116.1415
G01 X52.6254 Y116.1462
G01 X52.7027 Y116.1491
G01 X52.7800 Y116.1500
G01 X52.8573 Y116.1491
G01 X52.9346 Y116.1462
G01 X53.0117 Y116.1415
G01 X53.0888 Y116.1348
G01 X53.1656 Y116.1263
G01 X53.2300 Y116.1176
G00 Z2.0000
G00 X53.2300 Y115.2044
G01 F60.00
G01 Z0.0000
G01 F120.00
G01 X53.1647 Y115.2169
G01 X53.1101 Y115.2256
G01 X53.0554 Y115.2331
G01 X53.0005 Y115.2392
G01 X52.9455 Y115.2439
G01 X52.8904 Y115.2473
G01 X52.8352 Y115.2493
G01 X52.7800 Y115.2500
G01 X52.7248 Y115.2493
G01 X52.6696 Y115.2473
G01 X52.6145 Y115.2439
G01 X52.5595 Y115.2392
G01 X52.5046 Y115.2331
G01 X52.4499 Y115.2256
G01 X52.3953 Y115.2169
G01 X52.3300 Y115.2044
G00 Z2.0000
G00 X53.2300 Y114.2727
G01 F60.00
G01 Z0.0000
G01 F120.00
G01 X53.2035 Y114.2819
G01 X53.1719 Y114.2919
G01 X53.1401 Y114.3011
G01 X53.1080 Y114.3095
G01 X53.0758 Y114.3172
G01 X53.0434 Y114.3241
G01 X53.0108 Y114.3301
G01 X52.9781 Y114.3354
G01 X52.9453 Y114.3398
G01 X52.9123 Y114.3435
G01 X52.8793 Y114.3463
G01 X52.8462 Y114.3484
G01 X52.8131 Y114.3496
G01 X52.7800 Y114.3500
G01 X52.7469 Y114.3496
G01 X52.7138 Y114.3484
G01 X52.6807 Y114.3463
G01 X52.6477 Y114.3435
G01 X52.6147 Y114.3398
G01 X52.5819 Y114.3354
G01 X52.5492 Y114.3301
G01 X52.5166 Y114.3241
G01 X52.4842 Y114.3172
G01 X52.4520 Y114.3095
G01 X52.4199 Y114.3011
G01 X52.3881 Y114.2919
G01 X52.3565 Y114.2819
G01 X52.3300 Y114.2727
G00 Z2.0000
G00 X53.2300 Y113.0020
G01 F60.00
G01 Z0.0000
G01 F120.00
G01 X53.2295 Y113.0221
G01 X53.2278 Y113.0441
G01 X53.2251 Y113.0660
G01 X53.2214 Y113.0878
G01 X53.2165 Y113.1093
G01 X53.2106 Y113.1306
G01 X53.2037 Y113.1516
G01 X53.1957 Y113.1722
G01 X53.1868 Y113.1924
G01 X53.1769 Y113.2121
G01 X53.1660 Y113.2313
G01 X53.1542 Y113.2500
G01 X53.1414 Y113.2681
G01 X53.1279 Y113.2855
G01 X53.1134 Y113.3022
G01 X53.0982 Y113.3182
G01 X53.0822 Y113.3334
G01 X53.0655 Y113.3479
G01 X53.0481 Y113.3614
G01 X53.0300 Y113.3742
G01 X53.0113 Y113.3860
G01 X52.9921 Y113.3969
G01 X52.9724 Y113.4068
G01 X52.9522 Y113.4157
G01 X52.9316 Y113.4237
G01 X52.9106 Y113.4306
G01 X52.8893 Y113.4365
G01 X52.8678 Y113.4414
G01 X52.8460 Y113.4451
G01 X52.8241 Y113.4478
G01 X52.8021 Y113.4495
G01 X52.7800 Y113.4500
G01 X52.7579 Y113.4495
G01 X52.7359 Y113.4478
G01 X52.7140 Y113.4451
G01 X52.6922 Y113.4414
G01 X52.6707 Y113.4365
G01 X52.6494 Y113.4306
G01 X52.6284 Y113.4237
G01 X52.6078 Y113.4157
G01 X52.5876 Y113.4068
G01 X52.5679 Y113.3969
G01 X52.5487 Y113.3860
G01 X52.5300 Y113.3742
G01 X52.5119 Y113.3614
G01 X52.4945 Y113.3479
G01 X52.4778 Y113.3334
G01 X52.4618 Y113.3182
G01 X52.4466 Y113.3022
G01 X52.4321 Y113.2855
G01 X52.4186 Y113.2681
G01 X52.4058 Y113.2500
G01 X52.3940 Y113.2313
G01 X52.3831 Y113.2121
G01 X52.3732 Y113.1924
G01 X52.3643 Y113.1722
G01 X52.3563 Y113.1516
G01 X52.3494 Y113.1306
G01 X52.3435 Y113.1093
G01 X52.3386 Y113.0878
G01 X52.3349 Y113.0660
G01 X52.3322 Y113.0441
G01 X52.3305 Y113.0221
G01 X52.3300 Y113.0020
G00 Z2.0000
G00 X53.2300 Y112.9980
G01 F60.00
G01 Z0.0000
G01 F120.00
G01 X53.2295 Y112.9779
G01 X53.2278 Y112.9559
G01 X53.2251 Y112.9340
G01 X53.2214 Y112.9122
G01 X53.2165 Y112.8907
G01 X53.2106 Y112.8694
G01 X53.2037 Y112.8484
G01 X53.1957 Y112.8278
G01 X53.1868 Y112.8076
G01 X53.1769 Y112.7879
G01 X53.1660 Y112.7687
G01 X53.1542 Y112.7500
G01 X53.1414 Y112.7319
G01 X53.1279 Y112.7145
G01 X53.1134 Y112.6978
G01 X53.0982 Y112.6818
G01 X53.0822 Y112.6666
G01 X53.0655 Y112.6521
G01 X53.0481 Y112.6386
G01 X53.0300 Y112.6258
G01 X53.0113 Y112.6140
G01 X52.9921 Y112.6031
G01 X52.9724 Y112.5932
G01 X52.9522 Y112.5843
G01 X52.9316 Y112.5763
G01 X52.9106 Y112.5694
G01 X52.8893 Y112.5635
G01 X52.8678 Y112.5586
G01 X52.8460 Y112.5549
G01 X52.8241 Y112.5522
G01 X52.8021 Y112.5505
G01 X52.7800 Y112.5500
G01 X52.7579 Y112.5505
G01 X52.7359 Y112.5522
G01 X52.7140 Y112.5549
G01 X52.6922 Y112.5586
G01 X52.6707 Y112.5635
G01 X52.6494 Y112.5694
G01 X52.6284 Y112.5763
G01 X52.6078 Y112.5843
G01 X52.5876 Y112.5932
G01 X52.5679 Y112.6031
G01 X52.5487 Y112.6140
G01 X52.5300 Y112.6258
G01 X52.5119 Y112.6386
G01 X52.4945 Y112.6521
G01 X52.4778 Y112.6666
G01 X52.4618 Y112.6818
G01 X52.4466 Y112.6978
G01 X52.4321 Y112.7145
G01 X52.4186 Y112.7319
G01 X52.4058 Y112.7500
G01 X52.3940 Y112.7687
G01 X52.3831 Y112.7879
G01 X52.3732 Y112.8076
G01 X52.3643 Y112.8278
G01 X52.3563 Y112.8484
G01 X52.3494 Y112.8694
G01 X52.3435 Y112.8907
G01 X52.3386 Y112.9122
G01 X52.3349 Y112.9340
G01 X52.3322 Y112.9559
G01 X52.3305 Y112.9779
G01 X52.3300 Y112.9980
G00 Z2.0000
G00 X52.3300 Y111.7273
G01 F60.00
G01 Z0.0000
G01 F120.00
G01 X52.3565 Y111.7181
G01 X52.3881 Y111.7081
G01 X52.4199 Y111.6989
G01 X52.4520 Y111.6905
G01 X52.4842 Y111.6828
G01 X52.5166 Y111.6759
G01 X52.5492 Y111.6699
G01 X52.5819 Y111.6646
G01 X52.6147 Y111.6602
G01 X52.6477 Y111.6565
G01 X52.6807 Y111.6537
G01 X52.7138 Y111.6516
G01 X52.7469 Y111.6504
G01 X52.7800 Y111.6500
G01 X52.8131 Y111.6504
G01 X52.8462 Y111.6516
G01 X52.8793 Y111.6537
G01 X52.9123 Y111.6565
G01 X52.9453 Y111.6602
G01 X52.9781 Y111.6646
G01 X53.0108 Y111.6699
G01 X53.0434 Y111.6759
G01 X53.0758 Y111.6828
G01 X53.1080 Y111.6905
G01 X53.1401 Y111.6989
G01 X53.1719 Y111.7081
G01 X53.2035 Y111.7181
G01 X53.2300 Y111.7273
G00 Z2.0000
G00 X52.3300 Y110.7956
G01 F60.00
G01 Z0.0000
G01 F120.00
G01 X52.3953 Y110.7831
G01 X52.4499 Y110.7744
G01 X52.5046 Y110.7669
G01 X52.5595 Y110.7608
G01 X52.6145 Y110.7561
G01 X52.6696 Y110.7527
G01 X52.7248 Y110.7507
G01 X52.7800 Y110.7500
G01 X52.8352 Y110.7507
G01 X52.8904 Y110.7527
G01 X52.9455 Y110.7561
G01 X53.0005 Y110.7608
G01 X53.0554 Y110.7669
G01 X53.1101 Y110.7744
G01 X53.1647 Y110.7831
G01 X53.2300 Y110.7956
G00 Z2.0000
G00 X52.3300 Y109.8824
G01 F60.00
G01 Z0.0000
G01 F120.00
G01 X52.3944 Y109.8737
G01 X52.4712 Y109.8652
G01 X52.5483 Y109.8585
G01 X52.6254 Y109.8538
G01 X52.7027 Y109.8509
G01 X52.7800 Y109.8500
G01 X52.8573 Y109.8509
G01 X52.9346 Y109.8538
G01 X53.0117 Y109.8585
G01 X53.0888 Y109.8652
G01 X53.1656 Y109.8737
G01 X53.2300 Y109.8824
G00 Z2.0000
G00 X52.4200 Y96.4100
G01 F60.00
G01 Z0.0000
G01 F120.00
G01 X53.3200 Y96.4100
G01 X53.3200 Y89.5100
G01 X52.4200 Y89.5100
G01 X52.4200 Y96.4100
G00 Z2.0000
G00 X52.4200 Y96.0776
G01 F60.00
G01 Z0.0000
G01 F120.00
G01 X52.4844 Y96.0863
G01 X52.5612 Y96.0948
G01 X52.6383 Y96.1015
G01 X52.7154 Y96.1062
G01 X52.7927 Y96.1091
G01 X52.8700 Y96.1100
G01 X52.9473 Y96.1091
G01 X53.0246 Y96.1062
G01 X53.1017 Y96.1015
G01 X53.1788 Y96.0948
G01 X53.2556 Y96.0863
G01 X53.3200 Y96.0776
G00 Z2.0000
G00 X53.3200 Y95.1644
G01 F60.00
G01 Z0.0000
G01 F120.00
G01 X53.2547 Y95.1769
G01 X53.2001 Y95.1856
G01 X53.1454 Y95.1931
G01 X53.0905 Y95.1992
G01 X53.0355 Y95.2039
G01 X52.9804 Y95.2073
G01 X52.9252 Y95.2093
G01 X52.8700 Y95.2100
G01 X52.8148 Y95.2093
G01 X52.7596 Y95.2073
G01 X52.7045 Y95.2039
G01 X52.6495 Y95.1992
G01 X52.5946 Y95.1931
G01 X52.5399 Y95.1856
G01 X52.4853 Y95.1769
G01 X52.4200 Y95.1644
G00 Z2.0000
G00 X53.3200 Y94.2327
G01 F60.00
G01 Z0.0000
G01 F120.00
G01 X53.2935 Y94.2419
G01 X53.2619 Y94.2519
G01 X53.2301 Y94.2611
G01 X53.1980 Y94.2695
G01 X53.1658 Y94.2772
G01 X53.1334 Y94.2841
G01 X53.1008 Y94.2901
G01 X53.0681 Y94.2954
G01 X53.0353 Y94.2998
G01 X53.0023 Y94.3035
G01 X52.9693 Y94.3063
G01 X52.9362 Y94.3084
G01 X52.9031 Y94.3096
G01 X52.8700 Y94.3100
G01 X52.8369 Y94.3096
G01 X52.8038 Y94.3084
G01 X52.7707 Y94.3063
G01 X52.7377 Y94.3035
G01 X52.7047 Y94.2998
G01 X52.6719 Y94.2954
G01 X52.6392 Y94.2901
G01 X52.6066 Y94.2841
G01 X52.5742 Y94.2772
G01 X52.5420 Y94.2695
G01 X52.5099 Y94.2611
G01 X52.4781 Y94.2519
G01 X52.4465 Y94.2419
G01 X52.4200 Y94.2327
G00 Z2.0000
G00 X53.3200 Y92.9620
G01 F60.00
G01 Z0.0000
G01 F120.00
G01 X53.3195 Y92.9821
G01 X53.3178 Y93.0041
G01 X53.3151 Y93.0260
G01 X53.3114 Y93.0478
G01 X53.3065 Y93.0693
G01 X53.3006 Y93.0906
G01 X53.2937 Y93.1116
G01 X53.2857 Y93.1322
G01 X53.2768 Y93.1524
G01 X53.2669 Y93.1721
G01 X53.2560 Y93.1913
G01 X53.2442 Y93.2100
G01 X53.2314 Y93.2281
G01 X53.2179 Y93.2455
G01 X53.2034 Y93.2622
G01 X53.1882 Y93.2782
G01 X53.1722 Y93.2934
G01 X53.1555 Y93.3079
G01 X53.1381 Y93.3214
G01 X53.1200 Y93.3342
G01 X53.1013 Y93.3460
G01 X53.0821 Y93.3569
G01 X53.0624 Y93.3668
G01 X53.0422 Y93.3757
G01 X53.0216 Y93.3837
G01 X53.0006 Y93.3906
G01 X52.9793 Y93.3965
G01 X52.9578 Y93.4014
G01 X52.9360 Y93.4051
G01 X52.9141 Y93.4078
G01 X52.8921 Y93.4095
G01 X52.8700 Y93.4100
G01 X52.8479 Y93.4095
G01 X52.8259 Y93.4078
G01 X52.8040 Y93.4051
G01 X52.7822 Y93.4014
G01 X52.7607 Y93.3965
G01 X52.7394 Y93.3906
G01 X52.7184 Y93.3837
G01 X52.6978 Y93.3757
G01 X52.6776 Y93.3668
G01 X52.6579 Y93.3569
G01 X52.6387 Y93.3460
G01 X52.6200 Y93.3342
G01 X52.6019 Y93.3214
G01 X52.5845 Y93.3079
G01 X52.5678 Y93.2934
G01 X52.5518 Y93.2782
G01 X52.5366 Y93.2622
G01 X52.5221 Y93.2455
G01 X52.5086 Y93.2281
G01 X52.4958 Y93.2100
G01 X52.4840 Y93.1913
G01 X52.4731 Y93.1721
G01 X52.4632 Y93.1524
G01 X52.4543 Y93.1322
G01 X52.4463 Y93.1116
G01 X52.4394 Y93.0906
G01 X52.4335 Y93.0693
G01 X52.4286 Y93.0478
G01 X52.4249 Y93.0260
G01 X52.4222 Y93.0041
G01 X52.4205 Y92.9821
G01 X52.4200 Y92.9620
G00 Z2.0000
G00 X53.3200 Y92.9580
G01 F60.00
G01 Z0.0000
G01 F120.00
G01 X53.3195 Y92.9379
G01 X53.3178 Y92.9159
G01 X53.3151 Y92.8940
G01 X53.3114 Y92.8722
G01 X53.3065 Y92.8507
G01 X53.3006 Y92.8294
G01 X53.2937 Y92.8084
G01 X53.2857 Y92.7878
G01 X53.2768 Y92.7676
G01 X53.2669 Y92.7479
G01 X53.2560 Y92.7287
G01 X53.2442 Y92.7100
G01 X53.2314 Y92.6919
G01 X53.2179 Y92.6745
G01 X53.2034 Y92.6578
G01 X53.1882 Y92.6418
G01 X53.1722 Y92.6266
G01 X53.1555 Y92.6121
G01 X53.1381 Y92.5986
G01 X53.1200 Y92.5858
G01 X53.1013 Y92.5740
G01 X53.0821 Y92.5631
G01 X53.0624 Y92.5532
G01 X53.0422 Y92.5443
G01 X53.0216 Y92.5363
G01 X53.0006 Y92.5294
G01 X52.9793 Y92.5235
G01 X52.9578 Y92.5186
G01 X52.9360 Y92.5149
G01 X52.9141 Y92.5122
G01 X52.8921 Y92.5105
G01 X52.8700 Y92.5100
G01 X52.8479 Y92.5105
G01 X52.8259 Y92.5122
G01 X52.8040 Y92.5149
G01 X52.7822 Y92.5186
G01 X52.7607 Y92.5235
G01 X52.7394 Y92.5294
G01 X52.7184 Y92.5363
G01 X52.6978 Y92.5443
G01 X52.6776 Y92.5532
G01 X52.6579 Y92.5631
G01 X52.6387 Y92.5740
G01 X52.6200 Y92.5858
G01 X52.6019 Y92.5986
G01 X52.5845 Y92.6121
G01 X52.5678 Y92.6266
G01 X52.5518 Y92.6418
G01 X52.5366 Y92.6578
G01 X52.5221 Y92.6745
G01 X52.5086 Y92.6919
G01 X52.4958 Y92.7100
G01 X52.4840 Y92.7287
G01 X52.4731 Y92.7479
G01 X52.4632 Y92.7676
G01 X52.4543 Y92.7878
G01 X52.4463 Y92.8084
G01 X52.4394 Y92.8294
G01 X52.4335 Y92.8507
G01 X52.4286 Y92.8722
G01 X52.4249 Y92.8940
G01 X52.4222 Y92.9159
G01 X52.4205 Y92.9379
G01 X52.4200 Y92.9580
G00 Z2.0000
G00 X52.4200 Y91.6873
G01 F60.00
G01 Z0.0000
G01 F120.00
G01 X52.4465 Y91.6781
G01 X52.4781 Y91.6681
G01 X52.5099 Y91.6589
G01 X52.5420 Y91.6505
G01 X52.5742 Y91.6428
G01 X52.6066 Y91.6359
G01 X52.6392 Y91.6299
G01 X52.6719 Y91.6246
G01 X52.7047 Y91.6202
G01 X52.7377 Y91.6165
G01 X52.7707 Y91.6137
G01 X52.8038 Y91.6116
G01 X52.8369 Y91.6104
G01 X52.8700 Y91.6100
G01 X52.9031 Y91.6104
G01 X52.9362 Y91.6116
G01 X52.9693 Y91.6137
G01 X53.0023 Y91.6165
G01 X53.0353 Y91.6202
G01 X53.0681 Y91.6246
G01 X53.1008 Y91.6299
G01 X53.1334 Y91.6359
G01 X53.1658 Y91.6428
G01 X53.1980 Y91.6505
G01 X53.2301 Y91.6589
G01 X53.2619 Y91.6681
G01 X53.2935 Y91.6781
G01 X53.3200 Y91.6873
G00 Z2.0000
G00 X52.4200 Y90.7556
G01 F60.00
G01 Z0.0000
G01 F120.00
G01 X52.4853 Y90.7431
G01 X52.5399 Y90.7344
G01 X52.5946 Y90.7269
G01 X52.6495 Y90.7208
G01 X52.7045 Y90.7161
G01 X52.7596 Y90.7127
G01 X52.8148 Y90.7107
G01 X52.8700 Y90.7100
G01 X52.9252 Y90.7107
G01 X52.9804 Y90.7127
G01 X53.0355 Y90.7161
G01 X53.0905 Y90.7208
G01 X53.1454 Y90.7269
G01 X53.2001 Y90.7344
G01 X53.2547 Y90.7431
G01 X53.3200 Y90.7556
G00 Z2.0000
G00 X52.4200 Y89.8424
G01 F60.00
G01 Z0.0000
G01 F120.00
G01 X52.4844 Y89.8337
G01 X52.5612 Y89.8252
G01 X52.6383 Y89.8185
G01 X52.7154 Y89.8138
G01 X52.7927 Y89.8109
G01 X52.8700 Y89.8100
G01 X52.9473 Y89.8109
G01 X53.0246 Y89.8138
G01 X53.1017 Y89.8185
G01 X53.1788 Y89.8252
G01 X53.2556 Y89.8337
G01 X53.3200 Y89.8424
G00 Z2.0000
G00 X52.5000 Y76.4500
G01 F60.00
G01 Z0.0000
G01 F120.00
G01 X53.4000 Y76.4500
G01 X53.4000 Y69.5500
G01 X52.5000 Y69.5500
G01 X52.5000 Y76.4500
G00 Z2.0000
G00 X52.5000 Y76.1176
G01 F60.00
G01 Z0.0000
G01 F120.00
G01 X52.5644 Y76.1263
G01 X52.6412 Y76.1348
G01 X52.7183 Y76.1415
G01 X52.7954 Y76.1462
G01 X52.8727 Y76.1491
G01 X52.9500 Y76.1500
G01 X53.0273 Y76.1491
G01 X53.1046 Y76.1462
G01 X53.1817 Y76.1415
G01 X53.2588 Y76.1348
G01 X53.3356 Y76.1263
G01 X53.4000 Y76.1176
G00 Z2.0000
G00 X53.4000 Y75.2044
G01 F60.00
G01 Z0.0000
G01 F120.00
G01 X53.3347 Y75.2169
G01 X53.2801 Y75.2256
G01 X53.2254 Y75.2331
G01 X53.1705 Y75.2392
G01 X53.1155 Y75.2439
G01 X53.0604 Y75.2473
G01 X53.0052 Y75.2493
G01 X52.9500 Y75.2500
G01 X52.8948 Y75.2493
G01 X52.8396 Y75.2473
G01 X52.7845 Y75.2439
G01 X52.7295 Y75.2392
G01 X52.6746 Y75.2331
G01 X52.6199 Y75.2256
G01 X52.5653 Y75.2169
G01 X52.5000 Y75.2044
G00 Z2.0000
G00 X53.4000 Y74.2727
G01 F60.00
G01 Z0.0000
G01 F120.00
G01 X53.3735 Y74.2819
G01 X53.3419 Y74.2919
G01 X53.3101 Y74.3011
G01 X53.2780 Y74.3095
G01 X53.2458 Y74.3172
G01 X53.2134 Y74.3241
G01 X53.1808 Y74.3301
G01 X53.1481 Y74.3354
G01 X53.1153 Y74.3398
G01 X53.0823 Y74.3435
G01 X53.0493 Y74.3463
G01 X53.0162 Y74.3484
G01 X52.9831 Y74.3496
G01 X52.9500 Y74.3500
G01 X52.9169 Y74.3496
G01 X52.8838 Y74.3484
G01 X52.8507 Y74.3463
G01 X52.8177 Y74.3435
G01 X52.7847 Y74.3398
G01 X52.7519 Y74.3354
G01 X52.7192 Y74.3301
G01 X52.6866 Y74.3241
G01 X52.6542 Y74.3172
G01 X52.6220 Y74.3095
G01 X52.5899 Y74.3011
G01 X52.5581 Y74.2919
G01 X52.5265 Y74.2819
G01 X52.5000 Y74.2727
G00 Z2.0000
G00 X53.4000 Y73.0020
G01 F60.00
G01 Z0.0000
G01 F120.00
G01 X53.3995 Y73.0221
G01 X53.3978 Y73.0441
G01 X53.3951 Y73.0660
G01 X53.3914 Y73.0878
G01 X53.3865 Y73.1093
G01 X53.3806 Y73.1306
G01 X53.3737 Y73.1516
G01 X53.3657 Y73.1722
G01 X53.3568 Y73.1924
G01 X53.3469 Y73.2121
G01 X53.3360 Y73.2313
G01 X53.3242 Y73.2500
G01 X53.3114 Y73.2681
G01 X53.2979 Y73.2855
G01 X53.2834 Y73.3022
G01 X53.2682 Y73.3182
G01 X53.2522 Y73.3334
G01 X53.2355 Y73.3479
G01 X53.2181 Y73.3614
G01 X53.2000 Y73.3742
G01 X53.1813 Y73.3860
G01 X53.1621 Y73.3969
G01 X53.1424 Y73.4068
G01 X53.1222 Y73.4157
G01 X53.1016 Y73.4237
G01 X53.0806 Y73.4306
G01 X53.0593 Y73.4365
G01 X53.0378 Y73.4414
G01 X53.0160 Y73.4451
G01 X52.9941 Y73.4478
G01 X52.9721 Y73.4495
G01 X52.9500 Y73.4500
G01 X52.9279 Y73.4495
G01 X52.9059 Y73.4478
G01 X52.8840 Y73.4451
G01 X52.8622 Y73.4414
G01 X52.8407 Y73.4365
G01 X52.8194 Y73.4306
G01 X52.7984 Y73.4237
G01 X52.7778 Y73.4157
G01 X52.7576 Y73.4068
G01 X52.7379 Y73.3969
G01 X52.7187 Y73.3860
G01 X52.7000 Y73.3742
G01 X52.6819 Y73.3614
G01 X52.6645 Y73.3479
G01 X52.6478 Y73.3334
G01 X52.6318 Y73.3182
G01 X52.6166 Y73.3022
G01 X52.6021 Y73.2855
G01 X52.5886 Y73.2681
G01 X52.5758 Y73.2500
G01 X52.5640 Y73.2313
G01 X52.5531 Y73.2121
G01 X52.5432 Y73.1924
G01 X52.5343 Y73.1722
G01 X52.5263 Y73.1516
G01 X52.5194 Y73.1306
G01 X52.5135 Y73.1093
G01 X52.5086 Y73.0878
G01 X52.5049 Y73.0660
G01 X52.5022 Y73.0441
G01 X52.5005 Y73.0221
G01 X52.5000 Y73.0020
G00 Z2.0000
G00 X53.4000 Y72.9980
G01 F60.00
G01 Z0.0000
G01 F120.00
G01 X53.3995 Y72.9779
G01 X53.3978 Y72.9559
G01 X53.3951 Y72.9340
G01 X53.3914 Y72.9122
G01 X53.3865 Y72.8907
G01 X53.3806 Y72.8694
G01 X53.3737 Y72.8484
G01 X53.3657 Y72.8278
G01 X53.3568 Y72.8076
G01 X53.3469 Y72.7879
G01 X53.3360 Y72.7687
G01 X53.3242 Y72.7500
G01 X53.3114 Y72.7319
G01 X53.2979 Y72.7145
G01 X53.2834 Y72.6978
G01 X53.2682 Y72.6818
G01 X53.2522 Y72.6666
G01 X53.2355 Y72.6521
G01 X53.2181 Y72.6386
G01 X53.2000 Y72.6258
G01 X53.1813 Y72.6140
G01 X53.1621 Y72.6031
G01 X53.1424 Y72.5932
G01 X53.1222 Y72.5843
G01 X53.1016 Y72.5763
G01 X53.0806 Y72.5694
G01 X53.0593 Y72.5635
G01 X53.0378 Y72.5586
G01 X53.0160 Y72.5549
G01 X52.9941 Y72.5522
G01 X52.9721 Y72.5505
G01 X52.9500 Y72.5500
G01 X52.9279 Y72.5505
G01 X52.9059 Y72.5522
G01 X52.8840 Y72.5549
G01 X52.8622 Y72.5586
G01 X52.8407 Y72.5635
G01 X52.8194 Y72.5694
G01 X52.7984 Y72.5763
G01 X52.7778 Y72.5843
G01 X52.7576 Y72.5932
G01 X52.7379 Y72.6031
G01 X52.7187 Y72.6140
G01 X52.7000 Y72.6258
G01 X52.6819 Y72.6386
G01 X52.6645 Y72.6521
G01 X52.6478 Y72.6666
G01 X52.6318 Y72.6818
G01 X52.6166 Y72.6978
G01 X52.6021 Y72.7145
G01 X52.5886 Y72.7319
G01 X52.5758 Y72.7500
G01 X52.5640 Y72.7687
G01 X52.5531 Y72.7879
G01 X52.5432 Y72.8076
G01 X52.5343 Y72.8278
G01 X52.5263 Y72.8484
G01 X52.5194 Y72.8694
G01 X52.5135 Y72.8907
G01 X52.5086 Y72.9122
G01 X52.5049 Y72.9340
G01 X52.5022 Y72.9559
G01 X52.5005 Y72.9779
G01 X52.5000 Y72.9980
G00 Z2.0000
G00 X52.5000 Y71.7273
G01 F60.00
G01 Z0.0000
G01 F120.00
G01 X52.5265 Y71.7181
G01 X52.5581 Y71.7081
G01 X52.5899 Y71.6989
G01 X52.6220 Y71.6905
G01 X52.6542 Y71.6828
G01 X52.6866 Y71.6759
G01 X52.7192 Y71.6699
G01 X52.7519 Y71.6646
G01 X52.7847 Y71.6602
G01 X52.8177 Y71.6565
G01 X52.8507 Y71.6537
G01 X52.8838 Y71.6516
G01 X52.9169 Y71.6504
G01 X52.9500 Y71.6500
G01 X52.9831 Y71.6504
G01 X53.0162 Y71.6516
G01 X53.0493 Y71.6537
G01 X53.0823 Y71.6565
G01 X53.1153 Y71.6602
G01 X53.1481 Y71.6646
G01 X53.1808 Y71.6699
G01 X53.2134 Y71.6759
G01 X53.2458 Y71.6828
G01 X53.2780 Y71.6905
G01 X53.3101 Y71.6989
G01 X53.3419 Y71.7081
G01 X53.3735 Y71.7181
G01 X53.4000 Y71.7273
G00 Z2.0000
G00 X52.5000 Y70.7956
G01 F60.00
G01 Z0.0000
G01 F120.00
G01 X52.5653 Y70.7831
G01 X52.6199 Y70.7744
G01 X52.6746 Y70.7669
G01 X52.7295 Y70.7608
G01 X52.7845 Y70.7561
G01 X52.8396 Y70.7527
G01 X52.8948 Y70.7507
G01 X52.9500 Y70.7500
G01 X53.0052 Y70.7507
G01 X53.0604 Y70.7527
G01 X53.1155 Y70.7561
G01 X53.1705 Y70.7608
G01 X53.2254 Y70.7669
G01 X53.2801 Y70.7744
G01 X53.3347 Y70.7831
G01 X53.4000 Y70.7956
G00 Z2.0000
G00 X52.5000 Y69.8824
G01 F60.00
G01 Z0.0000
G01 F120.00
G01 X52.5644 Y69.8737
G01 X52.6412 Y69.8652
G01 X52.7183 Y69.8585
G01 X52.7954 Y69.8538
G01 X52.8727 Y69.8509
G01 X52.9500 Y69.8500
G01 X53.0273 Y69.8509
G01 X53.1046 Y69.8538
G01 X53.1817 Y69.8585
G01 X53.2588 Y69.8652
G01 X53.3356 Y69.8737
G01 X53.4000 Y69.8824
G00 Z2.0000
G00 X52.4200 Y56.2500
G01 F60.00
G01 Z0.0000
G01 F120.00
G01 X53.3200 Y56.2500
G01 X53.3200 Y49.3500
G01 X52.4200 Y49.3500
G01 X52.4200 Y56.2500
G00 Z2.0000
G00 X52.4200 Y55.9176
G01 F60.00
G01 Z0.0000
G01 F120.00
G01 X52.4844 Y55.9263
G01 X52.5612 Y55.9348
G01 X52.6383 Y55.9415
G01 X52.7154 Y55.9462
G01 X52.7927 Y55.9491
G01 X52.8700 Y55.9500
G01 X52.9473 Y55.9491
G01 X53.0246 Y55.9462
G01 X53.1017 Y55.9415
G01 X53.1788 Y55.9348
G01 X53.2556 Y55.9263
G01 X53.3200 Y55.9176
G00 Z2.0000
G00 X53.3200 Y55.0044
G01 F60.00
G01 Z0.0000
G01 F120.00
G01 X53.2547 Y55.0169
G01 X53.2001 Y55.0256
G01 X53.1454 Y55.0331
G01 X53.0905 Y55.0392
G01 X53.0355 Y55.0439
G01 X52.9804 Y55.0473
G01 X52.9252 Y55.0493
G01 X52.8700 Y55.0500
G01 X52.8148 Y55.0493
G01 X52.7596 Y55.0473
G01 X52.7045 Y55.0439
G01 X52.6495 Y55.0392
G01 X52.5946 Y55.0331
G01 X52.5399 Y55.0256
G01 X52.4853 Y55.0169
G01 X52.4200 Y55.0044
G00 Z2.0000
G00 X53.3200 Y54.0727
G01 F60.00
G01 Z0.0000
G01 F120.00
G01 X53.2935 Y54.0819
G01 X53.2619 Y54.0919
G01 X53.2301 Y54.1011
G01 X53.1980 Y54.1095
G01 X53.1658 Y54.1172
G01 X53.1334 Y54.1241
G01 X53.1008 Y54.1301
G01 X53.0681 Y54.1354
G01 X53.0353 Y54.1398
G01 X53.0023 Y54.1435
G01 X52.9693 Y54.1463
G01 X52.9362 Y54.1484
G01 X52.9031 Y54.1496
G01 X52.8700 Y54.1500
G01 X52.8369 Y54.1496
G01 X52.8038 Y54.1484
G01 X52.7707 Y54.1463
G01 X52.7377 Y54.1435
G01 X52.7047 Y54.1398
G01 X52.6719 Y54.1354
G01 X52.6392 Y54.1301
G01 X52.6066 Y54.1241
G01 X52.5742 Y54.1172
G01 X52.5420 Y54.1095
G01 X52.5099 Y54.1011
G01 X52.4781 Y54.0919
G01 X52.4465 Y54.0819
G01 X52.4200 Y54.0727
G00 Z2.0000
G00 X53.3200 Y52.8020
G01 F60.00
G01 Z0.0000
G01 F120.00
G01 X53.3195 Y52.8221
G01 X53.3178 Y52.8441
G01 X53.3151 Y52.8660
G01 X53.3114 Y52.8878
G01 X53.3065 Y52.9093
G01 X53.3006 Y52.9306
G01 X53.2937 Y52.9516
G01 X53.2857 Y52.9722
G01 X53.2768 Y52.9924
G01 X53.2669 Y53.0121
G01 X53.2560 Y53.0313
G01 X53.2442 Y53.0500
G01 X53.2314 Y53.0681
G01 X53.2179 Y53.0855
G01 X53.2034 Y53.1022
G01 X53.1882 Y53.1182
G01 X53.1722 Y53.1334
G01 X53.1555 Y53.1479
G01 X53.1381 Y53.1614
G01 X53.1200 Y53.1742
G01 X53.1013 Y53.1860
G01 X53.0821 Y53.1969
G01 X53.0624 Y53.2068
G01 X53.0422 Y53.2157
G01 X53.0216 Y53.2237
G01 X53.0006 Y53.2306
G01 X52.9793 Y53.2365
G01 X52.9578 Y53.2414
G01 X52.9360 Y53.2451
G01 X52.9141 Y53.2478
G01 X52.8921 Y53.2495
G01 X52.8700 Y53.2500
G01 X52.8479 Y53.2495
G01 X52.8259 Y53.2478
G01 X52.8040 Y53.2451
G01 X52.7822 Y53.2414
G01 X52.7607 Y53.2365
G01 X52.7394 Y53.2306
G01 X52.7184 Y53.2237
G01 X52.6978 Y53.2157
G01 X52.6776 Y53.2068
G01 X52.6579 Y53.1969
G01 X52.6387 Y53.1860
G01 X52.6200 Y53.1742
G01 X52.6019 Y53.1614
G01 X52.5845 Y53.1479
G01 X52.5678 Y53.1334
G01 X52.5518 Y53.1182
G01 X52.5366 Y53.1022
G01 X52.5221 Y53.0855
G01 X52.5086 Y53.0681
G01 X52.4958 Y53.0500
G01 X52.4840 Y53.0313
G01 X52.4731 Y53.0121
G01 X52.4632 Y52.9924
G01 X52.4543 Y52.9722
G01 X52.4463 Y52.9516
G01 X52.4394 Y52.9306
G01 X52.4335 Y52.9093
G01 X52.4286 Y52.8878
G01 X52.4249 Y52.8660
G01 X52.4222 Y52.8441
G01 X52.4205 Y52.8221
G01 X52.4200 Y52.8020
G00 Z2.0000
G00 X53.3200 Y52.7980
G01 F60.00
G01 Z0.0000
G01 F120.00
G01 X53.3195 Y52.7779
G01 X53.3178 Y52.7559
G01 X53.3151 Y52.7340
G01 X53.3114 Y52.7122
G01 X53.3065 Y52.6907
G01 X53.3006 Y52.6694
G01 X53.2937 Y52.6484
G01 X53.2857 Y52.6278
G01 X53.2768 Y52.6076
G01 X53.2669 Y52.5879
G01 X53.2560 Y52.5687
G01 X53.2442 Y52.5500
G01 X53.2314 Y52.5319
G01 X53.2179 Y52.5145
G01 X53.2034 Y52.4978
G01 X53.1882 Y52.4818
G01 X53.1722 Y52.4666
G01 X53.1555 Y52.4521
G01 X53.1381 Y52.4386
G01 X53.1200 Y52.4258
G01 X53.1013 Y52.4140
G01 X53.0821 Y52.4031
G01 X53.0624 Y52.3932
G01 X53.0422 Y52.3843
G01 X53.0216 Y52.3763
G01 X53.0006 Y52.3694
G01 X52.9793 Y52.3635
G01 X52.9578 Y52.3586
G01 X52.9360 Y52.3549
G01 X52.9141 Y52.3522
G01 X52.8921 Y52.3505
G01 X52.8700 Y52.3500
G01 X52.8479 Y52.3505
G01 X52.8259 Y52.3522
G01 X52.8040 Y52.3549
G01 X52.7822 Y52.3586
G01 X52.7607 Y52.3635
G01 X52.7394 Y52.3694
G01 X52.7184 Y52.3763
G01 X52.6978 Y52.3843
G01 X52.6776 Y52.3932
G01 X52.6579 Y52.4031
G01 X52.6387 Y52.4140
G01 X52.6200 Y52.4258
G01 X52.6019 Y52.4386
G01 X52.5845 Y52.4521
G01 X52.5678 Y52.4666
G01 X52.5518 Y52.4818
G01 X52.5366 Y52.4978
G01 X52.5221 Y52.5145
G01 X52.5086 Y52.5319
G01 X52.4958 Y52.5500
G01 X52.4840 Y52.5687
G01 X52.4731 Y52.5879
G01 X52.4632 Y52.6076
G01 X52.4543 Y52.6278
G01 X52.4463 Y52.6484
G01 X52.4394 Y52.6694
G01 X52.4335 Y52.6907
G01 X52.4286 Y52.7122
G01 X52.4249 Y52.7340
G01 X52.4222 Y52.7559
G01 X52.4205 Y52.7779
G01 X52.4200 Y52.7980
G00 Z2.0000
G00 X52.4200 Y51.5273
G01 F60.00
G01 Z0.0000
G01 F120.00
G01 X52.4465 Y51.5181
G01 X52.4781 Y51.5081
G01 X52.5099 Y51.4989
G01 X52.5420 Y51.4905
G01 X52.5742 Y51.4828
G01 X52.6066 Y51.4759
G01 X52.6392 Y51.4699
G01 X52.6719 Y51.4646
G01 X52.7047 Y51.4602
G01 X52.7377 Y51.4565
G01 X52.7707 Y51.4537
G01 X52.8038 Y51.4516
G01 X52.8369 Y51.4504
G01 X52.8700 Y51.4500
G01 X52.9031 Y51.4504
G01 X52.9362 Y51.4516
G01 X52.9693 Y51.4537
G01 X53.0023 Y51.4565
G01 X53.0353 Y51.4602
G01 X53.0681 Y51.4646
G01 X53.1008 Y51.4699
G01 X53.1334 Y51.4759
G01 X53.1658 Y51.4828
G01 X53.1980 Y51.4905
G01 X53.2301 Y51.4989
G01 X53.2619 Y51.5081
G01 X53.2935 Y51.5181
G01 X53.3200 Y51.5273
G00 Z2.0000
G00 X52.4200 Y50.5956
G01 F60.00
G01 Z0.0000
G01 F120.00
G01 X52.4853 Y50.5831
G01 X52.5399 Y50.5744
G01 X52.5946 Y50.5669
G01 X52.6495 Y50.5608
G01 X52.7045 Y50.5561
G01 X52.7596 Y50.5527
G01 X52.8148 Y50.5507
G01 X52.8700 Y50.5500
G01 X52.9252 Y50.5507
G01 X52.9804 Y50.5527
G01 X53.0355 Y50.5561
G01 X53.0905 Y50.5608
G01 X53.1454 Y50.5669
G01 X53.2001 Y50.5744
G01 X53.2547 Y50.5831
G01 X53.3200 Y50.5956
G00 Z2.0000
G00 X52.4200 Y49.6824
G01 F60.00
G01 Z0.0000
G01 F120.00
G01 X52.4844 Y49.6737
G01 X52.5612 Y49.6652
G01 X52.6383 Y49.6585
G01 X52.7154 Y49.6538
G01 X52.7927 Y49.6509
G01 X52.8700 Y49.6500
G01 X52.9473 Y49.6509
G01 X53.0246 Y49.6538
G01 X53.1017 Y49.6585
G01 X53.1788 Y49.6652
G01 X53.2556 Y49.6737
G01 X53.3200 Y49.6824
G00 Z2.0000
G00 X52.4200 Y36.4500
G01 F60.00
G01 Z0.0000
G01 F120.00
G01 X53.3200 Y36.4500
G01 X53.3200 Y29.5500
G01 X52.4200 Y29.5500
G01 X52.4200 Y36.4500
G00 Z2.0000
G00 X52.4200 Y36.1176
G01 F60.00
G01 Z0.0000
G01 F120.00
G01 X52.4844 Y36.1263
G01 X52.5612 Y36.1348
G01 X52.6383 Y36.1415
G01 X52.7154 Y36.1462
G01 X52.7927 Y36.1491
G01 X52.8700 Y36.1500
G01 X52.9473 Y36.1491
G01 X53.0246 Y36.1462
G01 X53.1017 Y36.1415
G01 X53.1788 Y36.1348
G01 X53.2556 Y36.1263
G01 X53.3200 Y36.1176
G00 Z2.0000
G00 X53.3200 Y35.2044
G01 F60.00
G01 Z0.0000
G01 F120.00
G01 X53.2547 Y35.2169
G01 X53.2001 Y35.2256
G01 X53.1454 Y35.2331
G01 X53.0905 Y35.2392
G01 X53.0355 Y35.2439
G01 X52.9804 Y35.2473
G01 X52.9252 Y35.2493
G01 X52.8700 Y35.2500
G01 X52.8148 Y35.2493
G01 X52.7596 Y35.2473
G01 X52.7045 Y35.2439
G01 X52.6495 Y35.2392
G01 X52.5946 Y35.2331
G01 X52.5399 Y35.2256
G01 X52.4853 Y35.2169
G01 X52.4200 Y35.2044
G00 Z2.0000
G00 X53.3200 Y34.2727
G01 F60.00
G01 Z0.0000
G01 F120.00
G01 X53.2935 Y34.2819
G01 X53.2619 Y34.2919
G01 X53.2301 Y34.3011
G01 X53.1980 Y34.3095
G01 X53.1658 Y34.3172
G01 X53.1334 Y34.3241
G01 X53.1008 Y34.3301
G01 X53.0681 Y34.3354
G01 X53.0353 Y34.3398
G01 X53.0023 Y34.3435
G01 X52.9693 Y34.3463
G01 X52.9362 Y34.3484
G01 X52.9031 Y34.3496
G01 X52.8700 Y34.3500
G01 X52.8369 Y34.3496
G01 X52.8038 Y34.3484
G01 X52.7707 Y34.3463
G01 X52.7377 Y34.3435
G01 X52.7047 Y34.3398
G01 X52.6719 Y34.3354
G01 X52.6392 Y34.3301
G01 X52.6066 Y34.3241
G01 X52.5742 Y34.3172
G01 X52.5420 Y34.3095
G01 X52.5099 Y34.3011
G01 X52.4781 Y34.2919
G01 X52.4465 Y34.2819
G01 X52.4200 Y34.2727
G00 Z2.0000
G00 X53.3200 Y33.0020
G01 F60.00
G01 Z0.0000
G01 F120.00
G01 X53.3195 Y33.0221
G01 X53.3178 Y33.0441
G01 X53.3151 Y33.0660
G01 X53.3114 Y33.0878
G01 X53.3065 Y33.1093
G01 X53.3006 Y33.1306
G01 X53.2937 Y33.1516
G01 X53.2857 Y33.1722
G01 X53.2768 Y33.1924
G01 X53.2669 Y33.2121
G01 X53.2560 Y33.2313
G01 X53.2442 Y33.2500
G01 X53.2314 Y33.2681
G01 X53.2179 Y33.2855
G01 X53.2034 Y33.3022
G01 X53.1882 Y33.3182
G01 X53.1722 Y33.3334
G01 X53.1555 Y33.3479
G01 X53.1381 Y33.3614
G01 X53.1200 Y33.3742
G01 X53.1013 Y33.3860
G01 X53.0821 Y33.3969
G01 X53.0624 Y33.4068
G01 X53.0422 Y33.4157
G01 X53.0216 Y33.4237
G01 X53.0006 Y33.4306
G01 X52.9793 Y33.4365
G01 X52.9578 Y33.4414
G01 X52.9360 Y33.4451
G01 X52.9141 Y33.4478
G01 X52.8921 Y33.4495
G01 X52.8700 Y33.4500
G01 X52.8479 Y33.4495
G01 X52.8259 Y33.4478
G01 X52.8040 Y33.4451
G01 X52.7822 Y33.4414
G01 X52.7607 Y33.4365
G01 X52.7394 Y33.4306
G01 X52.7184 Y33.4237
G01 X52.6978 Y33.4157
G01 X52.6776 Y33.4068
G01 X52.6579 Y33.3969
G01 X52.6387 Y33.3860
G01 X52.6200 Y33.3742
G01 X52.6019 Y33.3614
G01 X52.5845 Y33.3479
G01 X52.5678 Y33.3334
G01 X52.5518 Y33.3182
G01 X52.5366 Y33.3022
G01 X52.5221 Y33.2855
G01 X52.5086 Y33.2681
G01 X52.4958 Y33.2500
G01 X52.4840 Y33.2313
G01 X52.4731 Y33.2121
G01 X52.4632 Y33.1924
G01 X52.4543 Y33.1722
G01 X52.4463 Y33.1516
G01 X52.4394 Y33.1306
G01 X52.4335 Y33.1093
G01 X52.4286 Y33.0878
G01 X52.4249 Y33.0660
G01 X52.4222 Y33.0441
G01 X52.4205 Y33.0221
G01 X52.4200 Y33.0020
G00 Z2.0000
G00 X53.3200 Y32.9980
G01 F60.00
G01 Z0.0000
G01 F120.00
G01 X53.3195 Y32.9779
G01 X53.3178 Y32.9559
G01 X53.3151 Y32.9340
G01 X53.3114 Y32.9122
G01 X53.3065 Y32.8907
G01 X53.3006 Y32.8694
G01 X53.2937 Y32.8484
G01 X53.2857 Y32.8278
G01 X53.2768 Y32.8076
G01 X53.2669 Y32.7879
G01 X53.2560 Y32.7687
G01 X53.2442 Y32.7500
G01 X53.2314 Y32.7319
G01 X53.2179 Y32.7145
G01 X53.2034 Y32.6978
G01 X53.1882 Y32.6818
G01 X53.1722 Y32.6666
G01 X53.1555 Y32.6521
G01 X53.1381 Y32.6386
G01 X53.1200 Y32.6258
G01 X53.1013 Y32.6140
G01 X53.0821 Y32.6031
G01 X53.0624 Y32.5932
G01 X53.0422 Y32.5843
G01 X53.0216 Y32.5763
G01 X53.0006 Y32.5694
G01 X52.9793 Y32.5635
G01 X52.9578 Y32.5586
G01 X52.9360 Y32.5549
G01 X52.9141 Y32.5522
G01 X52.8921 Y32.5505
G01 X52.8700 Y32.5500
G01 X52.8479 Y32.5505
G01 X52.8259 Y32.5522
G01 X52.8040 Y32.5549
G01 X52.7822 Y32.5586
G01 X52.7607 Y32.5635
G01 X52.7394 Y32.5694
G01 X52.7184 Y32.5763
G01 X52.6978 Y32.5843
G01 X52.6776 Y32.5932
G01 X52.6579 Y32.6031
G01 X52.6387 Y32.6140
G01 X52.6200 Y32.6258
G01 X52.6019 Y32.6386
G01 X52.5845 Y32.6521
G01 X52.5678 Y32.6666
G01 X52.5518 Y32.6818
G01 X52.5366 Y32.6978
G01 X52.5221 Y32.7145
G01 X52.5086 Y32.7319
G01 X52.4958 Y32.7500
G01 X52.4840 Y32.7687
G01 X52.4731 Y32.7879
G01 X52.4632 Y32.8076
G01 X52.4543 Y32.8278
G01 X52.4463 Y32.8484
G01 X52.4394 Y32.8694
G01 X52.4335 Y32.8907
G01 X52.4286 Y32.9122
G01 X52.4249 Y32.9340
G01 X52.4222 Y32.9559
G01 X52.4205 Y32.9779
G01 X52.4200 Y32.9980
G00 Z2.0000
G00 X52.4200 Y31.7273
G01 F60.00
G01 Z0.0000
G01 F120.00
G01 X52.4465 Y31.7181
G01 X52.4781 Y31.7081
G01 X52.5099 Y31.6989
G01 X52.5420 Y31.6905
G01 X52.5742 Y31.6828
G01 X52.6066 Y31.6759
G01 X52.6392 Y31.6699
G01 X52.6719 Y31.6646
G01 X52.7047 Y31.6602
G01 X52.7377 Y31.6565
G01 X52.7707 Y31.6537
G01 X52.8038 Y31.6516
G01 X52.8369 Y31.6504
G01 X52.8700 Y31.6500
G01 X52.9031 Y31.6504
G01 X52.9362 Y31.6516
G01 X52.9693 Y31.6537
G01 X53.0023 Y31.6565
G01 X53.0353 Y31.6602
G01 X53.0681 Y31.6646
G01 X53.1008 Y31.6699
G01 X53.1334 Y31.6759
G01 X53.1658 Y31.6828
G01 X53.1980 Y31.6905
G01 X53.2301 Y31.6989
G01 X53.2619 Y31.7081
G01 X53.2935 Y31.7181
G01 X53.3200 Y31.7273
G00 Z2.0000
G00 X52.4200 Y30.7956
G01 F60.00
G01 Z0.0000
G01 F120.00
G01 X52.4853 Y30.7831
G01 X52.5399 Y30.7744
G01 X52.5946 Y30.7669
G01 X52.6495 Y30.7608
G01 X52.7045 Y30.7561
G01 X52.7596 Y30.7527
G01 X52.8148 Y30.7507
G01 X52.8700 Y30.7500
G01 X52.9252 Y30.7507
G01 X52.9804 Y30.7527
G01 X53.0355 Y30.7561
G01 X53.0905 Y30.7608
G01 X53.1454 Y30.7669
G01 X53.2001 Y30.7744
G01 X53.2547 Y30.7831
G01 X53.3200 Y30.7956
G00 Z2.0000
G00 X52.4200 Y29.8824
G01 F60.00
G01 Z0.0000
G01 F120.00
G01 X52.4844 Y29.8737
G01 X52.5612 Y29.8652
G01 X52.6383 Y29.8585
G01 X52.7154 Y29.8538
G01 X52.7927 Y29.8509
G01 X52.8700 Y29.8500
G01 X52.9473 Y29.8509
G01 X53.0246 Y29.8538
G01 X53.1017 Y29.8585
G01 X53.1788 Y29.8652
G01 X53.2556 Y29.8737
G01 X53.3200 Y29.8824
G00 Z2.0000
G00 X52.3400 Y16.4200
G01 F60.00
G01 Z0.0000
G01 F120.00
G01 X53.2400 Y16.4200
G01 X53.2400 Y9.5200
G01 X52.3400 Y9.5200
G01 X52.3400 Y16.4200
G00 Z2.0000
G00 X52.3400 Y16.0876
G01 F60.00
G01 Z0.0000
G01 F120.00
G01 X52.4044 Y16.0963
G01 X52.4812 Y16.1048
G01 X52.5583 Y16.1115
G01 X52.6354 Y16.1162
G01 X52.7127 Y16.1191
G01 X52.7900 Y16.1200
G01 X52.8673 Y16.1191
G01 X52.9446 Y16.1162
G01 X53.0217 Y16.1115
G01 X53.0988 Y16.1048
G01 X53.1756 Y16.0963
G01 X53.2400 Y16.0876
G00 Z2.0000
G00 X53.2400 Y15.1744
G01 F60.00
G01 Z0.0000
G01 F120.00
G01 X53.1747 Y15.1869
G01 X53.1201 Y15.1956
G01 X53.0654 Y15.2031
G01 X53.0105 Y15.2092
G01 X52.9555 Y15.2139
G01 X52.9004 Y15.2173
G01 X52.8452 Y15.2193
G01 X52.7900 Y15.2200
G01 X52.7348 Y15.2193
G01 X52.6796 Y15.2173
G01 X52.6245 Y15.2139
G01 X52.5695 Y15.2092
G01 X52.5146 Y15.2031
G01 X52.4599 Y15.1956
G01 X52.4053 Y15.1869
G01 X52.3400 Y15.1744
G00 Z2.0000
G00 X53.2400 Y14.2427
G01 F60.00
G01 Z0.0000
G01 F120.00
G01 X53.2135 Y14.2519
G01 X53.1819 Y14.2619
G01 X53.1501 Y14.2711
G01 X53.1180 Y14.2795
G01 X53.0858 Y14.2872
G01 X53.0534 Y14.2941
G01 X53.0208 Y14.3001
G01 X52.9881 Y14.3054
G01 X52.9553 Y14.3098
G01 X52.9223 Y14.3135
G01 X52.8893 Y14.3163
G01 X52.8562 Y14.3184
G01 X52.8231 Y14.3196
G01 X52.7900 Y14.3200
G01 X52.7569 Y14.3196
G01 X52.7238 Y14.3184
G01 X52.6907 Y14.3163
G01 X52.6577 Y14.3135
G01 X52.6247 Y14.3098
G01 X52.5919 Y14.3054
G01 X52.5592 Y14.3001
G01 X52.5266 Y14.2941
G01 X52.4942 Y14.2872
G01 X52.4620 Y14.2795
G01 X52.4299 Y14.2711
G01 X52.3981 Y14.2619
G01 X52.3665 Y14.2519
G01 X52.3400 Y14.2427
G00 Z2.0000
G00 X53.2400 Y12.9720
G01 F60.00
G01 Z0.0000
G01 F120.00
G01 X53.2395 Y12.9921
G01 X53.2378 Y13.0141
G01 X53.2351 Y13.0360
G01 X53.2314 Y13.0578
G01 X53.2265 Y13.0793
G01 X53.2206 Y13.1006
G01 X53.2137 Y13.1216
G01 X53.2057 Y13.1422
G01 X53.1968 Y13.1624
G01 X53.1869 Y13.1821
G01 X53.1760 Y13.2013
G01 X53.1642 Y13.2200
G01 X53.1514 Y13.2381
G01 X53.1379 Y13.2555
G01 X53.1234 Y13.2722
G01 X53.1082 Y13.2882
G01 X53.0922 Y13.3034
G01 X53.0755 Y13.3179
G01 X53.0581 Y13.3314
G01 X53.0400 Y13.3442
G01 X53.0213 Y13.3560
G01 X53.0021 Y13.3669
G01 X52.9824 Y13.3768
G01 X52.9622 Y13.3857
G01 X52.9416 Y13.3937
G01 X52.9206 Y13.4006
G01 X52.8993 Y13.4065
G01 X52.8778 Y13.4114
G01 X52.8560 Y13.4151
G01 X52.8341 Y13.4178
G01 X52.8121 Y13.4195
G01 X52.7900 Y13.4200
G01 X52.7679 Y13.4195
G01 X52.7459 Y13.4178
G01 X52.7240 Y13.4151
G01 X52.7022 Y13.4114
G01 X52.6807 Y13.4065
G01 X52.6594 Y13.4006
G01 X52.6384 Y13.3937
G01 X52.6178 Y13.3857
G01 X52.5976 Y13.3768
G01 X52.5779 Y13.3669
G01 X52.5587 Y13.3560
G01 X52.5400 Y13.3442
G01 X52.5219 Y13.3314
G01 X52.5045 Y13.3179
G01 X52.4878 Y13.3034
G01 X52.4718 Y13.2882
G01 X52.4566 Y13.2722
G01 X52.4421 Y13.2555
G01 X52.4286 Y13.2381
G01 X52.4158 Y13.2200
G01 X52.4040 Y13.2013
G01 X52.3931 Y13.1821
G01 X52.3832 Y13.1624
G01 X52.3743 Y13.1422
G01 X52.3663 Y13.1216
G01 X52.3594 Y13.1006
G01 X52.3535 Y13.0793
G01 X52.3486 Y13.0578
G01 X52.3449 Y13.0360
G01 X52.3422 Y13.0141
G01 X52.3405 Y12.9921
G01 X52.3400 Y12.9720
G00 Z2.0000
G00 X53.2400 Y12.9680
G01 F60.00
G01 Z0.0000
G01 F120.00
G01 X53.2395 Y12.9479
G01 X53.2378 Y12.9259
G01 X53.2351 Y12.9040
G01 X53.2314 Y12.8822
G01 X53.2265 Y12.8607
G01 X53.2206 Y12.8394
G01 X53.2137 Y12.8184
G01 X53.2057 Y12.7978
G01 X53.1968 Y12.7776
G01 X53.1869 Y12.7579
G01 X53.1760 Y12.7387
G01 X53.1642 Y12.7200
G01 X53.1514 Y12.7019
G01 X53.1379 Y12.6845
G01 X53.1234 Y12.6678
G01 X53.1082 Y12.6518
G01 X53.0922 Y12.6366
G01 X53.0755 Y12.6221
G01 X53.0581 Y12.6086
G01 X53.0400 Y12.5958
G01 X53.0213 Y12.5840
G01 X53.0021 Y12.5731
G01 X52.9824 Y12.5632
G01 X52.9622 Y12.5543
G01 X52.9416 Y12.5463
G01 X52.9206 Y12.5394
G01 X52.8993 Y12.5335
G01 X52.8778 Y12.5286
G01 X52.8560 Y12.5249
G01 X52.8341 Y12.5222
G01 X52.8121 Y12.5205
G01 X52.7900 Y12.5200
G01 X52.7679 Y12.5205
G01 X52.7459 Y12.5222
G01 X52.7240 Y12.5249
G01 X52.7022 Y12.5286
G01 X52.6807 Y12.5335
G01 X52.6594 Y12.5394
G01 X52.6384 Y12.5463
G01 X52.6178 Y12.5543
G01 X52.5976 Y12.5632
G01 X52.5779 Y12.5731
G01 X52.5587 Y12.5840
G01 X52.5400 Y12.5958
G01 X52.5219 Y12.6086
G01 X52.5045 Y12.6221
G01 X52.4878 Y12.6366
G01 X52.4718 Y12.6518
G01 X52.4566 Y12.6678
G01 X52.4421 Y12.6845
G01 X52.4286 Y12.7019
G01 X52.4158 Y12.7200
G01 X52.4040 Y12.7387
G01 X52.3931 Y12.7579
G01 X52.3832 Y12.7776
G01 X52.3743 Y12.7978
G01 X52.3663 Y12.8184
G01 X52.3594 Y12.8394
G01 X52.3535 Y12.8607
G01 X52.3486 Y12.8822
G01 X52.3449 Y12.9040
G01 X52.3422 Y12.9259
G01 X52.3405 Y12.9479
G01 X52.3400 Y12.9680
G00 Z2.0000
G00 X52.3400 Y11.6973
G01 F60.00
G01 Z0.0000
G01 F120.00
G01 X52.3665 Y11.6881
G01 X52.3981 Y11.6781
G01 X52.4299 Y11.6689
G01 X52.4620 Y11.6605
G01 X52.4942 Y11.6528
G01 X52.5266 Y11.6459
G01 X52.5592 Y11.6399
G01 X52.5919 Y11.6346
G01 X52.6247 Y11.6302
G01 X52.6577 Y11.6265
G01 X52.6907 Y11.6237
G01 X52.7238 Y11.6216
G01 X52.7569 Y11.6204
G01 X52.7900 Y11.6200
G01 X52.8231 Y11.6204
G01 X52.8562 Y11.6216
G01 X52.8893 Y11.6237
G01 X52.9223 Y11.6265
G01 X52.9553 Y11.6302
G01 X52.9881 Y11.6346
G01 X53.0208 Y11.6399
G01 X53.0534 Y11.6459
G01 X53.0858 Y11.6528
G01 X53.1180 Y11.6605
G01 X53.1501 Y11.6689
G01 X53.1819 Y11.6781
G01 X53.2135 Y11.6881
G01 X53.2400 Y11.6973
G00 Z2.0000
G00 X52.3400 Y10.7656
G01 F60.00
G01 Z0.0000
G01 F120.00
G01 X52.4053 Y10.7531
G01 X52.4599 Y10.7444
G01 X52.5146 Y10.7369
G01 X52.5695 Y10.7308
G01 X52.6245 Y10.7261
G01 X52.6796 Y10.7227
G01 X52.7348 Y10.7207
G01 X52.7900 Y10.7200
G01 X52.8452 Y10.7207
G01 X52.9004 Y10.7227
G01 X52.9555 Y10.7261
G01 X53.0105 Y10.7308
G01 X53.0654 Y10.7369
G01 X53.1201 Y10.7444
G01 X53.1747 Y10.7531
G01 X53.2400 Y10.7656
G00 Z2.0000
G00 X52.3400 Y9.8524
G01 F60.00
G01 Z0.0000
G01 F120.00
G01 X52.4044 Y9.8437
G01 X52.4812 Y9.8352
G01 X52.5583 Y9.8285
G01 X52.6354 Y9.8238
G01 X52.7127 Y9.8209
G01 X52.7900 Y9.8200
G01 X52.8673 Y9.8209
G01 X52.9446 Y9.8238
G01 X53.0217 Y9.8285
G01 X53.0988 Y9.8352
G01 X53.1756 Y9.8437
G01 X53.2400 Y9.8524
G00 Z2.0000
M05
G00 Z2.0000
G00 Z15.00


