(G-CODE GENERATED BY FLATCAM v8.994 - www.flatcam.org - Version Date: 2020/11/7)

(Name: Beecounter-PTH.drl_cnc)
(Type: G-code from Geometry)
(Units: MM)

(Created on Saturday, 25 January 2025 at 13:30)

(This preprocessor is the default preprocessor used by FlatCAM.)
(It is made to work with MACH3 compatible motion controllers.)


(TOOLS DIAMETER: )
(Tool: 1 -> Dia: 0.3)
(Tool: 2 -> Dia: 0.8)
(Tool: 3 -> Dia: 1.0)

(FEEDRATE Z: )
(Tool: 1 -> Feedrate: 50.0)
(Tool: 2 -> Feedrate: 300)
(Tool: 3 -> Feedrate: 300)

(FEEDRATE RAPIDS: )
(Tool: 1 -> Feedrate Rapids: 1500)
(Tool: 2 -> Feedrate Rapids: 1500)
(Tool: 3 -> Feedrate Rapids: 1500)

(Z_CUT: )
(Tool: 1 -> Z_Cut: -1.7)
(Tool: 2 -> Z_Cut: -1.7)
(Tool: 3 -> Z_Cut: -1.7)

(Tools Offset: )
(Tool: 1 -> Offset Z: 0.0)

(Z_MOVE: )
(Tool: 1 -> Z_Move: 2)
(Tool: 2 -> Z_Move: 2)
(Tool: 3 -> Z_Move: 2)

(Z Toolchange: 15 mm)
(X,Y Toolchange: 0.0000, 0.0000 mm)
(Z Start: None mm)
(Z End: 0.5 mm)
(X,Y End: None mm)
(Steps per circle: 64)
(Preprocessor Excellon: default)

(X range:    3.5400 ...   52.8000  mm)
(Y range:    1.8900 ...  158.2000  mm)

(Spindle Speed: 0 RPM)
G21
G90
G94

G01 F50.00

M5
G00 Z15.0000
T1
G00 X0.0000 Y0.0000                
M6
(MSG, Change to Tool Dia = 0.3000 ||| Total drills for tool T1 = 93)
M0
G00 Z15.0000

G01 F50.00
M03
G00 X4.4870 Y130.6450
G01 Z-1.7000
G01 Z0
G00 Z2.0000
G00 X7.8200 Y130.5850
G01 Z-1.7000
G01 Z0
G00 Z2.0000
G00 X14.4200 Y132.2400
G01 Z-1.7000
G01 Z0
G00 Z2.0000
G00 X14.3700 Y124.8900
G01 Z-1.7000
G01 Z0
G00 Z2.0000
G00 X14.3870 Y123.6450
G01 Z-1.7000
G01 Z0
G00 Z2.0000
G00 X21.8870 Y128.0450
G01 Z-1.7000
G01 Z0
G00 Z2.0000
G00 X24.1880 Y128.0450
G01 Z-1.7000
G01 Z0
G00 Z2.0000
G00 X33.0200 Y132.9900
G01 Z-1.7000
G01 Z0
G00 Z2.0000
G00 X30.7200 Y132.9900
G01 Z-1.7000
G01 Z0
G00 Z2.0000
G00 X20.4700 Y142.1400
G01 Z-1.7000
G01 Z0
G00 Z2.0000
G00 X24.3700 Y143.2900
G01 Z-1.7000
G01 Z0
G00 Z2.0000
G00 X26.9200 Y145.5900
G01 Z-1.7000
G01 Z0
G00 Z2.0000
G00 X28.2200 Y143.2400
G01 Z-1.7000
G01 Z0
G00 Z2.0000
G00 X38.6200 Y144.4900
G01 Z-1.7000
G01 Z0
G00 Z2.0000
G00 X39.2200 Y145.5900
G01 Z-1.7000
G01 Z0
G00 Z2.0000
G00 X42.3700 Y143.5400
G01 Z-1.7000
G01 Z0
G00 Z2.0000
G00 X41.4200 Y142.1400
G01 Z-1.7000
G01 Z0
G00 Z2.0000
G00 X40.5700 Y137.4400
G01 Z-1.7000
G01 Z0
G00 Z2.0000
G00 X40.5200 Y136.0900
G01 Z-1.7000
G01 Z0
G00 Z2.0000
G00 X47.0700 Y130.4850
G01 Z-1.7000
G01 Z0
G00 Z2.0000
G00 X40.5370 Y128.7450
G01 Z-1.7000
G01 Z0
G00 Z2.0000
G00 X40.5700 Y117.3900
G01 Z-1.7000
G01 Z0
G00 Z2.0000
G00 X40.6200 Y116.0900
G01 Z-1.7000
G01 Z0
G00 Z2.0000
G00 X47.0200 Y110.4350
G01 Z-1.7000
G01 Z0
G00 Z2.0000
G00 X40.6380 Y108.7450
G01 Z-1.7000
G01 Z0
G00 Z2.0000
G00 X33.0200 Y112.9200
G01 Z-1.7000
G01 Z0
G00 Z2.0000
G00 X30.7200 Y112.9200
G01 Z-1.7000
G01 Z0
G00 Z2.0000
G00 X24.2200 Y108.0020
G01 Z-1.7000
G01 Z0
G00 Z2.0000
G00 X21.9200 Y108.0020
G01 Z-1.7000
G01 Z0
G00 Z2.0000
G00 X30.7700 Y92.9200
G01 Z-1.7000
G01 Z0
G00 Z2.0000
G00 X33.0700 Y92.9200
G01 Z-1.7000
G01 Z0
G00 Z2.0000
G00 X40.6200 Y97.4400
G01 Z-1.7000
G01 Z0
G00 Z2.0000
G00 X40.5700 Y96.0900
G01 Z-1.7000
G01 Z0
G00 Z2.0000
G00 X46.9700 Y90.4350
G01 Z-1.7000
G01 Z0
G00 Z2.0000
G00 X40.5870 Y88.7450
G01 Z-1.7000
G01 Z0
G00 Z2.0000
G00 X40.5700 Y77.3900
G01 Z-1.7000
G01 Z0
G00 Z2.0000
G00 X40.4700 Y76.0400
G01 Z-1.7000
G01 Z0
G00 Z2.0000
G00 X46.9200 Y70.4350
G01 Z-1.7000
G01 Z0
G00 Z2.0000
G00 X40.4870 Y68.6950
G01 Z-1.7000
G01 Z0
G00 Z2.0000
G00 X40.6200 Y57.3900
G01 Z-1.7000
G01 Z0
G00 Z2.0000
G00 X40.5200 Y56.0900
G01 Z-1.7000
G01 Z0
G00 Z2.0000
G00 X47.0200 Y50.4350
G01 Z-1.7000
G01 Z0
G00 Z2.0000
G00 X40.5370 Y48.7950
G01 Z-1.7000
G01 Z0
G00 Z2.0000
G00 X40.5700 Y37.3900
G01 Z-1.7000
G01 Z0
G00 Z2.0000
G00 X40.5200 Y36.2400
G01 Z-1.7000
G01 Z0
G00 Z2.0000
G00 X46.9700 Y30.4350
G01 Z-1.7000
G01 Z0
G00 Z2.0000
G00 X40.5370 Y28.9150
G01 Z-1.7000
G01 Z0
G00 Z2.0000
G00 X40.5700 Y17.3900
G01 Z-1.7000
G01 Z0
G00 Z2.0000
G00 X40.5700 Y16.2400
G01 Z-1.7000
G01 Z0
G00 Z2.0000
G00 X46.8700 Y10.4350
G01 Z-1.7000
G01 Z0
G00 Z2.0000
G00 X40.5870 Y8.9150
G01 Z-1.7000
G01 Z0
G00 Z2.0000
G00 X33.0200 Y12.9700
G01 Z-1.7000
G01 Z0
G00 Z2.0000
G00 X30.7200 Y12.9700
G01 Z-1.7000
G01 Z0
G00 Z2.0000
G00 X24.2200 Y8.0020
G01 Z-1.7000
G01 Z0
G00 Z2.0000
G00 X21.9200 Y8.0020
G01 Z-1.7000
G01 Z0
G00 Z2.0000
G00 X14.4200 Y3.5900
G01 Z-1.7000
G01 Z0
G00 Z2.0000
G00 X14.2450 Y4.8900
G01 Z-1.7000
G01 Z0
G00 Z2.0000
G00 X8.0200 Y10.5350
G01 Z-1.7000
G01 Z0
G00 Z2.0000
G00 X14.2950 Y12.2400
G01 Z-1.7000
G01 Z0
G00 Z2.0000
G00 X14.4200 Y23.6900
G01 Z-1.7000
G01 Z0
G00 Z2.0000
G00 X14.2450 Y24.8900
G01 Z-1.7000
G01 Z0
G00 Z2.0000
G00 X7.9200 Y30.5350
G01 Z-1.7000
G01 Z0
G00 Z2.0000
G00 X14.2950 Y32.2400
G01 Z-1.7000
G01 Z0
G00 Z2.0000
G00 X21.9200 Y28.0020
G01 Z-1.7000
G01 Z0
G00 Z2.0000
G00 X24.2200 Y28.0020
G01 Z-1.7000
G01 Z0
G00 Z2.0000
G00 X30.7200 Y32.9200
G01 Z-1.7000
G01 Z0
G00 Z2.0000
G00 X33.0200 Y32.9200
G01 Z-1.7000
G01 Z0
G00 Z2.0000
G00 X33.0700 Y52.9700
G01 Z-1.7000
G01 Z0
G00 Z2.0000
G00 X30.7700 Y52.9700
G01 Z-1.7000
G01 Z0
G00 Z2.0000
G00 X24.2200 Y48.0020
G01 Z-1.7000
G01 Z0
G00 Z2.0000
G00 X21.9200 Y48.0020
G01 Z-1.7000
G01 Z0
G00 Z2.0000
G00 X14.4200 Y43.6900
G01 Z-1.7000
G01 Z0
G00 Z2.0000
G00 X14.2450 Y44.9400
G01 Z-1.7000
G01 Z0
G00 Z2.0000
G00 X7.8700 Y50.5350
G01 Z-1.7000
G01 Z0
G00 Z2.0000
G00 X14.2950 Y52.2900
G01 Z-1.7000
G01 Z0
G00 Z2.0000
G00 X14.4200 Y63.5900
G01 Z-1.7000
G01 Z0
G00 Z2.0000
G00 X14.2450 Y64.8900
G01 Z-1.7000
G01 Z0
G00 Z2.0000
G00 X7.9700 Y70.5350
G01 Z-1.7000
G01 Z0
G00 Z2.0000
G00 X14.2950 Y72.2400
G01 Z-1.7000
G01 Z0
G00 Z2.0000
G00 X21.9200 Y68.0020
G01 Z-1.7000
G01 Z0
G00 Z2.0000
G00 X24.2200 Y68.0020
G01 Z-1.7000
G01 Z0
G00 Z2.0000
G00 X30.7200 Y72.9700
G01 Z-1.7000
G01 Z0
G00 Z2.0000
G00 X33.0200 Y72.9700
G01 Z-1.7000
G01 Z0
G00 Z2.0000
G00 X24.2200 Y88.0030
G01 Z-1.7000
G01 Z0
G00 Z2.0000
G00 X21.9200 Y88.0030
G01 Z-1.7000
G01 Z0
G00 Z2.0000
G00 X14.4200 Y83.6400
G01 Z-1.7000
G01 Z0
G00 Z2.0000
G00 X14.2450 Y84.9400
G01 Z-1.7000
G01 Z0
G00 Z2.0000
G00 X7.9200 Y90.5350
G01 Z-1.7000
G01 Z0
G00 Z2.0000
G00 X14.2950 Y92.2900
G01 Z-1.7000
G01 Z0
G00 Z2.0000
G00 X14.4200 Y103.5900
G01 Z-1.7000
G01 Z0
G00 Z2.0000
G00 X14.2450 Y104.9400
G01 Z-1.7000
G01 Z0
G00 Z2.0000
G00 X14.2950 Y112.2900
G01 Z-1.7000
G01 Z0
G00 Z2.0000
G00 X7.8700 Y110.5350
G01 Z-1.7000
G01 Z0
G00 Z2.0000
M05
G00 Z0.50


