(G-CODE GENERATED BY FLATCAM v8.994 - www.flatcam.org - Version Date: 2020/11/7)

(Name: Beecounter-F_Cu.gbr_iso_combined_cnc)
(Type: G-code from Geometry)
(Units: MM)

(Created on Saturday, 01 February 2025 at 15:37)

(This preprocessor is the default preprocessor used by FlatCAM.)
(It is made to work with MACH3 compatible motion controllers.)

(TOOL DIAMETER: 0.4 mm)
(Feedrate_XY: 120.0 mm/min)
(Feedrate_Z: 60.0 mm/min)
(Feedrate rapids 1500.0 mm/min)

(Z_Cut: -0.1 mm)
(Z_Move: 2.0 mm)
(Z Start: None mm)
(Z End: 15.0 mm)
(X,Y End: None mm)
(Steps per circle: 64)
(Preprocessor Geometry: default)

(X range:   -0.3000 ...   55.3100  mm)
(Y range:   -0.3000 ...  160.3000  mm)

(Spindle Speed: 0.0 RPM)
G21
G90
G94

G01 F120.00

M5
G00 Z15.0000
G00 X0.0000 Y0.0000
T1
M6    
(MSG, Change to Tool Dia = 0.4000)
M0
G00 Z15.0000

M03
G01 F120.00
G00 X3.3370 Y3.0532
G01 F60.00
G01 Z-0.1000
G01 F120.00
G01 X3.3370 Y2.8368
G01 X3.3650 Y2.6238
G01 X3.4212 Y2.4133
G01 X3.5040 Y2.2134
G01 X3.5191 Y2.1873
G01 X3.6122 Y2.0261
G01 X3.7439 Y1.8544
G01 X3.8969 Y1.7014
G01 X4.0686 Y1.5697
G01 X4.2559 Y1.4615
G01 X4.4558 Y1.3787
G01 X4.6648 Y1.3227
G01 X4.8793 Y1.2945
G01 X5.0957 Y1.2945
G01 X5.3102 Y1.3227
G01 X5.5192 Y1.3787
G01 X5.7191 Y1.4615
G01 X5.9064 Y1.5697
G01 X6.0781 Y1.7014
G01 X6.2311 Y1.8544
G01 X6.3628 Y2.0261
G01 X6.4710 Y2.2134
G01 X6.5538 Y2.4133
G01 X6.6098 Y2.6223
G01 X6.6380 Y2.8368
G01 X6.6380 Y3.0532
G01 X6.6098 Y3.2677
G01 X6.5538 Y3.4767
G01 X6.4710 Y3.6766
G01 X6.3628 Y3.8639
G01 X6.2311 Y4.0356
G01 X6.0781 Y4.1886
G01 X5.9064 Y4.3203
G01 X5.7191 Y4.4285
G01 X5.5192 Y4.5113
G01 X5.3102 Y4.5673
G01 X5.0957 Y4.5955
G01 X4.8793 Y4.5955
G01 X4.6648 Y4.5673
G01 X4.4558 Y4.5113
G01 X4.2559 Y4.4285
G01 X4.0686 Y4.3203
G01 X3.8969 Y4.1886
G01 X3.7439 Y4.0356
G01 X3.6122 Y3.8639
G01 X3.5040 Y3.6766
G01 X3.4212 Y3.4767
G01 X3.3652 Y3.2677
G01 X3.3370 Y3.0532
G00 Z2.0000
G00 X3.4560 Y10.3898
G01 F60.00
G01 Z-0.1000
G01 F120.00
G01 X3.4598 Y10.3706
G01 X3.4827 Y10.2802
G01 X3.5174 Y10.1832
G01 X3.5615 Y10.0900
G01 X3.6145 Y10.0017
G01 X3.6758 Y9.9189
G01 X3.7450 Y9.8425
G01 X3.8214 Y9.7733
G01 X3.9042 Y9.7120
G01 X3.9925 Y9.6590
G01 X4.0857 Y9.6149
G01 X4.1827 Y9.5802
G01 X4.2822 Y9.5553
G01 X4.2923 Y9.5535
G01 X4.3846 Y9.5401
G01 X4.4875 Y9.5350
G01 X4.5904 Y9.5401
G01 X4.6923 Y9.5552
G01 X4.7923 Y9.5802
G01 X4.8893 Y9.6149
G01 X4.9825 Y9.6590
G01 X5.0708 Y9.7120
G01 X5.1536 Y9.7733
G01 X5.2300 Y9.8425
G01 X5.2992 Y9.9189
G01 X5.3605 Y10.0017
G01 X5.4135 Y10.0900
G01 X5.4576 Y10.1832
G01 X5.4923 Y10.2802
G01 X5.5172 Y10.3797
G01 X5.5190 Y10.3898
G01 X5.5324 Y10.4821
G01 X5.5375 Y10.5850
G01 X5.5324 Y10.6879
G01 X5.5173 Y10.7898
G01 X5.4924 Y10.8894
G01 X5.4892 Y10.8991
G01 X5.4576 Y10.9868
G01 X5.4135 Y11.0800
G01 X5.3605 Y11.1683
G01 X5.2992 Y11.2511
G01 X5.2300 Y11.3275
G01 X5.1536 Y11.3967
G01 X5.0708 Y11.4580
G01 X4.9825 Y11.5110
G01 X4.8893 Y11.5551
G01 X4.7923 Y11.5898
G01 X4.6923 Y11.6148
G01 X4.5904 Y11.6299
G01 X4.4875 Y11.6350
G01 X4.3846 Y11.6299
G01 X4.2827 Y11.6148
G01 X4.1831 Y11.5899
G01 X4.1734 Y11.5867
G01 X4.0857 Y11.5551
G01 X3.9925 Y11.5110
G01 X3.9042 Y11.4580
G01 X3.8214 Y11.3967
G01 X3.7450 Y11.3275
G01 X3.6758 Y11.2511
G01 X3.6145 Y11.1683
G01 X3.5615 Y11.0800
G01 X3.5174 Y10.9868
G01 X3.4827 Y10.8898
G01 X3.4577 Y10.7898
G01 X3.4426 Y10.6879
G01 X3.4375 Y10.5850
G01 X3.4426 Y10.4821
G01 X3.4560 Y10.3898
G00 Z2.0000
G00 X3.4285 Y13.5750
G01 F60.00
G01 Z-0.1000
G01 F120.00
G01 X3.5399 Y13.5750
G01 X3.5571 Y13.6112
G01 X3.5638 Y13.6243
G01 X3.6092 Y13.7001
G01 X3.6172 Y13.7124
G01 X3.6758 Y13.7911
G01 X3.7450 Y13.8675
G01 X3.8214 Y13.9367
G01 X3.9001 Y13.9953
G01 X3.9124 Y14.0033
G01 X3.9882 Y14.0487
G01 X4.0013 Y14.0554
G01 X4.0375 Y14.0726
G01 X4.0375 Y14.1840
G01 X3.9103 Y14.1247
G01 X3.7455 Y14.0093
G01 X3.6032 Y13.8670
G01 X3.4878 Y13.7022
G01 X3.4285 Y13.5750
G00 Z2.0000
G00 X4.9375 Y14.1366
G01 F60.00
G01 Z-0.1000
G01 F120.00
G01 X4.9699 Y14.1689
G01 X4.9375 Y14.1840
G01 X4.9375 Y14.1366
G00 Z2.0000
G00 X3.3370 Y18.0532
G01 F60.00
G01 Z-0.1000
G01 F120.00
G01 X3.3370 Y17.8368
G01 X3.3652 Y17.6223
G01 X3.4212 Y17.4133
G01 X3.5040 Y17.2134
G01 X3.6122 Y17.0261
G01 X3.7439 Y16.8544
G01 X3.8969 Y16.7014
G01 X3.9611 Y16.6522
G01 X4.0686 Y16.5697
G01 X4.2559 Y16.4615
G01 X4.4558 Y16.3787
G01 X4.6648 Y16.3227
G01 X4.8793 Y16.2945
G01 X5.0957 Y16.2945
G01 X5.3102 Y16.3227
G01 X5.5192 Y16.3787
G01 X5.7191 Y16.4615
G01 X5.9064 Y16.5697
G01 X6.0781 Y16.7014
G01 X6.2311 Y16.8544
G01 X6.3628 Y17.0261
G01 X6.4710 Y17.2134
G01 X6.5538 Y17.4133
G01 X6.6098 Y17.6223
G01 X6.6380 Y17.8368
G01 X6.6380 Y18.0532
G01 X6.6098 Y18.2677
G01 X6.5538 Y18.4767
G01 X6.4710 Y18.6766
G01 X6.3628 Y18.8639
G01 X6.2311 Y19.0356
G01 X6.0781 Y19.1886
G01 X5.9064 Y19.3203
G01 X5.7191 Y19.4285
G01 X5.5192 Y19.5113
G01 X5.3102 Y19.5673
G01 X5.0957 Y19.5955
G01 X4.8793 Y19.5955
G01 X4.6648 Y19.5673
G01 X4.4558 Y19.5113
G01 X4.2559 Y19.4285
G01 X4.0854 Y19.3300
G01 X4.0686 Y19.3203
G01 X3.8969 Y19.1886
G01 X3.7439 Y19.0356
G01 X3.6122 Y18.8639
G01 X3.5040 Y18.6766
G01 X3.4212 Y18.4767
G01 X3.3652 Y18.2677
G01 X3.3370 Y18.0532
G00 Z2.0000
G00 X3.3370 Y23.0532
G01 F60.00
G01 Z-0.1000
G01 F120.00
G01 X3.3370 Y22.8368
G01 X3.3650 Y22.6238
G01 X3.4212 Y22.4133
G01 X3.5040 Y22.2134
G01 X3.5191 Y22.1873
G01 X3.6122 Y22.0261
G01 X3.7439 Y21.8544
G01 X3.8969 Y21.7014
G01 X4.0686 Y21.5697
G01 X4.2559 Y21.4615
G01 X4.4558 Y21.3787
G01 X4.6648 Y21.3227
G01 X4.8793 Y21.2945
G01 X5.0957 Y21.2945
G01 X5.3102 Y21.3227
G01 X5.5192 Y21.3787
G01 X5.7191 Y21.4615
G01 X5.9064 Y21.5697
G01 X6.0781 Y21.7014
G01 X6.2311 Y21.8544
G01 X6.3628 Y22.0261
G01 X6.4710 Y22.2134
G01 X6.5538 Y22.4133
G01 X6.6098 Y22.6223
G01 X6.6380 Y22.8368
G01 X6.6380 Y23.0532
G01 X6.6098 Y23.2677
G01 X6.5538 Y23.4767
G01 X6.4710 Y23.6766
G01 X6.3628 Y23.8639
G01 X6.2311 Y24.0356
G01 X6.0781 Y24.1886
G01 X5.9064 Y24.3203
G01 X5.7191 Y24.4285
G01 X5.5192 Y24.5113
G01 X5.3102 Y24.5673
G01 X5.0957 Y24.5955
G01 X4.8793 Y24.5955
G01 X4.6648 Y24.5673
G01 X4.4558 Y24.5113
G01 X4.2559 Y24.4285
G01 X4.0686 Y24.3203
G01 X3.8969 Y24.1886
G01 X3.7439 Y24.0356
G01 X3.6122 Y23.8639
G01 X3.5040 Y23.6766
G01 X3.4212 Y23.4767
G01 X3.3652 Y23.2677
G01 X3.3370 Y23.0532
G00 Z2.0000
G00 X3.4560 Y30.3898
G01 F60.00
G01 Z-0.1000
G01 F120.00
G01 X3.4598 Y30.3706
G01 X3.4827 Y30.2802
G01 X3.5174 Y30.1832
G01 X3.5615 Y30.0900
G01 X3.6145 Y30.0017
G01 X3.6758 Y29.9189
G01 X3.7450 Y29.8425
G01 X3.8214 Y29.7733
G01 X3.9042 Y29.7120
G01 X3.9925 Y29.6590
G01 X4.0857 Y29.6149
G01 X4.1827 Y29.5802
G01 X4.2822 Y29.5553
G01 X4.2923 Y29.5535
G01 X4.3846 Y29.5401
G01 X4.4875 Y29.5350
G01 X4.5904 Y29.5401
G01 X4.6923 Y29.5552
G01 X4.7923 Y29.5802
G01 X4.8893 Y29.6149
G01 X4.9825 Y29.6590
G01 X5.0708 Y29.7120
G01 X5.1536 Y29.7733
G01 X5.2300 Y29.8425
G01 X5.2992 Y29.9189
G01 X5.3605 Y30.0017
G01 X5.4135 Y30.0900
G01 X5.4576 Y30.1832
G01 X5.4923 Y30.2802
G01 X5.5172 Y30.3797
G01 X5.5190 Y30.3898
G01 X5.5324 Y30.4821
G01 X5.5375 Y30.5850
G01 X5.5324 Y30.6879
G01 X5.5173 Y30.7898
G01 X5.4924 Y30.8894
G01 X5.4892 Y30.8991
G01 X5.4576 Y30.9868
G01 X5.4135 Y31.0800
G01 X5.3605 Y31.1683
G01 X5.2992 Y31.2511
G01 X5.2300 Y31.3275
G01 X5.1536 Y31.3967
G01 X5.0708 Y31.4580
G01 X4.9825 Y31.5110
G01 X4.8893 Y31.5551
G01 X4.7923 Y31.5898
G01 X4.6923 Y31.6148
G01 X4.5904 Y31.6299
G01 X4.4875 Y31.6350
G01 X4.3846 Y31.6299
G01 X4.2827 Y31.6148
G01 X4.1827 Y31.5898
G01 X4.0857 Y31.5551
G01 X3.9925 Y31.5110
G01 X3.9042 Y31.4580
G01 X3.8214 Y31.3967
G01 X3.7450 Y31.3275
G01 X3.6758 Y31.2511
G01 X3.6145 Y31.1683
G01 X3.5615 Y31.0800
G01 X3.5174 Y30.9868
G01 X3.4827 Y30.8898
G01 X3.4577 Y30.7898
G01 X3.4426 Y30.6879
G01 X3.4375 Y30.5850
G01 X3.4426 Y30.4821
G01 X3.4560 Y30.3898
G00 Z2.0000
G00 X3.4285 Y33.5750
G01 F60.00
G01 Z-0.1000
G01 F120.00
G01 X3.5399 Y33.5750
G01 X3.5571 Y33.6112
G01 X3.5638 Y33.6243
G01 X3.6092 Y33.7001
G01 X3.6172 Y33.7124
G01 X3.6758 Y33.7911
G01 X3.7450 Y33.8675
G01 X3.8214 Y33.9367
G01 X3.9001 Y33.9953
G01 X3.9124 Y34.0033
G01 X3.9882 Y34.0487
G01 X4.0013 Y34.0554
G01 X4.0375 Y34.0726
G01 X4.0375 Y34.1840
G01 X3.9103 Y34.1247
G01 X3.7455 Y34.0093
G01 X3.6032 Y33.8670
G01 X3.4878 Y33.7022
G01 X3.4285 Y33.5750
G00 Z2.0000
G00 X4.9375 Y34.1366
G01 F60.00
G01 Z-0.1000
G01 F120.00
G01 X4.9699 Y34.1689
G01 X4.9375 Y34.1840
G01 X4.9375 Y34.1366
G00 Z2.0000
G00 X3.3370 Y38.0532
G01 F60.00
G01 Z-0.1000
G01 F120.00
G01 X3.3370 Y37.8368
G01 X3.3652 Y37.6223
G01 X3.4212 Y37.4133
G01 X3.5040 Y37.2134
G01 X3.5196 Y37.1866
G01 X3.6122 Y37.0261
G01 X3.7439 Y36.8544
G01 X3.8969 Y36.7014
G01 X4.0686 Y36.5697
G01 X4.2559 Y36.4615
G01 X4.4558 Y36.3787
G01 X4.6648 Y36.3227
G01 X4.8793 Y36.2945
G01 X5.0957 Y36.2945
G01 X5.3102 Y36.3227
G01 X5.5192 Y36.3787
G01 X5.7191 Y36.4615
G01 X5.9064 Y36.5697
G01 X6.0781 Y36.7014
G01 X6.2311 Y36.8544
G01 X6.3628 Y37.0261
G01 X6.4710 Y37.2134
G01 X6.5538 Y37.4133
G01 X6.6098 Y37.6223
G01 X6.6380 Y37.8368
G01 X6.6380 Y38.0532
G01 X6.6098 Y38.2677
G01 X6.5538 Y38.4767
G01 X6.4710 Y38.6766
G01 X6.3628 Y38.8639
G01 X6.2311 Y39.0356
G01 X6.0781 Y39.1886
G01 X5.9064 Y39.3203
G01 X5.7191 Y39.4285
G01 X5.5192 Y39.5113
G01 X5.3102 Y39.5673
G01 X5.0957 Y39.5955
G01 X4.8793 Y39.5955
G01 X4.6648 Y39.5673
G01 X4.4558 Y39.5113
G01 X4.2559 Y39.4285
G01 X4.1377 Y39.3602
G01 X4.0686 Y39.3203
G01 X3.8969 Y39.1886
G01 X3.7439 Y39.0356
G01 X3.6122 Y38.8639
G01 X3.5040 Y38.6766
G01 X3.4212 Y38.4767
G01 X3.3652 Y38.2677
G01 X3.3370 Y38.0532
G00 Z2.0000
G00 X3.3370 Y43.0532
G01 F60.00
G01 Z-0.1000
G01 F120.00
G01 X3.3370 Y42.8368
G01 X3.3650 Y42.6238
G01 X3.4212 Y42.4133
G01 X3.5040 Y42.2134
G01 X3.6122 Y42.0261
G01 X3.7439 Y41.8544
G01 X3.8969 Y41.7014
G01 X3.9314 Y41.6750
G01 X4.0686 Y41.5697
G01 X4.2559 Y41.4615
G01 X4.4558 Y41.3787
G01 X4.6648 Y41.3227
G01 X4.8793 Y41.2945
G01 X5.0957 Y41.2945
G01 X5.3102 Y41.3227
G01 X5.5192 Y41.3787
G01 X5.7191 Y41.4615
G01 X5.9064 Y41.5697
G01 X6.0781 Y41.7014
G01 X6.2311 Y41.8544
G01 X6.3628 Y42.0261
G01 X6.4710 Y42.2134
G01 X6.5538 Y42.4133
G01 X6.6098 Y42.6223
G01 X6.6380 Y42.8368
G01 X6.6380 Y43.0532
G01 X6.6098 Y43.2677
G01 X6.5538 Y43.4767
G01 X6.4710 Y43.6766
G01 X6.3628 Y43.8639
G01 X6.2311 Y44.0356
G01 X6.0781 Y44.1886
G01 X5.9064 Y44.3203
G01 X5.7191 Y44.4285
G01 X5.5192 Y44.5113
G01 X5.3102 Y44.5673
G01 X5.0957 Y44.5955
G01 X4.8793 Y44.5955
G01 X4.6648 Y44.5673
G01 X4.4558 Y44.5113
G01 X4.2559 Y44.4285
G01 X4.0686 Y44.3203
G01 X3.8969 Y44.1886
G01 X3.7439 Y44.0356
G01 X3.6122 Y43.8639
G01 X3.5040 Y43.6766
G01 X3.4212 Y43.4767
G01 X3.3652 Y43.2677
G01 X3.3370 Y43.0532
G00 Z2.0000
G00 X3.4560 Y50.3898
G01 F60.00
G01 Z-0.1000
G01 F120.00
G01 X3.4598 Y50.3706
G01 X3.4827 Y50.2802
G01 X3.5174 Y50.1832
G01 X3.5615 Y50.0900
G01 X3.6145 Y50.0017
G01 X3.6758 Y49.9189
G01 X3.7450 Y49.8425
G01 X3.8214 Y49.7733
G01 X3.9042 Y49.7120
G01 X3.9925 Y49.6590
G01 X4.0857 Y49.6149
G01 X4.1827 Y49.5802
G01 X4.2822 Y49.5553
G01 X4.2923 Y49.5535
G01 X4.3846 Y49.5401
G01 X4.4875 Y49.5350
G01 X4.5904 Y49.5401
G01 X4.6923 Y49.5552
G01 X4.7923 Y49.5802
G01 X4.8893 Y49.6149
G01 X4.9825 Y49.6590
G01 X5.0708 Y49.7120
G01 X5.1536 Y49.7733
G01 X5.2300 Y49.8425
G01 X5.2992 Y49.9189
G01 X5.3605 Y50.0017
G01 X5.4135 Y50.0900
G01 X5.4576 Y50.1832
G01 X5.4923 Y50.2802
G01 X5.5172 Y50.3797
G01 X5.5190 Y50.3898
G01 X5.5324 Y50.4821
G01 X5.5375 Y50.5850
G01 X5.5324 Y50.6879
G01 X5.5173 Y50.7898
G01 X5.4924 Y50.8894
G01 X5.4892 Y50.8991
G01 X5.4576 Y50.9868
G01 X5.4135 Y51.0800
G01 X5.3605 Y51.1683
G01 X5.2992 Y51.2511
G01 X5.2300 Y51.3275
G01 X5.1536 Y51.3967
G01 X5.0708 Y51.4580
G01 X4.9825 Y51.5110
G01 X4.8893 Y51.5551
G01 X4.7923 Y51.5898
G01 X4.6923 Y51.6148
G01 X4.5904 Y51.6299
G01 X4.4875 Y51.6350
G01 X4.3846 Y51.6299
G01 X4.2827 Y51.6148
G01 X4.1827 Y51.5898
G01 X4.0857 Y51.5551
G01 X3.9925 Y51.5110
G01 X3.9042 Y51.4580
G01 X3.8214 Y51.3967
G01 X3.7450 Y51.3275
G01 X3.6758 Y51.2511
G01 X3.6145 Y51.1683
G01 X3.5615 Y51.0800
G01 X3.5174 Y50.9868
G01 X3.4827 Y50.8898
G01 X3.4577 Y50.7898
G01 X3.4426 Y50.6879
G01 X3.4375 Y50.5850
G01 X3.4426 Y50.4821
G01 X3.4560 Y50.3898
G00 Z2.0000
G00 X3.4285 Y53.5750
G01 F60.00
G01 Z-0.1000
G01 F120.00
G01 X3.5399 Y53.5750
G01 X3.5571 Y53.6112
G01 X3.5638 Y53.6243
G01 X3.6092 Y53.7001
G01 X3.6172 Y53.7124
G01 X3.6758 Y53.7911
G01 X3.7450 Y53.8675
G01 X3.8214 Y53.9367
G01 X3.9001 Y53.9953
G01 X3.9124 Y54.0033
G01 X3.9882 Y54.0487
G01 X4.0013 Y54.0554
G01 X4.0375 Y54.0726
G01 X4.0375 Y54.1840
G01 X3.9103 Y54.1247
G01 X3.7455 Y54.0093
G01 X3.6032 Y53.8670
G01 X3.4878 Y53.7022
G01 X3.4285 Y53.5750
G00 Z2.0000
G00 X4.9375 Y54.1366
G01 F60.00
G01 Z-0.1000
G01 F120.00
G01 X4.9699 Y54.1689
G01 X4.9375 Y54.1840
G01 X4.9375 Y54.1366
G00 Z2.0000
G00 X3.3370 Y58.0532
G01 F60.00
G01 Z-0.1000
G01 F120.00
G01 X3.3370 Y57.8368
G01 X3.3652 Y57.6223
G01 X3.4212 Y57.4133
G01 X3.5040 Y57.2134
G01 X3.6122 Y57.0261
G01 X3.7439 Y56.8544
G01 X3.8969 Y56.7014
G01 X4.0686 Y56.5697
G01 X4.2559 Y56.4615
G01 X4.4558 Y56.3787
G01 X4.6648 Y56.3227
G01 X4.8793 Y56.2945
G01 X5.0957 Y56.2945
G01 X5.3102 Y56.3227
G01 X5.5192 Y56.3787
G01 X5.7191 Y56.4615
G01 X5.9064 Y56.5697
G01 X6.0781 Y56.7014
G01 X6.2311 Y56.8544
G01 X6.3628 Y57.0261
G01 X6.4710 Y57.2134
G01 X6.5538 Y57.4133
G01 X6.6098 Y57.6223
G01 X6.6380 Y57.8368
G01 X6.6380 Y58.0532
G01 X6.6098 Y58.2677
G01 X6.5538 Y58.4767
G01 X6.4710 Y58.6766
G01 X6.3628 Y58.8639
G01 X6.2311 Y59.0356
G01 X6.0781 Y59.1886
G01 X5.9064 Y59.3203
G01 X5.7191 Y59.4285
G01 X5.5192 Y59.5113
G01 X5.3102 Y59.5673
G01 X5.0957 Y59.5955
G01 X4.8793 Y59.5955
G01 X4.6648 Y59.5673
G01 X4.4558 Y59.5113
G01 X4.2559 Y59.4285
G01 X4.0686 Y59.3203
G01 X3.8969 Y59.1886
G01 X3.7439 Y59.0356
G01 X3.6122 Y58.8639
G01 X3.5040 Y58.6766
G01 X3.4212 Y58.4767
G01 X3.3652 Y58.2677
G01 X3.3370 Y58.0532
G00 Z2.0000
G00 X3.3370 Y63.0532
G01 F60.00
G01 Z-0.1000
G01 F120.00
G01 X3.3370 Y62.8368
G01 X3.3650 Y62.6238
G01 X3.4212 Y62.4133
G01 X3.5040 Y62.2134
G01 X3.5191 Y62.1873
G01 X3.6122 Y62.0261
G01 X3.7439 Y61.8544
G01 X3.8969 Y61.7014
G01 X3.9314 Y61.6750
G01 X4.0686 Y61.5697
G01 X4.2559 Y61.4615
G01 X4.4558 Y61.3787
G01 X4.6648 Y61.3227
G01 X4.8793 Y61.2945
G01 X5.0957 Y61.2945
G01 X5.3102 Y61.3227
G01 X5.5192 Y61.3787
G01 X5.7191 Y61.4615
G01 X5.9064 Y61.5697
G01 X6.0781 Y61.7014
G01 X6.2311 Y61.8544
G01 X6.3628 Y62.0261
G01 X6.4710 Y62.2134
G01 X6.5538 Y62.4133
G01 X6.6098 Y62.6223
G01 X6.6380 Y62.8368
G01 X6.6380 Y63.0532
G01 X6.6098 Y63.2677
G01 X6.5538 Y63.4767
G01 X6.4710 Y63.6766
G01 X6.3628 Y63.8639
G01 X6.2311 Y64.0356
G01 X6.0781 Y64.1886
G01 X5.9064 Y64.3203
G01 X5.7191 Y64.4285
G01 X5.5192 Y64.5113
G01 X5.3102 Y64.5673
G01 X5.0957 Y64.5955
G01 X4.8793 Y64.5955
G01 X4.6648 Y64.5673
G01 X4.4558 Y64.5113
G01 X4.2559 Y64.4285
G01 X4.0686 Y64.3203
G01 X3.8969 Y64.1886
G01 X3.7439 Y64.0356
G01 X3.6122 Y63.8639
G01 X3.5040 Y63.6766
G01 X3.4212 Y63.4767
G01 X3.3652 Y63.2677
G01 X3.3370 Y63.0532
G00 Z2.0000
G00 X3.4560 Y70.3898
G01 F60.00
G01 Z-0.1000
G01 F120.00
G01 X3.4598 Y70.3706
G01 X3.4827 Y70.2802
G01 X3.5174 Y70.1832
G01 X3.5615 Y70.0900
G01 X3.6145 Y70.0017
G01 X3.6758 Y69.9189
G01 X3.7450 Y69.8425
G01 X3.8214 Y69.7733
G01 X3.9042 Y69.7120
G01 X3.9925 Y69.6590
G01 X4.0857 Y69.6149
G01 X4.1827 Y69.5802
G01 X4.2822 Y69.5553
G01 X4.2923 Y69.5535
G01 X4.3846 Y69.5401
G01 X4.4875 Y69.5350
G01 X4.5904 Y69.5401
G01 X4.6923 Y69.5552
G01 X4.7923 Y69.5802
G01 X4.8893 Y69.6149
G01 X4.9825 Y69.6590
G01 X5.0708 Y69.7120
G01 X5.1536 Y69.7733
G01 X5.2300 Y69.8425
G01 X5.2992 Y69.9189
G01 X5.3605 Y70.0017
G01 X5.4135 Y70.0900
G01 X5.4576 Y70.1832
G01 X5.4923 Y70.2802
G01 X5.5172 Y70.3797
G01 X5.5190 Y70.3898
G01 X5.5324 Y70.4821
G01 X5.5375 Y70.5850
G01 X5.5324 Y70.6879
G01 X5.5173 Y70.7898
G01 X5.4924 Y70.8894
G01 X5.4892 Y70.8991
G01 X5.4576 Y70.9868
G01 X5.4135 Y71.0800
G01 X5.3605 Y71.1683
G01 X5.2992 Y71.2511
G01 X5.2300 Y71.3275
G01 X5.1536 Y71.3967
G01 X5.0708 Y71.4580
G01 X4.9825 Y71.5110
G01 X4.8893 Y71.5551
G01 X4.7923 Y71.5898
G01 X4.6923 Y71.6148
G01 X4.5904 Y71.6299
G01 X4.4875 Y71.6350
G01 X4.3846 Y71.6299
G01 X4.2827 Y71.6148
G01 X4.1827 Y71.5898
G01 X4.0857 Y71.5551
G01 X3.9925 Y71.5110
G01 X3.9042 Y71.4580
G01 X3.8214 Y71.3967
G01 X3.7450 Y71.3275
G01 X3.6758 Y71.2511
G01 X3.6145 Y71.1683
G01 X3.5615 Y71.0800
G01 X3.5174 Y70.9868
G01 X3.4827 Y70.8898
G01 X3.4577 Y70.7898
G01 X3.4426 Y70.6879
G01 X3.4375 Y70.5850
G01 X3.4426 Y70.4821
G01 X3.4560 Y70.3898
G00 Z2.0000
G00 X3.4285 Y73.5750
G01 F60.00
G01 Z-0.1000
G01 F120.00
G01 X3.5399 Y73.5750
G01 X3.5571 Y73.6112
G01 X3.5638 Y73.6243
G01 X3.6092 Y73.7001
G01 X3.6172 Y73.7124
G01 X3.6758 Y73.7911
G01 X3.7450 Y73.8675
G01 X3.8214 Y73.9367
G01 X3.9001 Y73.9953
G01 X3.9124 Y74.0033
G01 X3.9882 Y74.0487
G01 X4.0013 Y74.0554
G01 X4.0375 Y74.0726
G01 X4.0375 Y74.1840
G01 X3.9103 Y74.1247
G01 X3.7455 Y74.0093
G01 X3.6032 Y73.8670
G01 X3.4878 Y73.7022
G01 X3.4285 Y73.5750
G00 Z2.0000
G00 X4.9375 Y74.1366
G01 F60.00
G01 Z-0.1000
G01 F120.00
G01 X4.9699 Y74.1689
G01 X4.9375 Y74.1840
G01 X4.9375 Y74.1366
G00 Z2.0000
G00 X3.3370 Y78.0532
G01 F60.00
G01 Z-0.1000
G01 F120.00
G01 X3.3370 Y77.8368
G01 X3.3652 Y77.6223
G01 X3.4212 Y77.4133
G01 X3.5040 Y77.2134
G01 X3.5196 Y77.1866
G01 X3.6122 Y77.0261
G01 X3.7439 Y76.8544
G01 X3.8969 Y76.7014
G01 X4.0686 Y76.5697
G01 X4.2559 Y76.4615
G01 X4.4558 Y76.3787
G01 X4.6648 Y76.3227
G01 X4.8793 Y76.2945
G01 X5.0957 Y76.2945
G01 X5.3102 Y76.3227
G01 X5.5192 Y76.3787
G01 X5.7191 Y76.4615
G01 X5.9064 Y76.5697
G01 X6.0781 Y76.7014
G01 X6.2311 Y76.8544
G01 X6.3628 Y77.0261
G01 X6.4710 Y77.2134
G01 X6.5538 Y77.4133
G01 X6.6098 Y77.6223
G01 X6.6380 Y77.8368
G01 X6.6380 Y78.0532
G01 X6.6098 Y78.2677
G01 X6.5538 Y78.4767
G01 X6.4710 Y78.6766
G01 X6.3628 Y78.8639
G01 X6.2311 Y79.0356
G01 X6.0781 Y79.1886
G01 X5.9064 Y79.3203
G01 X5.7191 Y79.4285
G01 X5.5192 Y79.5113
G01 X5.3102 Y79.5673
G01 X5.0957 Y79.5955
G01 X4.8793 Y79.5955
G01 X4.6648 Y79.5673
G01 X4.4558 Y79.5113
G01 X4.2559 Y79.4285
G01 X4.0854 Y79.3300
G01 X4.0686 Y79.3203
G01 X3.8969 Y79.1886
G01 X3.7439 Y79.0356
G01 X3.6122 Y78.8639
G01 X3.5040 Y78.6766
G01 X3.4212 Y78.4767
G01 X3.3652 Y78.2677
G01 X3.3370 Y78.0532
G00 Z2.0000
G00 X3.3370 Y83.0532
G01 F60.00
G01 Z-0.1000
G01 F120.00
G01 X3.3370 Y82.8368
G01 X3.3650 Y82.6238
G01 X3.4212 Y82.4133
G01 X3.5040 Y82.2134
G01 X3.6122 Y82.0261
G01 X3.7439 Y81.8544
G01 X3.8969 Y81.7014
G01 X3.9314 Y81.6750
G01 X4.0686 Y81.5697
G01 X4.2559 Y81.4615
G01 X4.4558 Y81.3787
G01 X4.6648 Y81.3227
G01 X4.8793 Y81.2945
G01 X5.0957 Y81.2945
G01 X5.3102 Y81.3227
G01 X5.5192 Y81.3787
G01 X5.7191 Y81.4615
G01 X5.9064 Y81.5697
G01 X6.0781 Y81.7014
G01 X6.2311 Y81.8544
G01 X6.3628 Y82.0261
G01 X6.4710 Y82.2134
G01 X6.5538 Y82.4133
G01 X6.6098 Y82.6223
G01 X6.6380 Y82.8368
G01 X6.6380 Y83.0532
G01 X6.6303 Y83.1116
G01 X6.6098 Y83.2677
G01 X6.5538 Y83.4767
G01 X6.4710 Y83.6766
G01 X6.3628 Y83.8639
G01 X6.2311 Y84.0356
G01 X6.0781 Y84.1886
G01 X5.9064 Y84.3203
G01 X5.7191 Y84.4285
G01 X5.5192 Y84.5113
G01 X5.3102 Y84.5673
G01 X5.0957 Y84.5955
G01 X4.8793 Y84.5955
G01 X4.6648 Y84.5673
G01 X4.4558 Y84.5113
G01 X4.2559 Y84.4285
G01 X4.0686 Y84.3203
G01 X3.8969 Y84.1886
G01 X3.7439 Y84.0356
G01 X3.6122 Y83.8639
G01 X3.5040 Y83.6766
G01 X3.4212 Y83.4767
G01 X3.3652 Y83.2677
G01 X3.3370 Y83.0532
G00 Z2.0000
G00 X3.4560 Y90.3898
G01 F60.00
G01 Z-0.1000
G01 F120.00
G01 X3.4598 Y90.3706
G01 X3.4827 Y90.2802
G01 X3.5174 Y90.1832
G01 X3.5615 Y90.0900
G01 X3.6145 Y90.0017
G01 X3.6758 Y89.9189
G01 X3.7450 Y89.8425
G01 X3.8214 Y89.7733
G01 X3.9042 Y89.7120
G01 X3.9925 Y89.6590
G01 X4.0857 Y89.6149
G01 X4.1827 Y89.5802
G01 X4.2822 Y89.5553
G01 X4.2923 Y89.5535
G01 X4.3846 Y89.5401
G01 X4.4875 Y89.5350
G01 X4.5904 Y89.5401
G01 X4.6923 Y89.5552
G01 X4.7923 Y89.5802
G01 X4.8893 Y89.6149
G01 X4.9825 Y89.6590
G01 X5.0708 Y89.7120
G01 X5.1536 Y89.7733
G01 X5.2300 Y89.8425
G01 X5.2992 Y89.9189
G01 X5.3605 Y90.0017
G01 X5.4135 Y90.0900
G01 X5.4576 Y90.1832
G01 X5.4923 Y90.2802
G01 X5.5172 Y90.3797
G01 X5.5190 Y90.3898
G01 X5.5324 Y90.4821
G01 X5.5375 Y90.5850
G01 X5.5324 Y90.6879
G01 X5.5173 Y90.7898
G01 X5.4924 Y90.8894
G01 X5.4892 Y90.8991
G01 X5.4576 Y90.9868
G01 X5.4135 Y91.0800
G01 X5.3605 Y91.1683
G01 X5.2992 Y91.2511
G01 X5.2300 Y91.3275
G01 X5.1536 Y91.3967
G01 X5.0708 Y91.4580
G01 X4.9825 Y91.5110
G01 X4.8893 Y91.5551
G01 X4.7923 Y91.5898
G01 X4.6923 Y91.6148
G01 X4.5904 Y91.6299
G01 X4.4875 Y91.6350
G01 X4.3846 Y91.6299
G01 X4.2827 Y91.6148
G01 X4.1831 Y91.5899
G01 X4.1734 Y91.5867
G01 X4.0857 Y91.5551
G01 X3.9925 Y91.5110
G01 X3.9042 Y91.4580
G01 X3.8214 Y91.3967
G01 X3.7450 Y91.3275
G01 X3.6758 Y91.2511
G01 X3.6145 Y91.1683
G01 X3.5615 Y91.0800
G01 X3.5174 Y90.9868
G01 X3.4827 Y90.8898
G01 X3.4577 Y90.7898
G01 X3.4426 Y90.6879
G01 X3.4375 Y90.5850
G01 X3.4426 Y90.4821
G01 X3.4560 Y90.3898
G00 Z2.0000
G00 X3.4285 Y93.5750
G01 F60.00
G01 Z-0.1000
G01 F120.00
G01 X3.5399 Y93.5750
G01 X3.5571 Y93.6112
G01 X3.5638 Y93.6243
G01 X3.6092 Y93.7001
G01 X3.6172 Y93.7124
G01 X3.6758 Y93.7911
G01 X3.7450 Y93.8675
G01 X3.8214 Y93.9367
G01 X3.9001 Y93.9953
G01 X3.9124 Y94.0033
G01 X3.9882 Y94.0487
G01 X4.0013 Y94.0554
G01 X4.0375 Y94.0726
G01 X4.0375 Y94.1840
G01 X3.9103 Y94.1247
G01 X3.7455 Y94.0093
G01 X3.6032 Y93.8670
G01 X3.4878 Y93.7022
G01 X3.4285 Y93.5750
G00 Z2.0000
G00 X4.9375 Y94.1366
G01 F60.00
G01 Z-0.1000
G01 F120.00
G01 X4.9699 Y94.1689
G01 X4.9375 Y94.1840
G01 X4.9375 Y94.1366
G00 Z2.0000
G00 X3.3370 Y98.0532
G01 F60.00
G01 Z-0.1000
G01 F120.00
G01 X3.3370 Y97.8368
G01 X3.3652 Y97.6223
G01 X3.4212 Y97.4133
G01 X3.5040 Y97.2134
G01 X3.5173 Y97.1905
G01 X3.6122 Y97.0261
G01 X3.7439 Y96.8544
G01 X3.8969 Y96.7014
G01 X4.0686 Y96.5697
G01 X4.2559 Y96.4615
G01 X4.4558 Y96.3787
G01 X4.6648 Y96.3227
G01 X4.8793 Y96.2945
G01 X5.0957 Y96.2945
G01 X5.3102 Y96.3227
G01 X5.5192 Y96.3787
G01 X5.7191 Y96.4615
G01 X5.9064 Y96.5697
G01 X6.0781 Y96.7014
G01 X6.2311 Y96.8544
G01 X6.3628 Y97.0261
G01 X6.4710 Y97.2134
G01 X6.5538 Y97.4133
G01 X6.6098 Y97.6223
G01 X6.6380 Y97.8368
G01 X6.6380 Y98.0532
G01 X6.6098 Y98.2677
G01 X6.5538 Y98.4767
G01 X6.4710 Y98.6766
G01 X6.3628 Y98.8639
G01 X6.2311 Y99.0356
G01 X6.0781 Y99.1886
G01 X5.9064 Y99.3203
G01 X5.7191 Y99.4285
G01 X5.5192 Y99.5113
G01 X5.3102 Y99.5673
G01 X5.0957 Y99.5955
G01 X4.8793 Y99.5955
G01 X4.6648 Y99.5673
G01 X4.4558 Y99.5113
G01 X4.2559 Y99.4285
G01 X4.0930 Y99.3344
G01 X4.0686 Y99.3203
G01 X3.8969 Y99.1886
G01 X3.7439 Y99.0356
G01 X3.6122 Y98.8639
G01 X3.5040 Y98.6766
G01 X3.4212 Y98.4767
G01 X3.3652 Y98.2677
G01 X3.3370 Y98.0532
G00 Z2.0000
G00 X3.3370 Y103.0532
G01 F60.00
G01 Z-0.1000
G01 F120.00
G01 X3.3370 Y102.8368
G01 X3.3650 Y102.6238
G01 X3.4212 Y102.4133
G01 X3.5040 Y102.2134
G01 X3.5191 Y102.1873
G01 X3.6122 Y102.0261
G01 X3.7439 Y101.8544
G01 X3.8969 Y101.7014
G01 X3.9314 Y101.6750
G01 X4.0686 Y101.5697
G01 X4.2559 Y101.4615
G01 X4.4558 Y101.3787
G01 X4.6648 Y101.3227
G01 X4.8793 Y101.2945
G01 X5.0957 Y101.2945
G01 X5.3102 Y101.3227
G01 X5.5192 Y101.3787
G01 X5.7191 Y101.4615
G01 X5.9064 Y101.5697
G01 X6.0781 Y101.7014
G01 X6.2311 Y101.8544
G01 X6.3628 Y102.0261
G01 X6.4710 Y102.2134
G01 X6.5538 Y102.4133
G01 X6.6098 Y102.6223
G01 X6.6380 Y102.8368
G01 X6.6380 Y103.0532
G01 X6.6098 Y103.2677
G01 X6.5538 Y103.4767
G01 X6.4710 Y103.6766
G01 X6.3628 Y103.8639
G01 X6.2311 Y104.0356
G01 X6.0781 Y104.1886
G01 X5.9064 Y104.3203
G01 X5.7191 Y104.4285
G01 X5.5192 Y104.5113
G01 X5.3102 Y104.5673
G01 X5.0957 Y104.5955
G01 X4.8793 Y104.5955
G01 X4.6648 Y104.5673
G01 X4.4558 Y104.5113
G01 X4.2559 Y104.4285
G01 X4.0686 Y104.3203
G01 X3.8969 Y104.1886
G01 X3.7439 Y104.0356
G01 X3.6122 Y103.8639
G01 X3.5040 Y103.6766
G01 X3.4212 Y103.4767
G01 X3.3652 Y103.2677
G01 X3.3370 Y103.0532
G00 Z2.0000
G00 X3.4560 Y110.3898
G01 F60.00
G01 Z-0.1000
G01 F120.00
G01 X3.4598 Y110.3706
G01 X3.4827 Y110.2802
G01 X3.5174 Y110.1832
G01 X3.5615 Y110.0900
G01 X3.6145 Y110.0017
G01 X3.6758 Y109.9189
G01 X3.7450 Y109.8425
G01 X3.8214 Y109.7733
G01 X3.9042 Y109.7120
G01 X3.9925 Y109.6590
G01 X4.0857 Y109.6149
G01 X4.1827 Y109.5802
G01 X4.2822 Y109.5553
G01 X4.2923 Y109.5535
G01 X4.3846 Y109.5401
G01 X4.4875 Y109.5350
G01 X4.5904 Y109.5401
G01 X4.6923 Y109.5552
G01 X4.7923 Y109.5802
G01 X4.8893 Y109.6149
G01 X4.9825 Y109.6590
G01 X5.0708 Y109.7120
G01 X5.1536 Y109.7733
G01 X5.2300 Y109.8425
G01 X5.2992 Y109.9189
G01 X5.3605 Y110.0017
G01 X5.4135 Y110.0900
G01 X5.4576 Y110.1832
G01 X5.4923 Y110.2802
G01 X5.5172 Y110.3797
G01 X5.5190 Y110.3898
G01 X5.5324 Y110.4821
G01 X5.5375 Y110.5850
G01 X5.5324 Y110.6879
G01 X5.5173 Y110.7898
G01 X5.4924 Y110.8894
G01 X5.4892 Y110.8991
G01 X5.4576 Y110.9868
G01 X5.4135 Y111.0800
G01 X5.3605 Y111.1683
G01 X5.2992 Y111.2511
G01 X5.2300 Y111.3275
G01 X5.1536 Y111.3967
G01 X5.0708 Y111.4580
G01 X4.9825 Y111.5110
G01 X4.8893 Y111.5551
G01 X4.7923 Y111.5898
G01 X4.6923 Y111.6148
G01 X4.5904 Y111.6299
G01 X4.4875 Y111.6350
G01 X4.3846 Y111.6299
G01 X4.2827 Y111.6148
G01 X4.1831 Y111.5899
G01 X4.1734 Y111.5867
G01 X4.0857 Y111.5551
G01 X3.9925 Y111.5110
G01 X3.9042 Y111.4580
G01 X3.8214 Y111.3967
G01 X3.7450 Y111.3275
G01 X3.6758 Y111.2511
G01 X3.6145 Y111.1683
G01 X3.5615 Y111.0800
G01 X3.5174 Y110.9868
G01 X3.4827 Y110.8898
G01 X3.4577 Y110.7898
G01 X3.4426 Y110.6879
G01 X3.4375 Y110.5850
G01 X3.4426 Y110.4821
G01 X3.4560 Y110.3898
G00 Z2.0000
G00 X3.4285 Y113.5750
G01 F60.00
G01 Z-0.1000
G01 F120.00
G01 X3.5399 Y113.5750
G01 X3.5571 Y113.6112
G01 X3.5638 Y113.6243
G01 X3.6092 Y113.7001
G01 X3.6172 Y113.7124
G01 X3.6758 Y113.7911
G01 X3.7450 Y113.8675
G01 X3.8214 Y113.9367
G01 X3.9001 Y113.9953
G01 X3.9124 Y114.0033
G01 X3.9882 Y114.0487
G01 X4.0013 Y114.0554
G01 X4.0375 Y114.0726
G01 X4.0375 Y114.1840
G01 X3.9103 Y114.1247
G01 X3.7455 Y114.0093
G01 X3.6032 Y113.8670
G01 X3.4878 Y113.7022
G01 X3.4285 Y113.5750
G00 Z2.0000
G00 X4.9375 Y114.1366
G01 F60.00
G01 Z-0.1000
G01 F120.00
G01 X4.9699 Y114.1689
G01 X4.9375 Y114.1840
G01 X4.9375 Y114.1366
G00 Z2.0000
G00 X3.3370 Y118.0532
G01 F60.00
G01 Z-0.1000
G01 F120.00
G01 X3.3370 Y117.8368
G01 X3.3652 Y117.6223
G01 X3.4212 Y117.4133
G01 X3.5040 Y117.2134
G01 X3.5196 Y117.1866
G01 X3.6122 Y117.0261
G01 X3.7439 Y116.8544
G01 X3.8969 Y116.7014
G01 X4.0686 Y116.5697
G01 X4.2559 Y116.4615
G01 X4.4558 Y116.3787
G01 X4.6648 Y116.3227
G01 X4.8793 Y116.2945
G01 X5.0957 Y116.2945
G01 X5.3102 Y116.3227
G01 X5.5192 Y116.3787
G01 X5.7191 Y116.4615
G01 X5.9064 Y116.5697
G01 X6.0781 Y116.7014
G01 X6.2311 Y116.8544
G01 X6.3628 Y117.0261
G01 X6.4710 Y117.2134
G01 X6.5538 Y117.4133
G01 X6.6098 Y117.6223
G01 X6.6380 Y117.8368
G01 X6.6380 Y118.0532
G01 X6.6098 Y118.2677
G01 X6.5538 Y118.4767
G01 X6.4710 Y118.6766
G01 X6.3628 Y118.8639
G01 X6.2311 Y119.0356
G01 X6.0781 Y119.1886
G01 X5.9064 Y119.3203
G01 X5.7191 Y119.4285
G01 X5.5192 Y119.5113
G01 X5.3102 Y119.5673
G01 X5.0957 Y119.5955
G01 X4.8793 Y119.5955
G01 X4.6648 Y119.5673
G01 X4.4558 Y119.5113
G01 X4.2559 Y119.4285
G01 X4.0854 Y119.3300
G01 X4.0686 Y119.3203
G01 X3.8969 Y119.1886
G01 X3.7439 Y119.0356
G01 X3.6122 Y118.8639
G01 X3.5040 Y118.6766
G01 X3.4212 Y118.4767
G01 X3.3652 Y118.2677
G01 X3.3370 Y118.0532
G00 Z2.0000
G00 X3.2995 Y123.1882
G01 F60.00
G01 Z-0.1000
G01 F120.00
G01 X3.2995 Y122.9718
G01 X3.3277 Y122.7573
G01 X3.3837 Y122.5483
G01 X3.4665 Y122.3484
G01 X3.5747 Y122.1611
G01 X3.7064 Y121.9894
G01 X3.8594 Y121.8364
G01 X3.9577 Y121.7610
G01 X4.0311 Y121.7047
G01 X4.2184 Y121.5965
G01 X4.4183 Y121.5137
G01 X4.6273 Y121.4577
G01 X4.8418 Y121.4295
G01 X5.0582 Y121.4295
G01 X5.2727 Y121.4577
G01 X5.4817 Y121.5137
G01 X5.6816 Y121.5965
G01 X5.8689 Y121.7047
G01 X6.0406 Y121.8364
G01 X6.1936 Y121.9894
G01 X6.3253 Y122.1611
G01 X6.4335 Y122.3484
G01 X6.5163 Y122.5483
G01 X6.5723 Y122.7573
G01 X6.6005 Y122.9718
G01 X6.6005 Y123.1882
G01 X6.5723 Y123.4027
G01 X6.5163 Y123.6117
G01 X6.4335 Y123.8116
G01 X6.3253 Y123.9989
G01 X6.1936 Y124.1706
G01 X6.0406 Y124.3236
G01 X5.8689 Y124.4553
G01 X5.6816 Y124.5635
G01 X5.4817 Y124.6463
G01 X5.2727 Y124.7023
G01 X5.0582 Y124.7305
G01 X4.8418 Y124.7305
G01 X4.6273 Y124.7023
G01 X4.4183 Y124.6463
G01 X4.2184 Y124.5635
G01 X4.0311 Y124.4553
G01 X3.8594 Y124.3236
G01 X3.7064 Y124.1706
G01 X3.5747 Y123.9989
G01 X3.4665 Y123.8116
G01 X3.3837 Y123.6117
G01 X3.3277 Y123.4027
G01 X3.2995 Y123.1882
G00 Z2.0000
G00 X0.4695 Y124.5805
G01 F60.00
G01 Z-0.1000
G01 F120.00
G01 X0.4795 Y11.2926
G01 X0.4792 Y11.2389
G01 X0.4997 Y11.1325
G01 X0.5407 Y11.0320
G01 X0.6004 Y10.9415
G01 X3.2434 Y8.2670
G01 X3.2531 Y8.2564
G01 X3.2648 Y8.2414
G01 X3.2750 Y8.2253
G01 X3.3104 Y8.1596
G01 X3.3169 Y8.1465
G01 X3.3206 Y8.1375
G01 X3.3268 Y8.1191
G01 X3.3312 Y8.1001
G01 X3.3332 Y8.0856
G01 X3.3364 Y8.0548
G01 X3.3370 Y8.0392
G01 X3.3370 Y7.1579
G01 X3.3396 Y7.1339
G01 X3.3710 Y7.0495
G01 X3.4228 Y6.9803
G01 X3.4920 Y6.9285
G01 X3.5764 Y6.8971
G01 X3.6003 Y6.8945
G01 X4.7248 Y6.8943
G01 X4.7437 Y6.8925
G01 X4.7624 Y6.8889
G01 X4.8480 Y6.8637
G01 X4.8617 Y6.8584
G01 X4.8750 Y6.8520
G01 X4.8919 Y6.8421
G01 X4.9039 Y6.8336
G01 X4.9326 Y6.8105
G01 X4.9444 Y6.7996
G01 X9.1491 Y2.5949
G01 X9.2392 Y2.5347
G01 X9.3394 Y2.4932
G01 X9.4458 Y2.4720
G01 X11.6979 Y2.4720
G01 X11.7170 Y2.4711
G01 X11.7358 Y2.4684
G01 X11.7497 Y2.4652
G01 X11.8260 Y2.4428
G01 X11.8444 Y2.4359
G01 X11.8577 Y2.4295
G01 X11.8705 Y2.4222
G01 X11.8866 Y2.4111
G01 X11.9085 Y2.3936
G01 X12.0211 Y2.3241
G01 X12.1419 Y2.2841
G01 X12.2110 Y2.2770
G01 X12.3528 Y2.2770
G01 X12.3670 Y2.2765
G01 X12.3765 Y2.2756
G01 X12.3953 Y2.2724
G01 X12.4091 Y2.2689
G01 X12.4808 Y2.2478
G01 X12.4992 Y2.2409
G01 X12.5125 Y2.2345
G01 X12.5211 Y2.2298
G01 X12.5375 Y2.2190
G01 X12.5701 Y2.1930
G01 X12.5819 Y2.1821
G01 X14.2675 Y0.4965
G01 X14.3577 Y0.4362
G01 X14.3888 Y0.4233
G01 X14.4016 Y0.4175
G01 X14.4183 Y0.4081
G01 X14.4302 Y0.4001
G01 X14.4922 Y0.3504
G01 X14.5034 Y0.3407
G01 X14.5139 Y0.3301
G01 X14.5204 Y0.3226
G01 X14.5295 Y0.3108
G01 X14.5367 Y0.3001
G01 X17.5779 Y0.3000
G01 X17.5836 Y0.3100
G01 X17.5890 Y0.3183
G01 X17.5978 Y0.3302
G01 X17.6042 Y0.3377
G01 X17.6179 Y0.3518
G01 X17.6253 Y0.3583
G01 X17.6370 Y0.3674
G01 X17.6833 Y0.4008
G01 X17.6961 Y0.4093
G01 X17.7096 Y0.4169
G01 X17.7190 Y0.4213
G01 X17.7548 Y0.4362
G01 X17.8450 Y0.4965
G01 X18.7726 Y1.4241
G01 X18.8328 Y1.5142
G01 X18.8743 Y1.6144
G01 X18.8903 Y1.6946
G01 X18.8940 Y1.7085
G01 X18.8986 Y1.7220
G01 X18.9022 Y1.7309
G01 X18.9083 Y1.7438
G01 X18.9456 Y1.8145
G01 X18.9510 Y1.8231
G01 X18.9567 Y1.8314
G01 X18.9629 Y1.8393
G01 X18.9729 Y1.8507
G01 X18.9800 Y1.8578
G01 X18.9924 Y1.8692
G01 X19.0949 Y1.9716
G01 X19.1609 Y2.0786
G01 X19.2009 Y2.1994
G01 X19.2080 Y2.2685
G01 X19.2080 Y2.8215
G01 X19.2009 Y2.8906
G01 X19.1609 Y3.0114
G01 X19.0949 Y3.1185
G01 X18.9904 Y3.2230
G01 X18.9807 Y3.2334
G01 X18.9746 Y3.2407
G01 X18.9636 Y3.2562
G01 X18.9563 Y3.2685
G01 X18.9205 Y3.3342
G01 X18.9124 Y3.3521
G01 X18.9061 Y3.3706
G01 X18.9016 Y3.3897
G01 X18.8995 Y3.4043
G01 X18.8958 Y3.4413
G01 X18.8955 Y3.4521
G01 X18.8957 Y3.6475
G01 X18.8975 Y3.6664
G01 X18.9011 Y3.6851
G01 X18.9233 Y3.7613
G01 X18.9280 Y3.7753
G01 X18.9336 Y3.7889
G01 X18.9380 Y3.7977
G01 X18.9453 Y3.8105
G01 X18.9564 Y3.8266
G01 X18.9761 Y3.8511
G01 X18.9867 Y3.8632
G01 X19.0949 Y3.9715
G01 X19.1609 Y4.0786
G01 X19.2009 Y4.1994
G01 X19.2080 Y4.2685
G01 X19.2081 Y4.4575
G01 X19.2089 Y4.4718
G01 X19.2108 Y4.4859
G01 X19.2148 Y4.5045
G01 X19.2372 Y4.5808
G01 X19.2404 Y4.5901
G01 X19.2461 Y4.6037
G01 X19.2552 Y4.6211
G01 X19.2631 Y4.6335
G01 X19.2689 Y4.6414
G01 X19.2920 Y4.6701
G01 X19.3029 Y4.6819
G01 X21.3526 Y6.7316
G01 X21.4128 Y6.8217
G01 X21.4543 Y6.9219
G01 X21.4755 Y7.0283
G01 X21.4757 Y7.0952
G01 X21.4775 Y7.1142
G01 X21.4801 Y7.1282
G01 X21.4836 Y7.1421
G01 X21.5063 Y7.2186
G01 X21.5098 Y7.2279
G01 X21.5159 Y7.2415
G01 X21.5205 Y7.2502
G01 X21.5283 Y7.2630
G01 X21.5370 Y7.2751
G01 X21.5432 Y7.2828
G01 X21.5533 Y7.2937
G01 X21.5605 Y7.3006
G01 X21.6245 Y7.3558
G01 X21.6402 Y7.3670
G01 X21.6527 Y7.3744
G01 X21.6657 Y7.3808
G01 X21.6791 Y7.3863
G01 X21.6929 Y7.3908
G01 X21.7023 Y7.3932
G01 X21.7165 Y7.3960
G01 X21.7916 Y7.4078
G01 X21.8063 Y7.4088
G01 X21.8260 Y7.4086
G01 X21.9200 Y7.3982
G01 X22.0640 Y7.4144
G01 X22.0782 Y7.4151
G01 X22.0925 Y7.4148
G01 X22.1020 Y7.4141
G01 X22.1161 Y7.4121
G01 X22.1947 Y7.3981
G01 X22.2043 Y7.3957
G01 X22.2185 Y7.3912
G01 X22.2368 Y7.3835
G01 X22.2457 Y7.3790
G01 X22.2585 Y7.3714
G01 X22.2707 Y7.3629
G01 X22.2823 Y7.3535
G01 X22.3443 Y7.2961
G01 X22.3572 Y7.2817
G01 X22.3686 Y7.2661
G01 X22.3762 Y7.2537
G01 X22.3828 Y7.2408
G01 X22.3885 Y7.2275
G01 X22.3932 Y7.2138
G01 X22.4146 Y7.1358
G01 X22.4173 Y7.1213
G01 X22.4193 Y7.1017
G01 X22.4195 Y3.8750
G01 X22.4190 Y3.8607
G01 X22.4181 Y3.8512
G01 X22.4159 Y3.8371
G01 X22.4127 Y3.8232
G01 X22.3887 Y3.7421
G01 X22.3833 Y3.7283
G01 X22.3768 Y3.7149
G01 X22.3694 Y3.7020
G01 X22.3611 Y3.6896
G01 X22.3486 Y3.6742
G01 X22.3073 Y3.6307
G01 X22.3004 Y3.6244
G01 X22.2897 Y3.6156
G01 X22.2631 Y3.5963
G01 X22.1462 Y3.4794
G01 X22.0490 Y3.3456
G01 X21.9740 Y3.1983
G01 X21.9229 Y3.0410
G01 X21.8970 Y2.8777
G01 X21.8970 Y2.2123
G01 X21.9229 Y2.0490
G01 X21.9740 Y1.8917
G01 X22.0490 Y1.7444
G01 X22.1462 Y1.6106
G01 X22.2631 Y1.4937
G01 X22.3969 Y1.3965
G01 X22.5442 Y1.3215
G01 X22.7015 Y1.2704
G01 X22.8648 Y1.2445
G01 X23.0302 Y1.2445
G01 X23.1935 Y1.2704
G01 X23.3508 Y1.3215
G01 X23.4981 Y1.3965
G01 X23.6319 Y1.4937
G01 X23.7488 Y1.6106
G01 X23.8460 Y1.7444
G01 X23.9291 Y1.9076
G01 X23.9337 Y1.9160
G01 X23.9412 Y1.9281
G01 X23.9495 Y1.9397
G01 X23.9587 Y1.9506
G01 X24.0099 Y2.0049
G01 X24.0205 Y2.0153
G01 X24.0358 Y2.0280
G01 X24.0481 Y2.0364
G01 X24.0566 Y2.0415
G01 X24.0743 Y2.0505
G01 X24.0835 Y2.0542
G01 X24.0976 Y2.0591
G01 X24.1750 Y2.0785
G01 X24.1945 Y2.0823
G01 X24.2044 Y2.0835
G01 X24.2192 Y2.0843
G01 X24.2341 Y2.0841
G01 X24.2490 Y2.0827
G01 X24.2685 Y2.0791
G01 X24.2829 Y2.0752
G01 X24.3537 Y2.0511
G01 X24.3672 Y2.0460
G01 X24.3803 Y2.0399
G01 X24.3969 Y2.0304
G01 X24.4126 Y2.0192
G01 X24.4271 Y2.0067
G01 X24.4404 Y1.9928
G01 X24.4794 Y1.9477
G01 X24.4885 Y1.9364
G01 X24.4968 Y1.9244
G01 X24.5065 Y1.9076
G01 X24.5895 Y1.7447
G01 X24.6866 Y1.6110
G01 X24.8035 Y1.4941
G01 X24.9372 Y1.3970
G01 X25.0375 Y1.3458
G01 X25.0375 Y1.4584
G01 X24.9597 Y1.5051
G01 X24.8848 Y1.5606
G01 X24.8157 Y1.6232
G01 X24.7531 Y1.6923
G01 X24.6976 Y1.7672
G01 X24.6497 Y1.8472
G01 X24.6098 Y1.9315
G01 X24.5815 Y2.0099
G01 X24.5758 Y2.0287
G01 X24.5558 Y2.1097
G01 X24.5433 Y2.1921
G01 X24.5414 Y2.2117
G01 X24.5375 Y2.2950
G01 X24.5375 Y2.7950
G01 X24.5421 Y2.8881
G01 X24.5541 Y2.9707
G01 X24.5579 Y2.9899
G01 X24.5784 Y3.0708
G01 X24.6063 Y3.1494
G01 X24.6138 Y3.1675
G01 X24.6497 Y3.2428
G01 X24.6976 Y3.3228
G01 X24.7471 Y3.3899
G01 X24.7596 Y3.4051
G01 X24.8157 Y3.4668
G01 X24.8774 Y3.5229
G01 X24.8926 Y3.5354
G01 X24.9597 Y3.5849
G01 X25.0375 Y3.6316
G01 X25.0375 Y3.7442
G01 X24.9372 Y3.6930
G01 X24.8035 Y3.5959
G01 X24.6866 Y3.4790
G01 X24.5895 Y3.3453
G01 X24.5064 Y3.1824
G01 X24.5019 Y3.1740
G01 X24.4944 Y3.1619
G01 X24.4860 Y3.1503
G01 X24.4769 Y3.1394
G01 X24.4257 Y3.0851
G01 X24.4114 Y3.0714
G01 X24.3957 Y3.0591
G01 X24.3790 Y3.0485
G01 X24.3657 Y3.0416
G01 X24.3567 Y3.0376
G01 X24.3379 Y3.0309
G01 X24.2508 Y3.0094
G01 X24.2361 Y3.0070
G01 X24.2262 Y3.0061
G01 X24.2163 Y3.0057
G01 X24.2014 Y3.0060
G01 X24.1915 Y3.0067
G01 X24.1768 Y3.0089
G01 X24.1670 Y3.0109
G01 X24.1527 Y3.0148
G01 X24.0773 Y3.0405
G01 X24.0640 Y3.0459
G01 X24.0469 Y3.0547
G01 X24.0346 Y3.0623
G01 X24.0268 Y3.0678
G01 X24.0156 Y3.0769
G01 X24.0084 Y3.0833
G01 X23.9952 Y3.0972
G01 X23.9530 Y3.1460
G01 X23.9414 Y3.1615
G01 X23.9313 Y3.1781
G01 X23.8460 Y3.3456
G01 X23.7488 Y3.4794
G01 X23.6140 Y3.6142
G01 X23.6017 Y3.6283
G01 X23.5961 Y3.6358
G01 X23.5884 Y3.6475
G01 X23.5506 Y3.7092
G01 X23.5442 Y3.7220
G01 X23.5370 Y3.7397
G01 X23.5316 Y3.7579
G01 X23.5287 Y3.7719
G01 X23.5220 Y3.8172
G01 X23.5206 Y3.8367
G01 X23.5205 Y7.1544
G01 X23.5210 Y7.1687
G01 X23.5219 Y7.1782
G01 X23.5251 Y7.1969
G01 X23.5286 Y7.2108
G01 X23.5497 Y7.2826
G01 X23.5548 Y7.2966
G01 X23.5609 Y7.3102
G01 X23.5655 Y7.3189
G01 X23.5733 Y7.3317
G01 X23.5820 Y7.3438
G01 X23.5915 Y7.3552
G01 X23.6019 Y7.3659
G01 X23.6092 Y7.3726
G01 X23.6658 Y7.4216
G01 X23.6777 Y7.4306
G01 X23.6859 Y7.4361
G01 X23.7032 Y7.4459
G01 X23.7214 Y7.4540
G01 X23.7355 Y7.4588
G01 X23.7547 Y7.4635
G01 X23.8432 Y7.4763
G01 X23.8575 Y7.4771
G01 X23.8671 Y7.4771
G01 X23.8766 Y7.4766
G01 X23.8909 Y7.4751
G01 X23.9096 Y7.4714
G01 X23.9376 Y7.4645
G01 X23.9469 Y7.4618
G01 X24.0855 Y7.4134
G01 X24.2200 Y7.3982
G01 X24.3545 Y7.4134
G01 X24.4822 Y7.4580
G01 X24.5968 Y7.5300
G01 X24.6925 Y7.6257
G01 X24.7645 Y7.7403
G01 X24.8091 Y7.8680
G01 X24.8243 Y8.0025
G01 X24.8091 Y8.1370
G01 X24.7887 Y8.1955
G01 X24.7832 Y8.2139
G01 X24.7803 Y8.2280
G01 X24.7726 Y8.2737
G01 X24.7710 Y8.2881
G01 X24.7705 Y8.3025
G01 X24.7705 Y14.6342
G01 X24.7493 Y14.7406
G01 X24.7078 Y14.8408
G01 X24.6476 Y14.9309
G01 X22.8784 Y16.7001
G01 X22.8687 Y16.7106
G01 X22.8626 Y16.7179
G01 X22.8542 Y16.7294
G01 X22.8491 Y16.7374
G01 X22.8063 Y16.8158
G01 X22.7985 Y16.8341
G01 X22.7926 Y16.8531
G01 X22.7887 Y16.8726
G01 X22.7874 Y16.8824
G01 X22.7864 Y16.8973
G01 X22.7869 Y16.9171
G01 X22.7923 Y16.9918
G01 X22.7942 Y17.0065
G01 X22.7986 Y17.0259
G01 X22.8031 Y17.0401
G01 X22.8086 Y17.0539
G01 X22.8152 Y17.0673
G01 X22.8255 Y17.0843
G01 X22.8760 Y17.1522
G01 X22.8886 Y17.1667
G01 X22.9025 Y17.1799
G01 X22.9138 Y17.1889
G01 X22.9216 Y17.1945
G01 X22.9338 Y17.2021
G01 X22.9423 Y17.2066
G01 X22.9553 Y17.2127
G01 X23.0193 Y17.2395
G01 X23.0331 Y17.2440
G01 X23.0520 Y17.2484
G01 X23.1934 Y17.2709
G01 X23.3506 Y17.3219
G01 X23.4655 Y17.3805
G01 X23.3910 Y17.4549
G01 X23.3110 Y17.4173
G01 X23.2326 Y17.3890
G01 X23.2138 Y17.3833
G01 X23.1424 Y17.3654
G01 X23.1232 Y17.3616
G01 X23.0406 Y17.3496
G01 X22.9573 Y17.3452
G01 X22.9377 Y17.3452
G01 X22.8551 Y17.3495
G01 X22.8446 Y17.3508
G01 X22.7622 Y17.3633
G01 X22.6717 Y17.3859
G01 X22.5931 Y17.4138
G01 X22.5750 Y17.4213
G01 X22.5084 Y17.4528
G01 X22.4911 Y17.4620
G01 X22.4197 Y17.5051
G01 X22.3526 Y17.5546
G01 X22.3374 Y17.5671
G01 X22.2757 Y17.6232
G01 X22.2163 Y17.6886
G01 X22.2071 Y17.7001
G01 X22.1576 Y17.7672
G01 X22.1145 Y17.8386
G01 X22.1074 Y17.8515
G01 X22.0738 Y17.9225
G01 X22.0680 Y17.9360
G01 X22.0399 Y18.0146
G01 X22.0370 Y18.0239
G01 X22.0299 Y18.0524
G01 X21.9228 Y18.0524
G01 X21.9234 Y18.0491
G01 X21.9482 Y17.9726
G01 X21.9518 Y17.9588
G01 X21.9544 Y17.9447
G01 X21.9563 Y17.9258
G01 X21.9585 Y17.8512
G01 X21.9583 Y17.8363
G01 X21.9576 Y17.8264
G01 X21.9556 Y17.8116
G01 X21.9526 Y17.7970
G01 X21.9468 Y17.7780
G01 X21.9413 Y17.7642
G01 X21.9347 Y17.7508
G01 X21.9298 Y17.7422
G01 X21.8884 Y17.6740
G01 X21.8765 Y17.6581
G01 X21.8666 Y17.6470
G01 X21.8595 Y17.6400
G01 X21.8444 Y17.6271
G01 X21.8322 Y17.6185
G01 X21.8238 Y17.6132
G01 X21.8107 Y17.6062
G01 X21.7390 Y17.5712
G01 X21.7205 Y17.5643
G01 X21.7062 Y17.5603
G01 X21.6965 Y17.5582
G01 X21.6769 Y17.5555
G01 X21.6500 Y17.5533
G01 X21.6386 Y17.5530
G01 X19.2946 Y17.5530
G01 X19.2803 Y17.5535
G01 X19.2708 Y17.5544
G01 X19.2567 Y17.5566
G01 X19.2428 Y17.5598
G01 X19.1712 Y17.5808
G01 X19.1572 Y17.5855
G01 X19.1392 Y17.5932
G01 X19.1262 Y17.6002
G01 X19.1179 Y17.6054
G01 X19.1020 Y17.6170
G01 X19.0732 Y17.6405
G01 X19.0654 Y17.6479
G01 X19.0060 Y17.7074
G01 X18.8987 Y17.7737
G01 X18.8868 Y17.7824
G01 X18.8791 Y17.7887
G01 X18.8649 Y17.8024
G01 X18.8148 Y17.8580
G01 X18.8052 Y17.8694
G01 X18.7994 Y17.8774
G01 X18.7913 Y17.8899
G01 X18.7842 Y17.9030
G01 X18.7781 Y17.9166
G01 X18.7716 Y17.9354
G01 X18.7679 Y17.9498
G01 X18.7549 Y18.0285
G01 X18.7535 Y18.0384
G01 X18.7524 Y18.0532
G01 X18.7524 Y18.0681
G01 X18.7530 Y18.0782
G01 X18.7348 Y18.0848
G01 X18.7257 Y18.0886
G01 X18.6947 Y18.1033
G01 X18.6818 Y18.1104
G01 X18.6565 Y18.1256
G01 X18.6444 Y18.1339
G01 X18.6169 Y18.1545
G01 X18.5913 Y18.1774
G01 X18.5808 Y18.1877
G01 X18.5580 Y18.2129
G01 X18.5485 Y18.2247
G01 X18.5282 Y18.2524
G01 X18.5104 Y18.2818
G01 X18.5033 Y18.2947
G01 X18.4886 Y18.3257
G01 X18.4831 Y18.3394
G01 X18.4723 Y18.3700
G01 X18.0651 Y18.3701
G01 X18.0271 Y18.3721
G01 X17.9943 Y18.3767
G01 X17.9798 Y18.3794
G01 X17.9430 Y18.3888
G01 X17.9026 Y18.4033
G01 X17.8638 Y18.4217
G01 X17.8352 Y18.4385
G01 X17.8189 Y18.4494
G01 X17.7963 Y18.4662
G01 X17.7850 Y18.4757
G01 X17.7642 Y18.4947
G01 X17.7572 Y18.5017
G01 X17.7382 Y18.5225
G01 X17.7287 Y18.5338
G01 X17.7062 Y18.5644
G01 X17.6865 Y18.5970
G01 X17.6819 Y18.6056
G01 X17.6698 Y18.6311
G01 X17.6623 Y18.6492
G01 X17.6513 Y18.6805
G01 X17.6409 Y18.7221
G01 X17.6346 Y18.7646
G01 X17.6326 Y18.8026
G01 X17.6325 Y19.2825
G01 X17.6346 Y19.3254
G01 X17.6400 Y19.3630
G01 X17.6431 Y19.3774
G01 X17.6513 Y19.4095
G01 X17.6623 Y19.4408
G01 X17.6677 Y19.4544
G01 X17.6842 Y19.4887
G01 X17.7010 Y19.5173
G01 X17.7110 Y19.5324
G01 X17.6107 Y19.6327
G01 X17.5935 Y19.6265
G01 X17.5743 Y19.6216
G01 X17.5547 Y19.6186
G01 X17.5348 Y19.6175
G01 X17.5199 Y19.6180
G01 X17.4403 Y19.6240
G01 X17.4206 Y19.6274
G01 X17.4014 Y19.6328
G01 X17.3873 Y19.6380
G01 X17.3782 Y19.6421
G01 X17.3606 Y19.6516
G01 X17.3058 Y19.6869
G01 X17.2937 Y19.6961
G01 X17.2811 Y19.7073
G01 X17.1739 Y19.7734
G01 X17.0531 Y19.8134
G01 X16.9840 Y19.8205
G01 X16.3060 Y19.8205
G01 X16.2369 Y19.8134
G01 X16.1161 Y19.7734
G01 X16.0090 Y19.7074
G01 X15.9201 Y19.6185
G01 X15.8541 Y19.5114
G01 X15.8141 Y19.3906
G01 X15.8070 Y19.3215
G01 X15.8070 Y18.7685
G01 X15.8141 Y18.6994
G01 X15.8541 Y18.5786
G01 X15.9201 Y18.4715
G01 X15.9379 Y18.4536
G01 X15.9443 Y18.4466
G01 X15.9561 Y18.4316
G01 X15.9640 Y18.4197
G01 X16.0067 Y18.3414
G01 X16.0144 Y18.3234
G01 X16.0175 Y18.3141
G01 X16.0214 Y18.2999
G01 X16.0249 Y18.2806
G01 X16.0284 Y18.2493
G01 X16.0294 Y18.2333
G01 X16.0293 Y17.8525
G01 X16.0286 Y17.8430
G01 X16.0267 Y17.8289
G01 X16.0227 Y17.8103
G01 X16.0003 Y17.7340
G01 X15.9953 Y17.7201
G01 X15.9914 Y17.7111
G01 X15.9870 Y17.7023
G01 X15.9797 Y17.6895
G01 X15.9686 Y17.6734
G01 X15.9420 Y17.6407
G01 X15.9201 Y17.6185
G01 X15.8541 Y17.5114
G01 X15.8141 Y17.3906
G01 X15.8070 Y17.3215
G01 X15.8070 Y16.7685
G01 X15.8141 Y16.6994
G01 X15.8541 Y16.5786
G01 X15.9201 Y16.4715
G01 X16.0090 Y16.3826
G01 X16.1161 Y16.3166
G01 X16.2411 Y16.2751
G01 X16.2590 Y16.2678
G01 X16.2761 Y16.2588
G01 X16.2884 Y16.2510
G01 X16.3458 Y16.2112
G01 X16.3615 Y16.1991
G01 X16.3725 Y16.1890
G01 X16.3827 Y16.1782
G01 X16.3921 Y16.1666
G01 X16.4032 Y16.1501
G01 X16.4081 Y16.1415
G01 X16.4147 Y16.1281
G01 X16.4470 Y16.0500
G01 X16.4500 Y16.0408
G01 X16.4538 Y16.0267
G01 X16.4557 Y16.0172
G01 X16.4577 Y16.0028
G01 X16.4592 Y15.9797
G01 X16.4595 Y15.9688
G01 X16.4595 Y15.6064
G01 X16.4585 Y15.5868
G01 X16.4556 Y15.5577
G01 X16.4542 Y15.5480
G01 X16.4295 Y15.4237
G01 X16.4295 Y14.6069
G01 X16.4286 Y14.5878
G01 X16.4259 Y14.5690
G01 X16.4214 Y14.5505
G01 X16.4017 Y14.4835
G01 X16.3952 Y14.4647
G01 X16.3891 Y14.4511
G01 X16.3794 Y14.4338
G01 X16.3710 Y14.4215
G01 X16.3618 Y14.4098
G01 X16.3517 Y14.3988
G01 X16.3408 Y14.3887
G01 X16.2842 Y14.3397
G01 X16.2683 Y14.3279
G01 X16.2512 Y14.3176
G01 X16.2333 Y14.3092
G01 X16.2145 Y14.3025
G01 X16.2001 Y14.2988
G01 X16.2001 Y13.9787
G01 X16.2038 Y13.9669
G01 X16.2086 Y13.9479
G01 X16.2125 Y13.9286
G01 X16.2153 Y13.9092
G01 X16.2162 Y13.8994
G01 X16.2175 Y13.8700
G01 X16.2175 Y12.2200
G01 X16.2162 Y12.1906
G01 X16.2153 Y12.1808
G01 X16.2125 Y12.1614
G01 X16.2098 Y12.1469
G01 X16.2050 Y12.1279
G01 X16.1993 Y12.1091
G01 X16.1927 Y12.0906
G01 X16.1889 Y12.0815
G01 X16.1803 Y12.0631
G01 X16.1737 Y12.0506
G01 X16.1585 Y12.0256
G01 X16.1381 Y11.9980
G01 X16.1150 Y11.9725
G01 X16.0936 Y11.9529
G01 X16.0858 Y11.9465
G01 X16.0700 Y11.9346
G01 X16.0537 Y11.9237
G01 X16.0368 Y11.9137
G01 X16.0281 Y11.9091
G01 X16.0060 Y11.8986
G01 X15.9969 Y11.8948
G01 X15.9691 Y11.8851
G01 X15.9358 Y11.8767
G01 X15.9018 Y11.8717
G01 X15.8724 Y11.8701
G01 X15.5626 Y11.8701
G01 X15.5332 Y11.8717
G01 X15.5089 Y11.8750
G01 X15.4944 Y11.8777
G01 X15.4659 Y11.8851
G01 X15.4427 Y11.8931
G01 X15.4290 Y11.8986
G01 X15.4022 Y11.9115
G01 X15.3813 Y11.9237
G01 X15.3690 Y11.9318
G01 X15.3455 Y11.9494
G01 X15.3200 Y11.9725
G01 X15.2971 Y11.9978
G01 X15.2793 Y12.0215
G01 X15.2738 Y12.0297
G01 X15.2637 Y12.0465
G01 X15.2544 Y12.0638
G01 X15.2461 Y12.0815
G01 X15.2423 Y12.0906
G01 X15.2326 Y12.1184
G01 X15.2242 Y12.1517
G01 X15.2192 Y12.1857
G01 X15.2176 Y12.2151
G01 X15.2175 Y12.5950
G01 X14.9234 Y12.5950
G01 X14.9092 Y12.5955
G01 X14.8950 Y12.5970
G01 X14.8763 Y12.6006
G01 X14.7954 Y12.6242
G01 X14.7815 Y12.6292
G01 X14.7681 Y12.6352
G01 X14.7551 Y12.6422
G01 X14.7468 Y12.6474
G01 X14.7348 Y12.6559
G01 X14.7061 Y12.6790
G01 X14.6982 Y12.6862
G01 X14.6718 Y12.7125
G01 X14.5572 Y12.7845
G01 X14.4626 Y12.8176
G01 X14.4441 Y12.8251
G01 X14.4352 Y12.8295
G01 X14.4223 Y12.8370
G01 X14.3741 Y12.8673
G01 X14.3623 Y12.8755
G01 X14.3510 Y12.8845
G01 X14.3405 Y12.8943
G01 X13.0654 Y14.1694
G01 X13.0526 Y14.1835
G01 X13.0412 Y14.1987
G01 X13.0313 Y14.2150
G01 X12.9978 Y14.2763
G01 X12.9912 Y14.2895
G01 X12.9856 Y14.3031
G01 X12.9811 Y14.3171
G01 X12.9766 Y14.3362
G01 X12.9745 Y14.3508
G01 X12.9708 Y14.3878
G01 X12.9705 Y14.3985
G01 X12.9705 Y15.6654
G01 X12.9710 Y15.6797
G01 X12.9733 Y15.6986
G01 X12.9761 Y15.7126
G01 X12.9983 Y15.7888
G01 X13.0047 Y15.8074
G01 X13.0107 Y15.8208
G01 X13.0153 Y15.8295
G01 X13.0203 Y15.8380
G01 X13.0285 Y15.8502
G01 X13.0511 Y15.8786
G01 X13.0580 Y15.8868
G01 X13.0654 Y15.8946
G01 X13.1499 Y15.9790
G01 X13.2159 Y16.0861
G01 X13.2559 Y16.2069
G01 X13.2630 Y16.2760
G01 X13.2630 Y16.8540
G01 X13.2559 Y16.9231
G01 X13.2302 Y17.0007
G01 X12.5284 Y17.7025
G01 X12.2402 Y17.7027
G01 X12.2120 Y17.7042
G01 X12.1974 Y17.7058
G01 X12.1646 Y17.7109
G01 X12.1325 Y17.7187
G01 X12.1183 Y17.7228
G01 X12.0871 Y17.7340
G01 X12.0781 Y17.7377
G01 X12.0525 Y17.7497
G01 X12.0352 Y17.7590
G01 X12.0112 Y17.7735
G01 X11.9989 Y17.7819
G01 X11.9725 Y17.8018
G01 X11.9406 Y17.8306
G01 X11.9118 Y17.8625
G01 X11.8919 Y17.8889
G01 X11.8859 Y17.8974
G01 X11.7681 Y17.8974
G01 X11.8255 Y17.8044
G01 X11.9262 Y17.7036
G01 X11.9387 Y17.6892
G01 X11.9497 Y17.6737
G01 X11.9570 Y17.6614
G01 X11.9905 Y17.6001
G01 X11.9950 Y17.5912
G01 X12.0010 Y17.5776
G01 X12.0074 Y17.5588
G01 X12.0109 Y17.5443
G01 X12.0133 Y17.5296
G01 X12.0149 Y17.5098
G01 X12.0145 Y17.4899
G01 X12.0095 Y17.4203
G01 X12.0078 Y17.4054
G01 X12.0051 Y17.3906
G01 X12.0027 Y17.3809
G01 X11.9981 Y17.3666
G01 X11.9925 Y17.3527
G01 X11.9859 Y17.3393
G01 X11.9782 Y17.3264
G01 X11.9484 Y17.2800
G01 X11.9426 Y17.2717
G01 X11.9364 Y17.2637
G01 X11.9299 Y17.2561
G01 X11.9229 Y17.2488
G01 X11.8251 Y17.1510
G01 X11.7591 Y17.0439
G01 X11.7191 Y16.9231
G01 X11.7120 Y16.8540
G01 X11.7120 Y16.2760
G01 X11.7191 Y16.2069
G01 X11.7591 Y16.0861
G01 X11.8238 Y15.9810
G01 X11.8309 Y15.9677
G01 X11.8370 Y15.9539
G01 X11.8405 Y15.9445
G01 X11.8434 Y15.9349
G01 X11.8632 Y15.8649
G01 X11.8655 Y15.8551
G01 X11.8672 Y15.8452
G01 X11.8685 Y15.8353
G01 X11.8692 Y15.8252
G01 X11.8695 Y15.8152
G01 X11.8695 Y14.2834
G01 X11.8690 Y14.2687
G01 X11.8662 Y14.2396
G01 X11.8650 Y14.2298
G01 X11.8620 Y14.2138
G01 X11.8620 Y14.1152
G01 X11.8833 Y14.0082
G01 X11.8886 Y13.9888
G01 X11.8907 Y13.9794
G01 X11.9322 Y13.8792
G01 X11.9924 Y13.7891
G01 X12.0691 Y13.7124
G01 X12.1602 Y13.6515
G01 X12.1719 Y13.6426
G01 X12.1944 Y13.6240
G01 X12.2017 Y13.6174
G01 X13.0218 Y12.7974
G01 X13.0315 Y12.7869
G01 X13.0405 Y12.7758
G01 X13.0486 Y12.7641
G01 X13.0536 Y12.7559
G01 X13.0894 Y12.6905
G01 X13.0960 Y12.6771
G01 X13.1017 Y12.6633
G01 X13.1063 Y12.6492
G01 X13.1098 Y12.6347
G01 X13.1128 Y12.6151
G01 X13.1138 Y12.6002
G01 X13.1136 Y12.5853
G01 X13.1084 Y12.5107
G01 X13.1060 Y12.4909
G01 X13.1016 Y12.4716
G01 X13.0954 Y12.4527
G01 X13.0895 Y12.4390
G01 X13.0801 Y12.4215
G01 X13.0690 Y12.4051
G01 X13.0210 Y12.3413
G01 X13.0110 Y12.3302
G01 X13.0040 Y12.3232
G01 X12.9927 Y12.3135
G01 X12.9849 Y12.3074
G01 X12.9767 Y12.3018
G01 X12.9639 Y12.2940
G01 X12.9551 Y12.2895
G01 X12.9415 Y12.2834
G01 X12.8668 Y12.2555
G01 X12.8525 Y12.2512
G01 X12.8380 Y12.2479
G01 X12.8233 Y12.2458
G01 X12.8035 Y12.2446
G01 X12.7771 Y12.2449
G01 X12.7646 Y12.2455
G01 X12.2110 Y12.2455
G01 X12.1419 Y12.2384
G01 X12.0211 Y12.1984
G01 X11.9140 Y12.1324
G01 X11.8136 Y12.0321
G01 X11.7993 Y12.0196
G01 X11.7838 Y12.0086
G01 X11.7715 Y12.0013
G01 X11.7102 Y11.9678
G01 X11.6925 Y11.9592
G01 X11.6787 Y11.9540
G01 X11.6646 Y11.9498
G01 X11.6503 Y11.9466
G01 X11.6357 Y11.9445
G01 X11.6040 Y11.9411
G01 X11.5879 Y11.9405
G01 X8.8158 Y11.9405
G01 X8.7094 Y11.9193
G01 X8.6092 Y11.8778
G01 X8.5191 Y11.8176
G01 X7.8406 Y11.1392
G01 X7.8261 Y11.1266
G01 X7.7869 Y11.0978
G01 X7.6432 Y11.0075
G01 X7.5475 Y10.9118
G01 X7.4755 Y10.7972
G01 X7.4309 Y10.6695
G01 X7.4157 Y10.5350
G01 X7.4308 Y10.4005
G01 X7.4755 Y10.2728
G01 X7.5475 Y10.1582
G01 X7.6432 Y10.0625
G01 X7.7578 Y9.9905
G01 X7.8855 Y9.9459
G01 X8.0200 Y9.9307
G01 X8.1545 Y9.9459
G01 X8.2822 Y9.9905
G01 X8.3968 Y10.0625
G01 X8.4925 Y10.1582
G01 X8.5698 Y10.2812
G01 X8.5775 Y10.2949
G01 X8.6071 Y10.3417
G01 X8.6154 Y10.3538
G01 X8.6278 Y10.3690
G01 X9.0031 Y10.7446
G01 X9.0100 Y10.7512
G01 X9.0209 Y10.7604
G01 X9.0364 Y10.7714
G01 X9.0487 Y10.7787
G01 X9.1100 Y10.8122
G01 X9.1232 Y10.8188
G01 X9.1368 Y10.8244
G01 X9.1508 Y10.8289
G01 X9.1699 Y10.8334
G01 X9.1796 Y10.8349
G01 X9.2108 Y10.8384
G01 X9.2215 Y10.8392
G01 X9.2322 Y10.8395
G01 X11.5889 Y10.8395
G01 X11.6032 Y10.8390
G01 X11.6221 Y10.8367
G01 X11.6361 Y10.8339
G01 X11.7171 Y10.8103
G01 X11.7265 Y10.8070
G01 X11.7402 Y10.8012
G01 X11.7491 Y10.7968
G01 X11.7620 Y10.7894
G01 X11.7743 Y10.7810
G01 X11.7860 Y10.7718
G01 X11.7970 Y10.7617
G01 X11.8038 Y10.7545
G01 X11.8561 Y10.6942
G01 X11.8651 Y10.6823
G01 X11.8733 Y10.6699
G01 X11.8804 Y10.6568
G01 X11.8866 Y10.6433
G01 X11.8918 Y10.6293
G01 X11.8959 Y10.6150
G01 X11.8997 Y10.5955
G01 X11.9096 Y10.5263
G01 X11.9115 Y10.5065
G01 X11.9114 Y10.4867
G01 X11.9093 Y10.4669
G01 X11.9052 Y10.4475
G01 X11.9010 Y10.4332
G01 X11.8956 Y10.4193
G01 X11.8646 Y10.3512
G01 X11.8582 Y10.3384
G01 X11.8532 Y10.3298
G01 X11.8449 Y10.3173
G01 X11.8357 Y10.3055
G01 X11.8257 Y10.2945
G01 X11.7591 Y10.1864
G01 X11.7191 Y10.0656
G01 X11.7120 Y9.9965
G01 X11.7120 Y9.3435
G01 X11.7191 Y9.2744
G01 X11.7591 Y9.1536
G01 X11.8251 Y9.0465
G01 X11.8343 Y9.0366
G01 X11.8433 Y9.0255
G01 X11.8488 Y9.0177
G01 X11.8564 Y9.0056
G01 X11.8967 Y8.9314
G01 X11.9044 Y8.9134
G01 X11.9102 Y8.8946
G01 X11.9134 Y8.8803
G01 X11.9149 Y8.8706
G01 X11.9184 Y8.8393
G01 X11.9194 Y8.8233
G01 X11.9195 Y8.5358
G01 X11.9407 Y8.4294
G01 X11.9822 Y8.3292
G01 X12.0424 Y8.2391
G01 X14.2617 Y6.0197
G01 X14.2742 Y6.0053
G01 X14.2799 Y5.9977
G01 X14.2877 Y5.9858
G01 X14.3260 Y5.9162
G01 X14.3346 Y5.8983
G01 X14.3415 Y5.8797
G01 X14.3464 Y5.8604
G01 X14.3494 Y5.8408
G01 X14.3502 Y5.8309
G01 X14.3504 Y5.8160
G01 X14.3450 Y5.7364
G01 X14.3433 Y5.7216
G01 X14.3406 Y5.7069
G01 X14.3382 Y5.6973
G01 X14.3337 Y5.6831
G01 X14.3301 Y5.6738
G01 X14.3261 Y5.6648
G01 X14.3192 Y5.6515
G01 X14.3085 Y5.6348
G01 X14.2607 Y5.5710
G01 X14.2513 Y5.5598
G01 X14.2445 Y5.5528
G01 X14.2375 Y5.5461
G01 X14.2262 Y5.5367
G01 X14.2103 Y5.5256
G01 X14.1977 Y5.5182
G01 X14.1643 Y5.5004
G01 X14.1552 Y5.4959
G01 X14.1458 Y5.4918
G01 X14.0520 Y5.4587
G01 X14.0383 Y5.4544
G01 X14.0195 Y5.4503
G01 X13.9785 Y5.4433
G01 X13.9642 Y5.4414
G01 X13.9450 Y5.4405
G01 X13.3196 Y5.4405
G01 X13.3005 Y5.4414
G01 X13.2817 Y5.4441
G01 X13.2632 Y5.4486
G01 X13.1915 Y5.4697
G01 X13.1731 Y5.4766
G01 X13.1555 Y5.4853
G01 X13.1470 Y5.4903
G01 X13.1348 Y5.4985
G01 X13.1023 Y5.5245
G01 X13.0904 Y5.5354
G01 X13.0610 Y5.5649
G01 X12.9539 Y5.6309
G01 X12.8331 Y5.6709
G01 X12.7640 Y5.6780
G01 X12.2110 Y5.6780
G01 X12.1419 Y5.6709
G01 X12.0211 Y5.6309
G01 X11.9140 Y5.5649
G01 X11.8251 Y5.4760
G01 X11.7591 Y5.3689
G01 X11.7191 Y5.2481
G01 X11.7120 Y5.1790
G01 X11.7120 Y4.6010
G01 X11.7191 Y4.5319
G01 X11.7591 Y4.4111
G01 X11.8251 Y4.3040
G01 X11.9259 Y4.2032
G01 X11.9354 Y4.1925
G01 X11.9440 Y4.1812
G01 X11.9519 Y4.1693
G01 X11.9567 Y4.1610
G01 X11.9901 Y4.0997
G01 X11.9988 Y4.0818
G01 X12.0041 Y4.0679
G01 X12.0095 Y4.0488
G01 X12.0123 Y4.0342
G01 X12.0143 Y4.0144
G01 X12.0144 Y3.9946
G01 X12.0087 Y3.9149
G01 X12.0058 Y3.8952
G01 X12.0009 Y3.8758
G01 X11.9960 Y3.8616
G01 X11.9878 Y3.8434
G01 X11.9805 Y3.8303
G01 X11.9480 Y3.7796
G01 X11.9423 Y3.7714
G01 X11.9361 Y3.7634
G01 X11.9261 Y3.7520
G01 X11.8386 Y3.6646
G01 X11.8280 Y3.6551
G01 X11.8205 Y3.6492
G01 X11.8088 Y3.6411
G01 X11.8006 Y3.6361
G01 X11.7308 Y3.5980
G01 X11.7129 Y3.5899
G01 X11.6991 Y3.5850
G01 X11.6849 Y3.5811
G01 X11.6656 Y3.5776
G01 X11.6290 Y3.5736
G01 X11.6129 Y3.5730
G01 X9.8575 Y3.5731
G01 X9.8432 Y3.5739
G01 X9.8338 Y3.5750
G01 X9.8151 Y3.5786
G01 X9.7388 Y3.6008
G01 X9.7249 Y3.6055
G01 X9.7113 Y3.6111
G01 X9.6982 Y3.6178
G01 X9.6856 Y3.6254
G01 X9.6736 Y3.6339
G01 X9.6491 Y3.6536
G01 X9.6409 Y3.6605
G01 X9.6331 Y3.6679
G01 X5.7329 Y7.5681
G01 X5.7201 Y7.5822
G01 X5.7087 Y7.5974
G01 X5.6988 Y7.6137
G01 X5.6653 Y7.6750
G01 X5.6587 Y7.6882
G01 X5.6531 Y7.7018
G01 X5.6473 Y7.7205
G01 X5.6441 Y7.7349
G01 X5.6420 Y7.7495
G01 X5.6383 Y7.7865
G01 X5.6380 Y7.7972
G01 X5.6380 Y8.9321
G01 X5.6354 Y8.9561
G01 X5.6040 Y9.0405
G01 X5.5522 Y9.1097
G01 X5.4830 Y9.1615
G01 X5.3726 Y9.2027
G01 X5.3588 Y9.2090
G01 X5.3454 Y9.2164
G01 X5.3368 Y9.2218
G01 X5.3286 Y9.2277
G01 X5.2687 Y9.2726
G01 X5.2573 Y9.2822
G01 X5.2434 Y9.2964
G01 X5.2309 Y9.3118
G01 X5.2226 Y9.3242
G01 X5.2129 Y9.3415
G01 X5.2069 Y9.3552
G01 X5.1807 Y9.4253
G01 X5.1760 Y9.4394
G01 X5.1724 Y9.4538
G01 X5.1706 Y9.4636
G01 X5.1688 Y9.4784
G01 X5.1682 Y9.4883
G01 X5.1685 Y9.5082
G01 X5.1708 Y9.5279
G01 X5.1886 Y9.6108
G01 X5.1928 Y9.6254
G01 X5.1961 Y9.6349
G01 X5.2021 Y9.6488
G01 X5.2090 Y9.6622
G01 X5.2170 Y9.6751
G01 X5.2228 Y9.6833
G01 X5.2468 Y9.7153
G01 X5.2561 Y9.7262
G01 X5.3722 Y9.8426
G01 X5.4877 Y10.0076
G01 X5.5727 Y10.1900
G01 X5.6248 Y10.3845
G01 X5.6424 Y10.5850
G01 X5.6248 Y10.7855
G01 X5.5727 Y10.9800
G01 X5.4877 Y11.1625
G01 X5.3722 Y11.3274
G01 X5.2299 Y11.4697
G01 X5.0582 Y11.5899
G01 X5.0505 Y11.5955
G01 X5.0396 Y11.6047
G01 X5.0293 Y11.6146
G01 X5.0197 Y11.6252
G01 X4.9731 Y11.6834
G01 X4.9614 Y11.6995
G01 X4.9515 Y11.7167
G01 X4.9452 Y11.7302
G01 X4.9415 Y11.7395
G01 X4.9356 Y11.7584
G01 X4.9334 Y11.7681
G01 X4.9309 Y11.7828
G01 X4.9232 Y11.8572
G01 X4.9222 Y11.8721
G01 X4.9226 Y11.8919
G01 X4.9250 Y11.9117
G01 X4.9293 Y11.9310
G01 X4.9355 Y11.9499
G01 X4.9436 Y11.9680
G01 X4.9774 Y12.0347
G01 X4.9874 Y12.0514
G01 X4.9959 Y12.0632
G01 X5.0053 Y12.0743
G01 X5.0154 Y12.0848
G01 X5.0419 Y12.1080
G01 X5.0499 Y12.1146
G01 X5.0582 Y12.1207
G01 X5.2295 Y12.2407
G01 X5.3718 Y12.3830
G01 X5.4872 Y12.5478
G01 X5.5465 Y12.6750
G01 X5.4351 Y12.6750
G01 X5.4179 Y12.6388
G01 X5.4112 Y12.6257
G01 X5.3658 Y12.5499
G01 X5.3578 Y12.5376
G01 X5.2992 Y12.4589
G01 X5.2334 Y12.3861
G01 X5.2229 Y12.3758
G01 X5.1610 Y12.3198
G01 X5.1459 Y12.3073
G01 X5.0708 Y12.2520
G01 X4.9868 Y12.2013
G01 X4.9737 Y12.1946
G01 X4.8893 Y12.1549
G01 X4.8016 Y12.1233
G01 X4.7828 Y12.1176
G01 X4.6923 Y12.0952
G01 X4.6002 Y12.0813
G01 X4.5806 Y12.0793
G01 X4.4875 Y12.0750
G01 X4.3944 Y12.0793
G01 X4.3748 Y12.0813
G01 X4.2822 Y12.0953
G01 X4.1922 Y12.1176
G01 X4.1734 Y12.1233
G01 X4.0857 Y12.1549
G01 X4.0013 Y12.1946
G01 X3.9882 Y12.2013
G01 X3.9042 Y12.2520
G01 X3.8291 Y12.3073
G01 X3.8140 Y12.3198
G01 X3.7521 Y12.3758
G01 X3.7416 Y12.3861
G01 X3.6758 Y12.4589
G01 X3.6172 Y12.5376
G01 X3.6092 Y12.5499
G01 X3.5638 Y12.6257
G01 X3.5571 Y12.6388
G01 X3.5399 Y12.6750
G01 X3.4285 Y12.6750
G01 X3.4878 Y12.5478
G01 X3.6032 Y12.3830
G01 X3.7455 Y12.2407
G01 X3.9168 Y12.1207
G01 X3.9245 Y12.1151
G01 X3.9354 Y12.1059
G01 X3.9457 Y12.0960
G01 X3.9553 Y12.0854
G01 X4.0080 Y12.0193
G01 X4.0188 Y12.0026
G01 X4.0235 Y11.9939
G01 X4.0298 Y11.9804
G01 X4.0367 Y11.9618
G01 X4.0416 Y11.9425
G01 X4.0447 Y11.9229
G01 X4.0523 Y11.8484
G01 X4.0529 Y11.8286
G01 X4.0515 Y11.8088
G01 X4.0491 Y11.7941
G01 X4.0457 Y11.7796
G01 X4.0412 Y11.7654
G01 X4.0336 Y11.7470
G01 X3.9951 Y11.6714
G01 X3.9848 Y11.6551
G01 X3.9729 Y11.6398
G01 X3.9630 Y11.6292
G01 X3.9560 Y11.6225
G01 X3.9331 Y11.6026
G01 X3.9210 Y11.5929
G01 X3.7451 Y11.4697
G01 X3.6028 Y11.3274
G01 X3.4873 Y11.1624
G01 X3.4023 Y10.9800
G01 X3.3502 Y10.7856
G01 X3.3326 Y10.5850
G01 X3.3357 Y10.5469
G01 X3.3358 Y10.5326
G01 X3.3348 Y10.5183
G01 X3.3320 Y10.4995
G01 X3.3171 Y10.4262
G01 X3.3133 Y10.4118
G01 X3.3084 Y10.3977
G01 X3.3025 Y10.3840
G01 X3.2955 Y10.3708
G01 X3.2877 Y10.3582
G01 X3.2788 Y10.3462
G01 X3.2657 Y10.3313
G01 X3.2100 Y10.2741
G01 X3.1988 Y10.2644
G01 X3.1909 Y10.2583
G01 X3.1785 Y10.2500
G01 X3.1699 Y10.2450
G01 X3.1611 Y10.2405
G01 X3.1475 Y10.2344
G01 X3.1382 Y10.2310
G01 X3.1239 Y10.2267
G01 X3.0511 Y10.2096
G01 X3.0315 Y10.2060
G01 X3.0117 Y10.2044
G01 X2.9968 Y10.2045
G01 X2.9820 Y10.2057
G01 X2.9673 Y10.2080
G01 X2.9528 Y10.2114
G01 X2.9385 Y10.2158
G01 X2.8727 Y10.2392
G01 X2.8546 Y10.2467
G01 X2.8415 Y10.2534
G01 X2.8249 Y10.2639
G01 X2.8132 Y10.2727
G01 X2.7898 Y10.2928
G01 X2.7819 Y10.3004
G01 X1.6707 Y11.4249
G01 X1.6643 Y11.4320
G01 X1.6555 Y11.4432
G01 X1.6449 Y11.4590
G01 X1.6048 Y11.5331
G01 X1.5987 Y11.5464
G01 X1.5935 Y11.5600
G01 X1.5882 Y11.5788
G01 X1.5855 Y11.5931
G01 X1.5811 Y11.6336
G01 X1.5805 Y11.6492
G01 X1.5792 Y27.1628
G01 X1.5805 Y27.1818
G01 X1.5827 Y27.1959
G01 X1.5847 Y27.2052
G01 X1.6069 Y27.2815
G01 X1.6116 Y27.2956
G01 X1.6174 Y27.3093
G01 X1.6241 Y27.3226
G01 X1.6319 Y27.3353
G01 X1.6436 Y27.3513
G01 X1.6534 Y27.3625
G01 X1.6605 Y27.3696
G01 X1.7244 Y27.4252
G01 X1.7363 Y27.4343
G01 X1.7488 Y27.4425
G01 X1.7619 Y27.4497
G01 X1.7755 Y27.4559
G01 X1.7895 Y27.4610
G01 X1.8039 Y27.4651
G01 X1.8599 Y27.4775
G01 X1.8786 Y27.4806
G01 X1.8974 Y27.4820
G01 X3.0120 Y27.4854
G01 X3.0311 Y27.4845
G01 X3.0499 Y27.4819
G01 X3.0684 Y27.4775
G01 X3.1355 Y27.4580
G01 X3.1496 Y27.4533
G01 X3.1634 Y27.4476
G01 X3.1810 Y27.4384
G01 X3.1976 Y27.4275
G01 X3.2131 Y27.4150
G01 X3.2272 Y27.4010
G01 X3.2764 Y27.3447
G01 X3.2858 Y27.3330
G01 X3.2916 Y27.3248
G01 X3.2996 Y27.3120
G01 X3.3043 Y27.3032
G01 X3.3105 Y27.2895
G01 X3.3157 Y27.2754
G01 X3.3199 Y27.2609
G01 X3.3333 Y27.1995
G01 X3.3361 Y27.1805
G01 X3.3368 Y27.1710
G01 X3.3370 Y27.1579
G01 X3.3396 Y27.1339
G01 X3.3710 Y27.0495
G01 X3.4228 Y26.9803
G01 X3.4920 Y26.9285
G01 X3.5764 Y26.8971
G01 X3.6003 Y26.8945
G01 X4.7200 Y26.8944
G01 X4.7295 Y26.8940
G01 X4.7437 Y26.8925
G01 X4.7531 Y26.8909
G01 X4.7670 Y26.8877
G01 X4.8433 Y26.8653
G01 X4.8617 Y26.8584
G01 X4.8750 Y26.8520
G01 X4.8878 Y26.8447
G01 X4.9039 Y26.8336
G01 X4.9326 Y26.8105
G01 X4.9444 Y26.7996
G01 X9.1491 Y22.5949
G01 X9.2392 Y22.5347
G01 X9.3394 Y22.4932
G01 X9.4458 Y22.4720
G01 X11.6979 Y22.4720
G01 X11.7170 Y22.4711
G01 X11.7311 Y22.4692
G01 X11.7497 Y22.4652
G01 X11.8260 Y22.4428
G01 X11.8444 Y22.4359
G01 X11.8577 Y22.4295
G01 X11.8705 Y22.4222
G01 X11.8866 Y22.4111
G01 X11.9085 Y22.3936
G01 X12.0211 Y22.3241
G01 X12.1419 Y22.2841
G01 X12.2110 Y22.2770
G01 X12.3528 Y22.2770
G01 X12.3670 Y22.2765
G01 X12.3765 Y22.2756
G01 X12.3906 Y22.2734
G01 X12.4045 Y22.2702
G01 X12.4855 Y22.2462
G01 X12.4947 Y22.2428
G01 X12.5081 Y22.2368
G01 X12.5168 Y22.2322
G01 X12.5294 Y22.2246
G01 X12.5414 Y22.2161
G01 X12.5659 Y22.1964
G01 X12.5741 Y22.1895
G01 X12.5819 Y22.1821
G01 X13.8141 Y20.9499
G01 X13.9042 Y20.8897
G01 X14.0044 Y20.8482
G01 X14.1108 Y20.8270
G01 X17.6917 Y20.8270
G01 X17.7981 Y20.8482
G01 X17.8983 Y20.8897
G01 X17.9884 Y20.9499
G01 X18.7791 Y21.7406
G01 X18.7866 Y21.7477
G01 X18.7985 Y21.7576
G01 X18.8112 Y21.7666
G01 X18.8642 Y21.7994
G01 X18.8732 Y21.8046
G01 X18.8823 Y21.8093
G01 X18.8982 Y21.8161
G01 X19.0060 Y21.8826
G01 X19.0949 Y21.9715
G01 X19.1609 Y22.0786
G01 X19.2009 Y22.1994
G01 X19.2080 Y22.2685
G01 X19.2080 Y22.8215
G01 X19.2009 Y22.8906
G01 X19.1609 Y23.0114
G01 X19.0949 Y23.1185
G01 X19.0857 Y23.1284
G01 X19.0767 Y23.1395
G01 X19.0712 Y23.1473
G01 X19.0636 Y23.1594
G01 X19.0233 Y23.2336
G01 X19.0156 Y23.2516
G01 X19.0111 Y23.2656
G01 X19.0086 Y23.2751
G01 X19.0051 Y23.2944
G01 X19.0016 Y23.3257
G01 X19.0006 Y23.3417
G01 X19.0007 Y23.7525
G01 X19.0025 Y23.7714
G01 X19.0041 Y23.7808
G01 X19.0073 Y23.7947
G01 X19.0297 Y23.8710
G01 X19.0330 Y23.8803
G01 X19.0386 Y23.8939
G01 X19.0477 Y23.9113
G01 X19.0585 Y23.9277
G01 X19.0845 Y23.9602
G01 X19.0949 Y23.9715
G01 X19.1609 Y24.0786
G01 X19.2009 Y24.1994
G01 X19.2080 Y24.2685
G01 X19.2080 Y24.4528
G01 X19.2085 Y24.4670
G01 X19.2100 Y24.4812
G01 X19.2126 Y24.4953
G01 X19.2148 Y24.5045
G01 X19.2388 Y24.5855
G01 X19.2422 Y24.5947
G01 X19.2482 Y24.6081
G01 X19.2552 Y24.6211
G01 X19.2604 Y24.6294
G01 X19.2689 Y24.6414
G01 X19.2886 Y24.6659
G01 X19.2955 Y24.6741
G01 X19.3029 Y24.6819
G01 X21.4526 Y26.8316
G01 X21.5128 Y26.9217
G01 X21.5543 Y27.0219
G01 X21.5784 Y27.1426
G01 X21.5834 Y27.1610
G01 X21.5884 Y27.1745
G01 X21.5922 Y27.1833
G01 X21.6288 Y27.2537
G01 X21.6362 Y27.2667
G01 X21.6445 Y27.2790
G01 X21.6506 Y27.2869
G01 X21.6570 Y27.2945
G01 X21.6674 Y27.3052
G01 X21.6823 Y27.3182
G01 X21.6985 Y27.3297
G01 X21.7720 Y27.3717
G01 X21.7894 Y27.3800
G01 X21.8029 Y27.3852
G01 X21.8167 Y27.3893
G01 X21.8308 Y27.3924
G01 X21.8404 Y27.3939
G01 X21.8547 Y27.3953
G01 X21.9021 Y27.3980
G01 X21.9179 Y27.3980
G01 X22.0592 Y27.4139
G01 X22.0782 Y27.4151
G01 X22.0972 Y27.4145
G01 X22.1114 Y27.4129
G01 X22.1849 Y27.4001
G01 X22.1995 Y27.3970
G01 X22.2185 Y27.3912
G01 X22.2368 Y27.3835
G01 X22.2543 Y27.3740
G01 X22.2707 Y27.3629
G01 X22.2860 Y27.3502
G01 X22.3409 Y27.2995
G01 X22.3509 Y27.2890
G01 X22.3602 Y27.2779
G01 X22.3686 Y27.2661
G01 X22.3785 Y27.2495
G01 X22.3867 Y27.2320
G01 X22.3918 Y27.2184
G01 X22.4135 Y27.1406
G01 X22.4173 Y27.1213
G01 X22.4190 Y27.1067
G01 X22.4195 Y27.0919
G01 X22.4193 Y23.8654
G01 X22.4175 Y23.8465
G01 X22.4139 Y23.8278
G01 X22.3903 Y23.7468
G01 X22.3852 Y23.7328
G01 X22.3791 Y23.7193
G01 X22.3720 Y23.7062
G01 X22.3640 Y23.6937
G01 X22.3550 Y23.6818
G01 X22.3486 Y23.6742
G01 X22.3073 Y23.6307
G01 X22.3004 Y23.6244
G01 X22.2897 Y23.6156
G01 X22.2631 Y23.5963
G01 X22.1462 Y23.4794
G01 X22.0490 Y23.3456
G01 X21.9740 Y23.1983
G01 X21.9229 Y23.0410
G01 X21.8970 Y22.8777
G01 X21.8970 Y22.2123
G01 X21.9229 Y22.0490
G01 X21.9740 Y21.8917
G01 X22.0490 Y21.7444
G01 X22.1462 Y21.6106
G01 X22.2631 Y21.4937
G01 X22.3969 Y21.3965
G01 X22.5442 Y21.3215
G01 X22.7015 Y21.2704
G01 X22.8648 Y21.2445
G01 X23.0302 Y21.2445
G01 X23.1935 Y21.2704
G01 X23.3508 Y21.3215
G01 X23.4981 Y21.3965
G01 X23.6319 Y21.4937
G01 X23.7488 Y21.6106
G01 X23.8460 Y21.7444
G01 X23.9291 Y21.9076
G01 X23.9361 Y21.9201
G01 X23.9412 Y21.9281
G01 X23.9495 Y21.9397
G01 X23.9587 Y21.9506
G01 X24.0099 Y22.0049
G01 X24.0205 Y22.0153
G01 X24.0319 Y22.0249
G01 X24.0398 Y22.0309
G01 X24.0523 Y22.0390
G01 X24.0609 Y22.0439
G01 X24.0698 Y22.0484
G01 X24.0835 Y22.0542
G01 X24.1024 Y22.0604
G01 X24.1750 Y22.0785
G01 X24.1945 Y22.0823
G01 X24.2093 Y22.0839
G01 X24.2242 Y22.0844
G01 X24.2440 Y22.0833
G01 X24.2588 Y22.0811
G01 X24.2733 Y22.0779
G01 X24.2876 Y22.0737
G01 X24.3537 Y22.0511
G01 X24.3716 Y22.0441
G01 X24.3887 Y22.0353
G01 X24.4009 Y22.0277
G01 X24.4163 Y22.0162
G01 X24.4271 Y22.0067
G01 X24.4404 Y21.9928
G01 X24.4794 Y21.9477
G01 X24.4885 Y21.9364
G01 X24.4968 Y21.9244
G01 X24.5065 Y21.9076
G01 X24.5895 Y21.7447
G01 X24.6866 Y21.6110
G01 X24.8035 Y21.4941
G01 X24.9372 Y21.3970
G01 X25.0375 Y21.3458
G01 X25.0375 Y21.4584
G01 X24.9597 Y21.5051
G01 X24.8848 Y21.5606
G01 X24.8157 Y21.6232
G01 X24.7531 Y21.6923
G01 X24.6976 Y21.7672
G01 X24.6497 Y21.8472
G01 X24.6098 Y21.9315
G01 X24.5815 Y22.0099
G01 X24.5758 Y22.0287
G01 X24.5558 Y22.1097
G01 X24.5433 Y22.1921
G01 X24.5414 Y22.2117
G01 X24.5375 Y22.2950
G01 X24.5375 Y22.7950
G01 X24.5421 Y22.8881
G01 X24.5541 Y22.9707
G01 X24.5579 Y22.9899
G01 X24.5784 Y23.0708
G01 X24.6063 Y23.1494
G01 X24.6138 Y23.1675
G01 X24.6497 Y23.2428
G01 X24.6976 Y23.3228
G01 X24.7471 Y23.3899
G01 X24.7596 Y23.4051
G01 X24.8157 Y23.4668
G01 X24.8774 Y23.5229
G01 X24.8926 Y23.5354
G01 X24.9597 Y23.5849
G01 X25.0375 Y23.6316
G01 X25.0375 Y23.7442
G01 X24.9372 Y23.6930
G01 X24.8035 Y23.5959
G01 X24.6866 Y23.4790
G01 X24.5895 Y23.3453
G01 X24.5064 Y23.1824
G01 X24.5019 Y23.1740
G01 X24.4944 Y23.1619
G01 X24.4860 Y23.1503
G01 X24.4769 Y23.1394
G01 X24.4257 Y23.0851
G01 X24.4114 Y23.0714
G01 X24.3957 Y23.0591
G01 X24.3790 Y23.0485
G01 X24.3612 Y23.0395
G01 X24.3520 Y23.0358
G01 X24.3379 Y23.0309
G01 X24.2508 Y23.0094
G01 X24.2411 Y23.0077
G01 X24.2262 Y23.0061
G01 X24.2114 Y23.0056
G01 X24.2014 Y23.0060
G01 X24.1866 Y23.0073
G01 X24.1768 Y23.0089
G01 X24.1622 Y23.0121
G01 X24.1527 Y23.0148
G01 X24.0773 Y23.0405
G01 X24.0596 Y23.0480
G01 X24.0469 Y23.0547
G01 X24.0386 Y23.0597
G01 X24.0268 Y23.0678
G01 X24.0192 Y23.0738
G01 X24.0084 Y23.0833
G01 X23.9952 Y23.0972
G01 X23.9530 Y23.1460
G01 X23.9414 Y23.1615
G01 X23.9313 Y23.1781
G01 X23.8460 Y23.3456
G01 X23.7488 Y23.4794
G01 X23.6140 Y23.6142
G01 X23.6077 Y23.6211
G01 X23.5989 Y23.6320
G01 X23.5884 Y23.6475
G01 X23.5506 Y23.7092
G01 X23.5422 Y23.7264
G01 X23.5370 Y23.7397
G01 X23.5316 Y23.7579
G01 X23.5287 Y23.7719
G01 X23.5220 Y23.8172
G01 X23.5206 Y23.8367
G01 X23.5205 Y27.1544
G01 X23.5214 Y27.1734
G01 X23.5225 Y27.1829
G01 X23.5251 Y27.1969
G01 X23.5286 Y27.2108
G01 X23.5497 Y27.2826
G01 X23.5548 Y27.2966
G01 X23.5588 Y27.3057
G01 X23.5655 Y27.3189
G01 X23.5733 Y27.3317
G01 X23.5820 Y27.3438
G01 X23.5915 Y27.3552
G01 X23.6019 Y27.3659
G01 X23.6092 Y27.3726
G01 X23.6658 Y27.4216
G01 X23.6777 Y27.4306
G01 X23.6859 Y27.4361
G01 X23.7032 Y27.4459
G01 X23.7214 Y27.4540
G01 X23.7355 Y27.4588
G01 X23.7547 Y27.4635
G01 X23.8432 Y27.4763
G01 X23.8575 Y27.4771
G01 X23.8671 Y27.4771
G01 X23.8766 Y27.4766
G01 X23.8909 Y27.4751
G01 X23.9096 Y27.4714
G01 X23.9376 Y27.4645
G01 X23.9469 Y27.4618
G01 X24.0855 Y27.4134
G01 X24.2200 Y27.3982
G01 X24.3545 Y27.4134
G01 X24.4822 Y27.4580
G01 X24.5968 Y27.5300
G01 X24.6925 Y27.6257
G01 X24.7645 Y27.7403
G01 X24.8091 Y27.8680
G01 X24.8243 Y28.0025
G01 X24.8091 Y28.1370
G01 X24.7887 Y28.1955
G01 X24.7832 Y28.2139
G01 X24.7803 Y28.2280
G01 X24.7726 Y28.2737
G01 X24.7710 Y28.2881
G01 X24.7705 Y28.3025
G01 X24.7705 Y34.1942
G01 X24.7493 Y34.3006
G01 X24.7078 Y34.4008
G01 X24.6476 Y34.4909
G01 X22.4158 Y36.7227
G01 X22.4030 Y36.7368
G01 X22.3943 Y36.7481
G01 X22.3865 Y36.7600
G01 X22.3817 Y36.7683
G01 X22.3437 Y36.8384
G01 X22.3377 Y36.8521
G01 X22.3343 Y36.8614
G01 X22.3289 Y36.8805
G01 X22.3261 Y36.8951
G01 X22.3248 Y36.9050
G01 X22.3238 Y36.9198
G01 X22.3238 Y36.9298
G01 X22.3293 Y37.0094
G01 X22.3309 Y37.0242
G01 X22.3347 Y37.0437
G01 X22.3389 Y37.0580
G01 X22.3441 Y37.0720
G01 X22.3526 Y37.0899
G01 X22.3602 Y37.1027
G01 X22.3657 Y37.1110
G01 X22.4135 Y37.1749
G01 X22.4232 Y37.1862
G01 X22.4337 Y37.1968
G01 X22.4411 Y37.2034
G01 X22.4528 Y37.2126
G01 X22.4651 Y37.2210
G01 X22.4737 Y37.2260
G01 X22.4870 Y37.2327
G01 X22.4975 Y37.2372
G01 X22.4975 Y37.4584
G01 X22.4197 Y37.5051
G01 X22.3448 Y37.5606
G01 X22.2757 Y37.6232
G01 X22.2196 Y37.6849
G01 X22.2071 Y37.7001
G01 X22.1576 Y37.7672
G01 X22.1145 Y37.8386
G01 X22.1053 Y37.8559
G01 X22.0738 Y37.9225
G01 X22.0663 Y37.9406
G01 X22.0384 Y38.0192
G01 X22.0192 Y38.0950
G01 X21.9161 Y38.0950
G01 X21.9234 Y38.0491
G01 X21.9648 Y37.9213
G01 X21.9694 Y37.9028
G01 X21.9722 Y37.8840
G01 X21.9731 Y37.8697
G01 X21.9751 Y37.7999
G01 X21.9752 Y37.7900
G01 X21.9743 Y37.7751
G01 X21.9714 Y37.7554
G01 X21.9666 Y37.7362
G01 X21.9618 Y37.7221
G01 X21.9537 Y37.7039
G01 X21.9465 Y37.6909
G01 X21.9104 Y37.6311
G01 X21.9022 Y37.6186
G01 X21.8932 Y37.6068
G01 X21.8866 Y37.5993
G01 X21.8762 Y37.5887
G01 X21.8650 Y37.5789
G01 X21.8489 Y37.5672
G01 X21.8362 Y37.5595
G01 X21.7602 Y37.5219
G01 X21.7511 Y37.5180
G01 X21.7372 Y37.5130
G01 X21.7230 Y37.5090
G01 X21.7133 Y37.5070
G01 X21.6987 Y37.5048
G01 X21.6888 Y37.5039
G01 X21.6790 Y37.5035
G01 X21.6642 Y37.5039
G01 X21.5857 Y37.5124
G01 X21.5756 Y37.5138
G01 X21.5605 Y37.5168
G01 X21.5457 Y37.5210
G01 X21.5360 Y37.5245
G01 X21.5181 Y37.5318
G01 X21.4117 Y37.5530
G01 X19.2898 Y37.5531
G01 X19.2708 Y37.5544
G01 X19.2567 Y37.5566
G01 X19.2474 Y37.5586
G01 X19.1618 Y37.5838
G01 X19.1436 Y37.5911
G01 X19.1305 Y37.5978
G01 X19.1138 Y37.6081
G01 X19.1020 Y37.6170
G01 X19.0773 Y37.6370
G01 X19.0693 Y37.6442
G01 X19.0060 Y37.7074
G01 X18.9029 Y37.7710
G01 X18.8907 Y37.7794
G01 X18.8829 Y37.7855
G01 X18.8718 Y37.7954
G01 X18.8615 Y37.8060
G01 X18.8148 Y37.8580
G01 X18.8022 Y37.8734
G01 X18.7939 Y37.8857
G01 X18.7842 Y37.9030
G01 X18.7781 Y37.9166
G01 X18.7716 Y37.9354
G01 X18.7690 Y37.9450
G01 X18.7661 Y37.9596
G01 X18.7549 Y38.0285
G01 X18.7526 Y38.0483
G01 X18.7523 Y38.0632
G01 X18.7530 Y38.0781
G01 X18.7549 Y38.0928
G01 X18.7578 Y38.1074
G01 X18.7618 Y38.1218
G01 X18.7651 Y38.1312
G01 X18.7832 Y38.1736
G01 X18.7640 Y38.1810
G01 X18.7418 Y38.1915
G01 X18.7332 Y38.1961
G01 X18.7121 Y38.2087
G01 X18.7040 Y38.2142
G01 X18.6842 Y38.2288
G01 X18.6767 Y38.2350
G01 X18.6585 Y38.2515
G01 X18.6482 Y38.2621
G01 X18.6319 Y38.2804
G01 X18.6114 Y38.3080
G01 X18.5938 Y38.3375
G01 X18.5831 Y38.3596
G01 X18.5785 Y38.3700
G01 X18.0700 Y38.3700
G01 X18.0271 Y38.3721
G01 X17.9943 Y38.3767
G01 X17.9798 Y38.3794
G01 X17.9525 Y38.3862
G01 X17.9337 Y38.3919
G01 X17.9026 Y38.4033
G01 X17.8638 Y38.4217
G01 X17.8270 Y38.4437
G01 X17.8002 Y38.4633
G01 X17.7850 Y38.4757
G01 X17.7642 Y38.4947
G01 X17.7572 Y38.5017
G01 X17.7318 Y38.5300
G01 X17.7062 Y38.5644
G01 X17.6842 Y38.6013
G01 X17.6658 Y38.6401
G01 X17.6513 Y38.6805
G01 X17.6409 Y38.7221
G01 X17.6346 Y38.7646
G01 X17.6327 Y38.7977
G01 X17.6325 Y39.2825
G01 X17.6346 Y39.3254
G01 X17.6400 Y39.3630
G01 X17.6431 Y39.3774
G01 X17.6513 Y39.4095
G01 X17.6623 Y39.4408
G01 X17.6677 Y39.4544
G01 X17.6842 Y39.4887
G01 X17.7010 Y39.5173
G01 X17.7110 Y39.5324
G01 X17.6107 Y39.6327
G01 X17.5935 Y39.6265
G01 X17.5743 Y39.6216
G01 X17.5547 Y39.6186
G01 X17.5348 Y39.6175
G01 X17.5199 Y39.6180
G01 X17.4403 Y39.6240
G01 X17.4206 Y39.6274
G01 X17.4014 Y39.6328
G01 X17.3873 Y39.6380
G01 X17.3782 Y39.6421
G01 X17.3606 Y39.6516
G01 X17.3058 Y39.6869
G01 X17.2937 Y39.6961
G01 X17.2811 Y39.7073
G01 X17.1739 Y39.7734
G01 X17.0531 Y39.8134
G01 X16.9840 Y39.8205
G01 X16.3060 Y39.8205
G01 X16.2369 Y39.8134
G01 X16.1161 Y39.7734
G01 X16.0090 Y39.7074
G01 X15.9201 Y39.6185
G01 X15.8541 Y39.5114
G01 X15.8141 Y39.3906
G01 X15.8070 Y39.3215
G01 X15.8070 Y38.7685
G01 X15.8141 Y38.6994
G01 X15.8540 Y38.5788
G01 X15.9201 Y38.4715
G01 X16.0146 Y38.3771
G01 X16.0212 Y38.3702
G01 X16.0304 Y38.3593
G01 X16.0388 Y38.3477
G01 X16.0487 Y38.3315
G01 X16.0845 Y38.2658
G01 X16.0926 Y38.2479
G01 X16.0989 Y38.2294
G01 X16.1034 Y38.2103
G01 X16.1055 Y38.1957
G01 X16.1092 Y38.1587
G01 X16.1095 Y38.1479
G01 X16.1095 Y37.9421
G01 X16.1090 Y37.9278
G01 X16.1075 Y37.9136
G01 X16.1059 Y37.9042
G01 X16.1027 Y37.8903
G01 X16.0803 Y37.8140
G01 X16.0753 Y37.8001
G01 X16.0670 Y37.7823
G01 X16.0597 Y37.7695
G01 X16.0515 Y37.7573
G01 X16.0289 Y37.7289
G01 X16.0220 Y37.7207
G01 X16.0146 Y37.7130
G01 X15.9201 Y37.6185
G01 X15.8541 Y37.5114
G01 X15.8141 Y37.3906
G01 X15.8070 Y37.3215
G01 X15.8070 Y36.7685
G01 X15.8141 Y36.6994
G01 X15.8541 Y36.5786
G01 X15.9201 Y36.4715
G01 X16.0090 Y36.3826
G01 X16.1161 Y36.3166
G01 X16.2211 Y36.2818
G01 X16.2346 Y36.2764
G01 X16.2519 Y36.2678
G01 X16.2684 Y36.2576
G01 X16.3338 Y36.2120
G01 X16.3489 Y36.1991
G01 X16.3627 Y36.1848
G01 X16.3691 Y36.1771
G01 X16.3778 Y36.1651
G01 X16.3857 Y36.1525
G01 X16.3904 Y36.1437
G01 X16.3966 Y36.1302
G01 X16.4253 Y36.0612
G01 X16.4314 Y36.0427
G01 X16.4357 Y36.0238
G01 X16.4382 Y36.0046
G01 X16.4394 Y35.9809
G01 X16.4395 Y34.6040
G01 X16.4386 Y34.5849
G01 X16.4367 Y34.5708
G01 X16.4349 Y34.5614
G01 X16.4314 Y34.5476
G01 X16.4117 Y34.4806
G01 X16.4052 Y34.4618
G01 X16.3968 Y34.4438
G01 X16.3867 Y34.4267
G01 X16.3780 Y34.4146
G01 X16.3651 Y34.3995
G01 X16.3508 Y34.3858
G01 X16.2942 Y34.3368
G01 X16.2783 Y34.3250
G01 X16.2656 Y34.3171
G01 X16.2568 Y34.3125
G01 X16.2433 Y34.3063
G01 X16.2293 Y34.3011
G01 X16.2198 Y34.2982
G01 X16.2004 Y34.2940
G01 X16.1675 Y34.2892
G01 X16.1675 Y34.0499
G01 X16.1784 Y34.0306
G01 X16.1889 Y34.0085
G01 X16.1927 Y33.9994
G01 X16.1993 Y33.9809
G01 X16.2038 Y33.9669
G01 X16.2108 Y33.9383
G01 X16.2146 Y33.9140
G01 X16.2162 Y33.8994
G01 X16.2174 Y33.8749
G01 X16.2174 Y32.2151
G01 X16.2162 Y32.1906
G01 X16.2153 Y32.1808
G01 X16.2117 Y32.1565
G01 X16.2098 Y32.1469
G01 X16.2038 Y32.1231
G01 X16.2009 Y32.1137
G01 X16.1927 Y32.0906
G01 X16.1889 Y32.0815
G01 X16.1803 Y32.0631
G01 X16.1737 Y32.0506
G01 X16.1612 Y32.0297
G01 X16.1557 Y32.0215
G01 X16.1411 Y32.0018
G01 X16.1349 Y31.9942
G01 X16.1184 Y31.9760
G01 X16.1115 Y31.9691
G01 X16.0897 Y31.9496
G01 X16.0619 Y31.9290
G01 X16.0325 Y31.9113
G01 X16.0060 Y31.8986
G01 X15.9969 Y31.8948
G01 X15.9738 Y31.8866
G01 X15.9644 Y31.8837
G01 X15.9454 Y31.8789
G01 X15.9310 Y31.8758
G01 X15.9115 Y31.8729
G01 X15.8920 Y31.8710
G01 X15.8675 Y31.8700
G01 X15.5675 Y31.8700
G01 X15.5430 Y31.8710
G01 X15.5283 Y31.8722
G01 X15.4992 Y31.8767
G01 X15.4754 Y31.8825
G01 X15.4612 Y31.8866
G01 X15.4381 Y31.8948
G01 X15.4246 Y31.9006
G01 X15.4022 Y31.9115
G01 X15.3813 Y31.9237
G01 X15.3690 Y31.9318
G01 X15.3455 Y31.9494
G01 X15.3200 Y31.9725
G01 X15.2971 Y31.9978
G01 X15.2765 Y32.0256
G01 X15.2588 Y32.0550
G01 X15.2441 Y32.0861
G01 X15.2326 Y32.1184
G01 X15.2252 Y32.1469
G01 X15.2233 Y32.1565
G01 X15.2197 Y32.1808
G01 X15.2188 Y32.1906
G01 X15.2176 Y32.2151
G01 X15.2175 Y32.5950
G01 X14.9234 Y32.5950
G01 X14.9092 Y32.5955
G01 X14.8903 Y32.5978
G01 X14.8763 Y32.6006
G01 X14.7954 Y32.6242
G01 X14.7815 Y32.6292
G01 X14.7725 Y32.6331
G01 X14.7594 Y32.6398
G01 X14.7468 Y32.6474
G01 X14.7348 Y32.6559
G01 X14.7061 Y32.6790
G01 X14.6982 Y32.6862
G01 X14.6718 Y32.7125
G01 X14.5572 Y32.7845
G01 X14.4626 Y32.8176
G01 X14.4441 Y32.8251
G01 X14.4308 Y32.8319
G01 X14.4223 Y32.8370
G01 X14.3741 Y32.8673
G01 X14.3623 Y32.8755
G01 X14.3510 Y32.8845
G01 X14.3405 Y32.8943
G01 X13.1154 Y34.1194
G01 X13.1057 Y34.1298
G01 X13.0967 Y34.1410
G01 X13.0886 Y34.1527
G01 X13.0813 Y34.1650
G01 X13.0455 Y34.2306
G01 X13.0374 Y34.2485
G01 X13.0311 Y34.2671
G01 X13.0266 Y34.2862
G01 X13.0245 Y34.3008
G01 X13.0208 Y34.3378
G01 X13.0205 Y34.3485
G01 X13.0207 Y35.7250
G01 X13.0225 Y35.7439
G01 X13.0251 Y35.7580
G01 X13.0273 Y35.7672
G01 X13.0497 Y35.8435
G01 X13.0547 Y35.8574
G01 X13.0607 Y35.8708
G01 X13.0677 Y35.8838
G01 X13.0756 Y35.8962
G01 X13.0814 Y35.9041
G01 X13.1011 Y35.9286
G01 X13.1117 Y35.9407
G01 X13.1499 Y35.9790
G01 X13.2159 Y36.0861
G01 X13.2559 Y36.2069
G01 X13.2630 Y36.2760
G01 X13.2630 Y36.8540
G01 X13.2559 Y36.9231
G01 X13.2302 Y37.0007
G01 X12.5284 Y37.7025
G01 X12.2402 Y37.7027
G01 X12.2120 Y37.7042
G01 X12.1974 Y37.7058
G01 X12.1646 Y37.7109
G01 X12.1325 Y37.7187
G01 X12.1183 Y37.7228
G01 X12.0871 Y37.7340
G01 X12.0781 Y37.7377
G01 X12.0525 Y37.7497
G01 X12.0352 Y37.7590
G01 X12.0112 Y37.7735
G01 X11.9989 Y37.7819
G01 X11.9725 Y37.8018
G01 X11.9406 Y37.8306
G01 X11.9118 Y37.8625
G01 X11.8919 Y37.8889
G01 X11.8859 Y37.8974
G01 X11.7681 Y37.8974
G01 X11.8255 Y37.8044
G01 X11.9262 Y37.7036
G01 X11.9387 Y37.6892
G01 X11.9497 Y37.6737
G01 X11.9570 Y37.6614
G01 X11.9905 Y37.6001
G01 X11.9950 Y37.5912
G01 X12.0010 Y37.5776
G01 X12.0060 Y37.5635
G01 X12.0109 Y37.5443
G01 X12.0133 Y37.5296
G01 X12.0149 Y37.5098
G01 X12.0145 Y37.4899
G01 X12.0095 Y37.4203
G01 X12.0078 Y37.4054
G01 X12.0051 Y37.3906
G01 X12.0013 Y37.3761
G01 X11.9964 Y37.3620
G01 X11.9925 Y37.3527
G01 X11.9859 Y37.3393
G01 X11.9782 Y37.3264
G01 X11.9484 Y37.2800
G01 X11.9426 Y37.2717
G01 X11.9364 Y37.2637
G01 X11.9299 Y37.2561
G01 X11.9229 Y37.2488
G01 X11.8251 Y37.1510
G01 X11.7591 Y37.0439
G01 X11.7191 Y36.9231
G01 X11.7120 Y36.8540
G01 X11.7120 Y36.2760
G01 X11.7191 Y36.2069
G01 X11.7591 Y36.0861
G01 X11.8251 Y35.9790
G01 X11.8343 Y35.9691
G01 X11.8404 Y35.9618
G01 X11.8461 Y35.9541
G01 X11.8540 Y35.9422
G01 X11.8922 Y35.8727
G01 X11.8988 Y35.8595
G01 X11.9026 Y35.8504
G01 X11.9075 Y35.8366
G01 X11.9125 Y35.8176
G01 X11.9155 Y35.7982
G01 X11.9192 Y35.7612
G01 X11.9195 Y35.7504
G01 X11.9194 Y34.4624
G01 X11.9185 Y34.4477
G01 X11.9166 Y34.4331
G01 X11.9052 Y34.3760
G01 X11.9015 Y34.3618
G01 X11.8984 Y34.3525
G01 X11.8812 Y34.3105
G01 X11.8620 Y34.2138
G01 X11.8620 Y34.1152
G01 X11.8812 Y34.0185
G01 X11.9190 Y33.9274
G01 X11.9385 Y33.8977
G01 X11.9571 Y33.8634
G01 X11.9632 Y33.8500
G01 X11.9822 Y33.8042
G01 X12.0424 Y33.7141
G01 X12.1191 Y33.6374
G01 X12.2094 Y33.5770
G01 X12.2232 Y33.5703
G01 X12.2402 Y33.5602
G01 X12.2845 Y33.5305
G01 X12.2962 Y33.5216
G01 X12.3072 Y33.5118
G01 X13.0218 Y32.7974
G01 X13.0315 Y32.7869
G01 X13.0405 Y32.7758
G01 X13.0460 Y32.7680
G01 X13.0536 Y32.7559
G01 X13.0894 Y32.6905
G01 X13.0960 Y32.6771
G01 X13.1017 Y32.6633
G01 X13.1063 Y32.6492
G01 X13.1107 Y32.6298
G01 X13.1128 Y32.6151
G01 X13.1138 Y32.6002
G01 X13.1136 Y32.5853
G01 X13.1084 Y32.5107
G01 X13.1060 Y32.4909
G01 X13.1016 Y32.4716
G01 X13.0971 Y32.4574
G01 X13.0895 Y32.4390
G01 X13.0801 Y32.4215
G01 X13.0690 Y32.4051
G01 X13.0210 Y32.3413
G01 X13.0144 Y32.3338
G01 X13.0040 Y32.3232
G01 X12.9927 Y32.3135
G01 X12.9849 Y32.3074
G01 X12.9767 Y32.3018
G01 X12.9639 Y32.2940
G01 X12.9507 Y32.2873
G01 X12.9415 Y32.2834
G01 X12.8668 Y32.2555
G01 X12.8525 Y32.2512
G01 X12.8380 Y32.2479
G01 X12.8183 Y32.2453
G01 X12.8035 Y32.2446
G01 X12.7771 Y32.2449
G01 X12.7646 Y32.2455
G01 X12.2110 Y32.2455
G01 X12.1419 Y32.2384
G01 X12.0211 Y32.1984
G01 X11.9140 Y32.1324
G01 X11.8136 Y32.0321
G01 X11.7993 Y32.0196
G01 X11.7838 Y32.0086
G01 X11.7715 Y32.0013
G01 X11.7102 Y31.9678
G01 X11.6925 Y31.9592
G01 X11.6787 Y31.9540
G01 X11.6646 Y31.9498
G01 X11.6503 Y31.9466
G01 X11.6357 Y31.9445
G01 X11.6040 Y31.9411
G01 X11.5879 Y31.9405
G01 X8.7158 Y31.9405
G01 X8.6094 Y31.9193
G01 X8.5092 Y31.8778
G01 X8.4191 Y31.8176
G01 X7.7371 Y31.1359
G01 X7.7223 Y31.1237
G01 X7.7053 Y31.1116
G01 X7.6949 Y31.1034
G01 X7.6869 Y31.0978
G01 X7.5432 Y31.0075
G01 X7.4475 Y30.9118
G01 X7.3755 Y30.7972
G01 X7.3309 Y30.6695
G01 X7.3157 Y30.5350
G01 X7.3308 Y30.4005
G01 X7.3755 Y30.2728
G01 X7.4475 Y30.1582
G01 X7.5432 Y30.0625
G01 X7.6578 Y29.9905
G01 X7.7855 Y29.9459
G01 X7.9200 Y29.9307
G01 X8.0545 Y29.9459
G01 X8.1822 Y29.9905
G01 X8.2968 Y30.0625
G01 X8.3925 Y30.1582
G01 X8.4698 Y30.2812
G01 X8.4775 Y30.2949
G01 X8.5071 Y30.3417
G01 X8.5154 Y30.3538
G01 X8.5278 Y30.3690
G01 X8.9031 Y30.7446
G01 X8.9136 Y30.7543
G01 X8.9209 Y30.7604
G01 X8.9364 Y30.7714
G01 X8.9487 Y30.7787
G01 X9.0100 Y30.8122
G01 X9.0277 Y30.8208
G01 X9.0414 Y30.8260
G01 X9.0555 Y30.8302
G01 X9.0699 Y30.8334
G01 X9.0796 Y30.8349
G01 X9.1108 Y30.8384
G01 X9.1215 Y30.8392
G01 X9.1322 Y30.8395
G01 X11.5985 Y30.8393
G01 X11.6174 Y30.8375
G01 X11.6361 Y30.8339
G01 X11.7123 Y30.8117
G01 X11.7265 Y30.8070
G01 X11.7357 Y30.8033
G01 X11.7447 Y30.7991
G01 X11.7578 Y30.7920
G01 X11.7662 Y30.7867
G01 X11.7783 Y30.7780
G01 X11.7898 Y30.7685
G01 X11.8004 Y30.7581
G01 X11.8561 Y30.6942
G01 X11.8651 Y30.6823
G01 X11.8707 Y30.6741
G01 X11.8804 Y30.6568
G01 X11.8885 Y30.6386
G01 X11.8947 Y30.6198
G01 X11.8980 Y30.6053
G01 X11.8997 Y30.5955
G01 X11.9096 Y30.5263
G01 X11.9115 Y30.5065
G01 X11.9116 Y30.4916
G01 X11.9106 Y30.4768
G01 X11.9085 Y30.4620
G01 X11.9052 Y30.4475
G01 X11.9010 Y30.4332
G01 X11.8956 Y30.4193
G01 X11.8646 Y30.3512
G01 X11.8582 Y30.3384
G01 X11.8532 Y30.3298
G01 X11.8449 Y30.3173
G01 X11.8357 Y30.3055
G01 X11.8257 Y30.2945
G01 X11.7591 Y30.1864
G01 X11.7191 Y30.0656
G01 X11.7120 Y29.9965
G01 X11.7120 Y29.3435
G01 X11.7191 Y29.2744
G01 X11.7591 Y29.1536
G01 X11.8251 Y29.0465
G01 X11.8779 Y28.9936
G01 X11.8874 Y28.9830
G01 X11.8988 Y28.9677
G01 X11.9087 Y28.9515
G01 X11.9445 Y28.8858
G01 X11.9508 Y28.8725
G01 X11.9575 Y28.8541
G01 X11.9614 Y28.8399
G01 X11.9642 Y28.8254
G01 X11.9684 Y28.7893
G01 X11.9694 Y28.7733
G01 X11.9695 Y28.5358
G01 X11.9907 Y28.4294
G01 X12.0322 Y28.3292
G01 X12.0924 Y28.2391
G01 X14.3048 Y26.0266
G01 X14.3112 Y26.0196
G01 X14.3202 Y26.0084
G01 X14.3308 Y25.9927
G01 X14.3691 Y25.9231
G01 X14.3757 Y25.9098
G01 X14.3830 Y25.8913
G01 X14.3860 Y25.8818
G01 X14.3895 Y25.8673
G01 X14.3925 Y25.8477
G01 X14.3935 Y25.8279
G01 X14.3930 Y25.8130
G01 X14.3880 Y25.7433
G01 X14.3864 Y25.7285
G01 X14.3837 Y25.7138
G01 X14.3813 Y25.7042
G01 X14.3768 Y25.6900
G01 X14.3732 Y25.6807
G01 X14.3670 Y25.6672
G01 X14.3623 Y25.6585
G01 X14.3516 Y25.6417
G01 X14.3037 Y25.5778
G01 X14.2940 Y25.5664
G01 X14.2870 Y25.5592
G01 X14.2797 Y25.5523
G01 X14.2721 Y25.5458
G01 X14.2601 Y25.5369
G01 X14.2474 Y25.5288
G01 X14.2341 Y25.5218
G01 X14.2204 Y25.5157
G01 X14.1509 Y25.4884
G01 X14.1324 Y25.4831
G01 X14.1230 Y25.4811
G01 X14.1106 Y25.4792
G01 X14.0520 Y25.4587
G01 X14.0336 Y25.4532
G01 X14.0195 Y25.4503
G01 X13.9785 Y25.4433
G01 X13.9642 Y25.4414
G01 X13.9450 Y25.4405
G01 X13.3196 Y25.4405
G01 X13.3005 Y25.4414
G01 X13.2817 Y25.4441
G01 X13.2632 Y25.4486
G01 X13.1915 Y25.4697
G01 X13.1731 Y25.4766
G01 X13.1555 Y25.4853
G01 X13.1470 Y25.4903
G01 X13.1348 Y25.4985
G01 X13.1023 Y25.5245
G01 X13.0904 Y25.5354
G01 X13.0610 Y25.5649
G01 X12.9539 Y25.6309
G01 X12.8331 Y25.6709
G01 X12.7640 Y25.6780
G01 X12.2110 Y25.6780
G01 X12.1419 Y25.6709
G01 X12.0211 Y25.6309
G01 X11.9140 Y25.5649
G01 X11.8251 Y25.4760
G01 X11.7591 Y25.3689
G01 X11.7191 Y25.2481
G01 X11.7120 Y25.1790
G01 X11.7120 Y24.6010
G01 X11.7191 Y24.5319
G01 X11.7591 Y24.4111
G01 X11.8251 Y24.3040
G01 X11.9259 Y24.2032
G01 X11.9383 Y24.1888
G01 X11.9494 Y24.1733
G01 X11.9567 Y24.1610
G01 X11.9901 Y24.0997
G01 X11.9988 Y24.0818
G01 X12.0041 Y24.0679
G01 X12.0083 Y24.0536
G01 X12.0123 Y24.0342
G01 X12.0140 Y24.0194
G01 X12.0146 Y24.0045
G01 X12.0144 Y23.9946
G01 X12.0091 Y23.9199
G01 X12.0075 Y23.9050
G01 X12.0047 Y23.8903
G01 X11.9994 Y23.8710
G01 X11.9921 Y23.8524
G01 X11.9855 Y23.8389
G01 X11.9779 Y23.8260
G01 X11.9480 Y23.7796
G01 X11.9392 Y23.7673
G01 X11.9328 Y23.7595
G01 X11.9226 Y23.7484
G01 X11.8386 Y23.6646
G01 X11.8280 Y23.6551
G01 X11.8166 Y23.6464
G01 X11.8006 Y23.6361
G01 X11.7352 Y23.6003
G01 X11.7220 Y23.5937
G01 X11.7084 Y23.5881
G01 X11.6896 Y23.5823
G01 X11.6704 Y23.5783
G01 X11.6290 Y23.5736
G01 X11.6129 Y23.5730
G01 X9.8575 Y23.5731
G01 X9.8385 Y23.5744
G01 X9.8244 Y23.5766
G01 X9.8151 Y23.5786
G01 X9.7388 Y23.6008
G01 X9.7249 Y23.6055
G01 X9.7113 Y23.6111
G01 X9.6982 Y23.6178
G01 X9.6856 Y23.6254
G01 X9.6736 Y23.6339
G01 X9.6491 Y23.6536
G01 X9.6409 Y23.6605
G01 X9.6331 Y23.6679
G01 X5.7329 Y27.5681
G01 X5.7232 Y27.5786
G01 X5.7114 Y27.5935
G01 X5.7011 Y27.6095
G01 X5.6653 Y27.6750
G01 X5.6587 Y27.6882
G01 X5.6531 Y27.7018
G01 X5.6486 Y27.7158
G01 X5.6441 Y27.7349
G01 X5.6420 Y27.7495
G01 X5.6383 Y27.7865
G01 X5.6380 Y27.7972
G01 X5.6380 Y28.9321
G01 X5.6354 Y28.9561
G01 X5.6040 Y29.0405
G01 X5.5522 Y29.1097
G01 X5.4830 Y29.1615
G01 X5.3726 Y29.2027
G01 X5.3588 Y29.2090
G01 X5.3454 Y29.2164
G01 X5.3368 Y29.2218
G01 X5.3286 Y29.2277
G01 X5.2687 Y29.2726
G01 X5.2573 Y29.2822
G01 X5.2434 Y29.2964
G01 X5.2339 Y29.3078
G01 X5.2226 Y29.3242
G01 X5.2129 Y29.3415
G01 X5.2069 Y29.3552
G01 X5.1807 Y29.4253
G01 X5.1760 Y29.4394
G01 X5.1724 Y29.4538
G01 X5.1706 Y29.4636
G01 X5.1692 Y29.4735
G01 X5.1682 Y29.4883
G01 X5.1685 Y29.5082
G01 X5.1708 Y29.5279
G01 X5.1886 Y29.6108
G01 X5.1928 Y29.6254
G01 X5.1961 Y29.6349
G01 X5.2021 Y29.6488
G01 X5.2090 Y29.6622
G01 X5.2170 Y29.6751
G01 X5.2228 Y29.6833
G01 X5.2468 Y29.7153
G01 X5.2561 Y29.7262
G01 X5.3722 Y29.8426
G01 X5.4877 Y30.0076
G01 X5.5727 Y30.1900
G01 X5.6248 Y30.3845
G01 X5.6424 Y30.5850
G01 X5.6248 Y30.7855
G01 X5.5727 Y30.9800
G01 X5.4877 Y31.1625
G01 X5.3722 Y31.3274
G01 X5.2299 Y31.4697
G01 X5.0582 Y31.5899
G01 X5.0468 Y31.5985
G01 X5.0396 Y31.6047
G01 X5.0293 Y31.6146
G01 X5.0197 Y31.6252
G01 X4.9731 Y31.6834
G01 X4.9642 Y31.6954
G01 X4.9588 Y31.7037
G01 X4.9493 Y31.7212
G01 X4.9415 Y31.7395
G01 X4.9356 Y31.7584
G01 X4.9334 Y31.7681
G01 X4.9309 Y31.7828
G01 X4.9232 Y31.8572
G01 X4.9222 Y31.8721
G01 X4.9226 Y31.8919
G01 X4.9250 Y31.9117
G01 X4.9293 Y31.9310
G01 X4.9355 Y31.9499
G01 X4.9436 Y31.9680
G01 X4.9774 Y32.0347
G01 X4.9874 Y32.0514
G01 X4.9959 Y32.0632
G01 X5.0053 Y32.0743
G01 X5.0154 Y32.0848
G01 X5.0419 Y32.1080
G01 X5.0499 Y32.1146
G01 X5.0582 Y32.1207
G01 X5.2295 Y32.2407
G01 X5.3718 Y32.3830
G01 X5.4872 Y32.5478
G01 X5.5465 Y32.6750
G01 X5.4351 Y32.6750
G01 X5.4179 Y32.6388
G01 X5.4112 Y32.6257
G01 X5.3658 Y32.5499
G01 X5.3578 Y32.5376
G01 X5.2992 Y32.4589
G01 X5.2334 Y32.3861
G01 X5.2229 Y32.3758
G01 X5.1610 Y32.3198
G01 X5.1459 Y32.3073
G01 X5.0708 Y32.2520
G01 X4.9868 Y32.2013
G01 X4.9737 Y32.1946
G01 X4.8893 Y32.1549
G01 X4.8009 Y32.1230
G01 X4.7828 Y32.1176
G01 X4.6923 Y32.0952
G01 X4.6002 Y32.0813
G01 X4.5806 Y32.0793
G01 X4.4875 Y32.0750
G01 X4.3944 Y32.0793
G01 X4.3748 Y32.0813
G01 X4.2822 Y32.0953
G01 X4.1922 Y32.1176
G01 X4.1734 Y32.1233
G01 X4.0857 Y32.1549
G01 X4.0013 Y32.1946
G01 X3.9882 Y32.2013
G01 X3.9042 Y32.2520
G01 X3.8291 Y32.3073
G01 X3.8140 Y32.3198
G01 X3.7521 Y32.3758
G01 X3.7416 Y32.3861
G01 X3.6758 Y32.4589
G01 X3.6172 Y32.5376
G01 X3.6092 Y32.5499
G01 X3.5638 Y32.6257
G01 X3.5571 Y32.6388
G01 X3.5399 Y32.6750
G01 X3.4285 Y32.6750
G01 X3.4878 Y32.5478
G01 X3.6032 Y32.3830
G01 X3.7455 Y32.2407
G01 X3.9207 Y32.1179
G01 X3.9354 Y32.1059
G01 X3.9457 Y32.0960
G01 X3.9583 Y32.0818
G01 X4.0019 Y32.0272
G01 X4.0108 Y32.0152
G01 X4.0188 Y32.0026
G01 X4.0278 Y31.9849
G01 X4.0335 Y31.9712
G01 X4.0367 Y31.9618
G01 X4.0416 Y31.9425
G01 X4.0447 Y31.9229
G01 X4.0518 Y31.8534
G01 X4.0528 Y31.8385
G01 X4.0527 Y31.8236
G01 X4.0520 Y31.8137
G01 X4.0491 Y31.7941
G01 X4.0457 Y31.7796
G01 X4.0428 Y31.7701
G01 X4.0357 Y31.7515
G01 X3.9997 Y31.6799
G01 X3.9927 Y31.6672
G01 X3.9819 Y31.6512
G01 X3.9760 Y31.6435
G01 X3.9664 Y31.6327
G01 X3.9560 Y31.6225
G01 X3.9251 Y31.5960
G01 X3.9168 Y31.5899
G01 X3.7451 Y31.4697
G01 X3.6028 Y31.3274
G01 X3.4873 Y31.1624
G01 X3.4023 Y30.9800
G01 X3.3502 Y30.7856
G01 X3.3326 Y30.5850
G01 X3.3501 Y30.3845
G01 X3.4023 Y30.1900
G01 X3.4873 Y30.0076
G01 X3.6028 Y29.8427
G01 X3.7124 Y29.7331
G01 X3.7221 Y29.7226
G01 X3.7310 Y29.7115
G01 X3.7366 Y29.7038
G01 X3.7441 Y29.6917
G01 X3.7800 Y29.6262
G01 X3.7866 Y29.6129
G01 X3.7922 Y29.5991
G01 X3.7954 Y29.5897
G01 X3.8004 Y29.5704
G01 X3.8021 Y29.5607
G01 X3.8038 Y29.5459
G01 X3.8044 Y29.5260
G01 X3.7989 Y29.4464
G01 X3.7965 Y29.4267
G01 X3.7934 Y29.4121
G01 X3.7908 Y29.4025
G01 X3.7859 Y29.3884
G01 X3.7800 Y29.3748
G01 X3.7706 Y29.3573
G01 X3.7625 Y29.3448
G01 X3.7146 Y29.2809
G01 X3.7048 Y29.2694
G01 X3.6978 Y29.2621
G01 X3.6904 Y29.2552
G01 X3.6788 Y29.2456
G01 X3.6664 Y29.2369
G01 X3.6578 Y29.2317
G01 X3.6224 Y29.2123
G01 X3.6097 Y29.2059
G01 X3.5965 Y29.2004
G01 X3.4920 Y29.1615
G01 X3.4228 Y29.1097
G01 X3.3710 Y29.0405
G01 X3.3396 Y28.9561
G01 X3.3370 Y28.9322
G01 X3.3369 Y28.9056
G01 X3.3361 Y28.8914
G01 X3.3342 Y28.8772
G01 X3.3314 Y28.8632
G01 X3.3062 Y28.7775
G01 X3.3008 Y28.7637
G01 X3.2966 Y28.7547
G01 X3.2869 Y28.7373
G01 X3.2785 Y28.7250
G01 X3.2725 Y28.7171
G01 X3.2660 Y28.7096
G01 X3.2556 Y28.6989
G01 X3.1955 Y28.6464
G01 X3.1838 Y28.6371
G01 X3.1673 Y28.6260
G01 X3.1586 Y28.6211
G01 X3.1452 Y28.6146
G01 X3.1265 Y28.6075
G01 X3.1073 Y28.6022
G01 X3.0469 Y28.5892
G01 X3.0328 Y28.5873
G01 X3.0140 Y28.5864
G01 X1.9039 Y28.5831
G01 X1.8849 Y28.5839
G01 X1.8660 Y28.5866
G01 X1.8475 Y28.5910
G01 X1.7804 Y28.6105
G01 X1.7663 Y28.6152
G01 X1.7571 Y28.6189
G01 X1.7393 Y28.6277
G01 X1.7265 Y28.6354
G01 X1.7105 Y28.6471
G01 X1.6957 Y28.6603
G01 X1.6855 Y28.6712
G01 X1.6363 Y28.7276
G01 X1.6301 Y28.7355
G01 X1.6243 Y28.7437
G01 X1.6189 Y28.7522
G01 X1.6140 Y28.7609
G01 X1.6095 Y28.7698
G01 X1.6054 Y28.7790
G01 X1.6018 Y28.7884
G01 X1.5973 Y28.8027
G01 X1.5818 Y28.8737
G01 X1.5795 Y28.8927
G01 X1.5789 Y28.9071
G01 X1.5773 Y47.1229
G01 X1.5778 Y47.1372
G01 X1.5794 Y47.1514
G01 X1.5819 Y47.1654
G01 X1.5854 Y47.1792
G01 X1.6081 Y47.2557
G01 X1.6116 Y47.2650
G01 X1.6178 Y47.2786
G01 X1.6274 Y47.2960
G01 X1.6358 Y47.3083
G01 X1.6419 Y47.3161
G01 X1.6517 Y47.3273
G01 X1.6623 Y47.3378
G01 X1.7266 Y47.3932
G01 X1.7346 Y47.3992
G01 X1.7430 Y47.4048
G01 X1.7560 Y47.4123
G01 X1.7649 Y47.4168
G01 X1.7788 Y47.4227
G01 X1.7930 Y47.4275
G01 X1.8027 Y47.4301
G01 X1.8689 Y47.4442
G01 X1.8831 Y47.4460
G01 X1.8975 Y47.4469
G01 X3.0162 Y47.4436
G01 X3.0352 Y47.4426
G01 X3.0494 Y47.4407
G01 X3.0680 Y47.4366
G01 X3.1395 Y47.4154
G01 X3.1490 Y47.4124
G01 X3.1628 Y47.4069
G01 X3.1806 Y47.3981
G01 X3.1974 Y47.3875
G01 X3.2131 Y47.3753
G01 X3.2275 Y47.3616
G01 X3.2860 Y47.2937
G01 X3.2973 Y47.2775
G01 X3.3071 Y47.2603
G01 X3.3132 Y47.2468
G01 X3.3183 Y47.2329
G01 X3.3328 Y47.1803
G01 X3.3351 Y47.1700
G01 X3.3368 Y47.1595
G01 X3.3396 Y47.1339
G01 X3.3710 Y47.0495
G01 X3.4228 Y46.9803
G01 X3.4920 Y46.9285
G01 X3.5764 Y46.8971
G01 X3.6003 Y46.8945
G01 X4.7907 Y46.8944
G01 X4.8002 Y46.8940
G01 X4.8144 Y46.8925
G01 X4.8285 Y46.8899
G01 X4.8377 Y46.8877
G01 X4.9141 Y46.8653
G01 X4.9324 Y46.8584
G01 X4.9457 Y46.8520
G01 X4.9626 Y46.8421
G01 X4.9747 Y46.8336
G01 X5.0033 Y46.8105
G01 X5.0151 Y46.7996
G01 X9.1809 Y42.6337
G01 X9.2629 Y42.5790
G01 X9.3540 Y42.5412
G01 X9.4507 Y42.5220
G01 X11.6479 Y42.5220
G01 X11.6670 Y42.5211
G01 X11.6858 Y42.5184
G01 X11.7043 Y42.5139
G01 X11.7760 Y42.4928
G01 X11.7899 Y42.4878
G01 X11.8033 Y42.4818
G01 X11.8163 Y42.4748
G01 X11.8287 Y42.4669
G01 X11.8366 Y42.4611
G01 X11.8611 Y42.4414
G01 X11.8732 Y42.4308
G01 X11.9140 Y42.3901
G01 X12.0211 Y42.3241
G01 X12.1419 Y42.2841
G01 X12.2110 Y42.2770
G01 X12.4235 Y42.2770
G01 X12.4425 Y42.2761
G01 X12.4566 Y42.2742
G01 X12.4752 Y42.2702
G01 X12.5562 Y42.2462
G01 X12.5654 Y42.2428
G01 X12.5788 Y42.2368
G01 X12.5875 Y42.2322
G01 X12.6001 Y42.2246
G01 X12.6122 Y42.2161
G01 X12.6367 Y42.1964
G01 X12.6448 Y42.1895
G01 X12.6526 Y42.1821
G01 X13.8460 Y40.9887
G01 X13.9279 Y40.9340
G01 X14.0190 Y40.8962
G01 X14.1157 Y40.8770
G01 X17.2693 Y40.8770
G01 X17.3660 Y40.8962
G01 X17.4571 Y40.9340
G01 X17.5391 Y40.9887
G01 X18.2249 Y41.6746
G01 X18.2318 Y41.6812
G01 X18.2427 Y41.6904
G01 X18.2542 Y41.6988
G01 X18.2622 Y41.7040
G01 X18.3318 Y41.7422
G01 X18.3495 Y41.7508
G01 X18.3586 Y41.7544
G01 X18.3726 Y41.7589
G01 X18.3869 Y41.7625
G01 X18.4014 Y41.7649
G01 X18.4326 Y41.7684
G01 X18.4487 Y41.7694
G01 X18.7090 Y41.7695
G01 X18.7781 Y41.7766
G01 X18.8989 Y41.8166
G01 X19.0060 Y41.8826
G01 X19.0949 Y41.9715
G01 X19.1609 Y42.0786
G01 X19.2009 Y42.1994
G01 X19.2080 Y42.2685
G01 X19.2080 Y42.8215
G01 X19.2009 Y42.8906
G01 X19.1609 Y43.0114
G01 X19.0949 Y43.1185
G01 X19.0821 Y43.1314
G01 X19.0726 Y43.1420
G01 X19.0639 Y43.1534
G01 X19.0536 Y43.1694
G01 X19.0133 Y43.2436
G01 X19.0056 Y43.2616
G01 X19.0025 Y43.2709
G01 X18.9986 Y43.2851
G01 X18.9951 Y43.3044
G01 X18.9916 Y43.3357
G01 X18.9906 Y43.3517
G01 X18.9905 Y43.7329
G01 X18.9914 Y43.7520
G01 X18.9941 Y43.7708
G01 X18.9986 Y43.7893
G01 X19.0197 Y43.8610
G01 X19.0230 Y43.8703
G01 X19.0286 Y43.8839
G01 X19.0377 Y43.9013
G01 X19.0429 Y43.9096
G01 X19.0514 Y43.9216
G01 X19.0745 Y43.9502
G01 X19.0817 Y43.9582
G01 X19.0949 Y43.9715
G01 X19.1609 Y44.0786
G01 X19.2009 Y44.1994
G01 X19.2080 Y44.2685
G01 X19.2080 Y44.4528
G01 X19.2082 Y44.4623
G01 X19.2094 Y44.4765
G01 X19.2116 Y44.4906
G01 X19.2148 Y44.5045
G01 X19.2372 Y44.5808
G01 X19.2441 Y44.5992
G01 X19.2528 Y44.6168
G01 X19.2604 Y44.6294
G01 X19.2689 Y44.6414
G01 X19.2920 Y44.6701
G01 X19.3029 Y44.6819
G01 X21.4276 Y46.8066
G01 X21.4878 Y46.8967
G01 X21.5293 Y46.9969
G01 X21.5525 Y47.1135
G01 X21.5558 Y47.1325
G01 X21.5593 Y47.1463
G01 X21.5639 Y47.1599
G01 X21.5918 Y47.2291
G01 X21.6001 Y47.2471
G01 X21.6102 Y47.2642
G01 X21.6189 Y47.2764
G01 X21.6284 Y47.2878
G01 X21.6387 Y47.2985
G01 X21.6499 Y47.3084
G01 X21.6617 Y47.3175
G01 X21.7187 Y47.3578
G01 X21.7350 Y47.3682
G01 X21.7522 Y47.3770
G01 X21.7656 Y47.3824
G01 X21.7840 Y47.3882
G01 X21.7982 Y47.3913
G01 X21.8125 Y47.3934
G01 X21.8715 Y47.3998
G01 X21.8813 Y47.4004
G01 X21.8961 Y47.4004
G01 X21.9059 Y47.3997
G01 X21.9200 Y47.3982
G01 X22.0140 Y47.4087
G01 X22.0330 Y47.4095
G01 X22.0472 Y47.4089
G01 X22.0614 Y47.4073
G01 X22.1349 Y47.3945
G01 X22.1495 Y47.3913
G01 X22.1685 Y47.3855
G01 X22.1868 Y47.3778
G01 X22.2043 Y47.3684
G01 X22.2207 Y47.3572
G01 X22.2360 Y47.3445
G01 X22.2909 Y47.2939
G01 X22.3009 Y47.2834
G01 X22.3102 Y47.2723
G01 X22.3186 Y47.2605
G01 X22.3285 Y47.2438
G01 X22.3367 Y47.2264
G01 X22.3418 Y47.2128
G01 X22.3635 Y47.1349
G01 X22.3673 Y47.1157
G01 X22.3690 Y47.1010
G01 X22.3695 Y47.0863
G01 X22.3694 Y43.8321
G01 X22.3686 Y43.8178
G01 X22.3675 Y43.8084
G01 X22.3639 Y43.7897
G01 X22.3417 Y43.7135
G01 X22.3370 Y43.6995
G01 X22.3314 Y43.6859
G01 X22.3247 Y43.6728
G01 X22.3171 Y43.6602
G01 X22.3055 Y43.6443
G01 X22.2855 Y43.6195
G01 X22.2783 Y43.6116
G01 X22.1462 Y43.4794
G01 X22.0490 Y43.3456
G01 X21.9740 Y43.1983
G01 X21.9229 Y43.0410
G01 X21.8970 Y42.8777
G01 X21.8970 Y42.2123
G01 X21.9229 Y42.0490
G01 X21.9740 Y41.8917
G01 X22.0490 Y41.7444
G01 X22.1462 Y41.6106
G01 X22.2631 Y41.4937
G01 X22.3969 Y41.3965
G01 X22.5442 Y41.3215
G01 X22.7015 Y41.2704
G01 X22.8648 Y41.2445
G01 X23.0302 Y41.2445
G01 X23.1935 Y41.2704
G01 X23.3508 Y41.3215
G01 X23.4981 Y41.3965
G01 X23.6319 Y41.4937
G01 X23.7488 Y41.6106
G01 X23.8460 Y41.7444
G01 X23.9291 Y41.9076
G01 X23.9361 Y41.9201
G01 X23.9412 Y41.9281
G01 X23.9495 Y41.9397
G01 X23.9587 Y41.9506
G01 X24.0099 Y42.0049
G01 X24.0205 Y42.0153
G01 X24.0280 Y42.0218
G01 X24.0398 Y42.0309
G01 X24.0523 Y42.0390
G01 X24.0609 Y42.0439
G01 X24.0789 Y42.0524
G01 X24.0882 Y42.0560
G01 X24.1024 Y42.0604
G01 X24.1750 Y42.0785
G01 X24.1945 Y42.0823
G01 X24.2093 Y42.0839
G01 X24.2242 Y42.0844
G01 X24.2391 Y42.0837
G01 X24.2588 Y42.0811
G01 X24.2733 Y42.0779
G01 X24.2876 Y42.0737
G01 X24.3537 Y42.0511
G01 X24.3716 Y42.0441
G01 X24.3845 Y42.0377
G01 X24.4009 Y42.0277
G01 X24.4126 Y42.0192
G01 X24.4271 Y42.0067
G01 X24.4404 Y41.9928
G01 X24.4794 Y41.9477
G01 X24.4885 Y41.9364
G01 X24.4968 Y41.9244
G01 X24.5065 Y41.9076
G01 X24.5895 Y41.7447
G01 X24.6866 Y41.6110
G01 X24.8035 Y41.4941
G01 X24.9372 Y41.3970
G01 X25.0375 Y41.3458
G01 X25.0375 Y41.4584
G01 X24.9597 Y41.5051
G01 X24.8848 Y41.5606
G01 X24.8157 Y41.6232
G01 X24.7531 Y41.6923
G01 X24.6976 Y41.7672
G01 X24.6497 Y41.8472
G01 X24.6098 Y41.9315
G01 X24.5815 Y42.0099
G01 X24.5758 Y42.0287
G01 X24.5558 Y42.1097
G01 X24.5433 Y42.1921
G01 X24.5414 Y42.2117
G01 X24.5375 Y42.2950
G01 X24.5375 Y42.7950
G01 X24.5421 Y42.8881
G01 X24.5541 Y42.9707
G01 X24.5579 Y42.9899
G01 X24.5784 Y43.0708
G01 X24.6063 Y43.1494
G01 X24.6138 Y43.1675
G01 X24.6497 Y43.2428
G01 X24.6976 Y43.3228
G01 X24.7471 Y43.3899
G01 X24.7596 Y43.4051
G01 X24.8157 Y43.4668
G01 X24.8774 Y43.5229
G01 X24.8926 Y43.5354
G01 X24.9597 Y43.5849
G01 X25.0375 Y43.6316
G01 X25.0375 Y43.7442
G01 X24.9372 Y43.6930
G01 X24.8035 Y43.5959
G01 X24.6866 Y43.4790
G01 X24.5895 Y43.3453
G01 X24.5064 Y43.1824
G01 X24.4995 Y43.1699
G01 X24.4944 Y43.1619
G01 X24.4860 Y43.1503
G01 X24.4769 Y43.1394
G01 X24.4257 Y43.0851
G01 X24.4114 Y43.0714
G01 X24.3957 Y43.0591
G01 X24.3790 Y43.0485
G01 X24.3657 Y43.0416
G01 X24.3567 Y43.0376
G01 X24.3379 Y43.0309
G01 X24.2605 Y43.0115
G01 X24.2460 Y43.0085
G01 X24.2361 Y43.0070
G01 X24.2213 Y43.0058
G01 X24.2114 Y43.0056
G01 X24.1965 Y43.0063
G01 X24.1768 Y43.0089
G01 X24.1670 Y43.0109
G01 X24.1527 Y43.0148
G01 X24.0773 Y43.0405
G01 X24.0596 Y43.0480
G01 X24.0469 Y43.0547
G01 X24.0386 Y43.0597
G01 X24.0268 Y43.0678
G01 X24.0192 Y43.0738
G01 X24.0084 Y43.0833
G01 X23.9952 Y43.0972
G01 X23.9530 Y43.1460
G01 X23.9414 Y43.1615
G01 X23.9313 Y43.1781
G01 X23.8460 Y43.3456
G01 X23.7488 Y43.4794
G01 X23.6319 Y43.5963
G01 X23.5965 Y43.6223
G01 X23.5892 Y43.6284
G01 X23.5789 Y43.6382
G01 X23.5723 Y43.6452
G01 X23.5632 Y43.6561
G01 X23.5206 Y43.7115
G01 X23.5119 Y43.7236
G01 X23.5042 Y43.7363
G01 X23.4975 Y43.7496
G01 X23.4900 Y43.7680
G01 X23.4857 Y43.7822
G01 X23.4824 Y43.7967
G01 X23.4731 Y43.8463
G01 X23.4714 Y43.8601
G01 X23.4706 Y43.8740
G01 X23.4705 Y47.1780
G01 X23.4710 Y47.1923
G01 X23.4719 Y47.2017
G01 X23.4741 Y47.2159
G01 X23.4761 Y47.2252
G01 X23.5013 Y47.3108
G01 X23.5088 Y47.3293
G01 X23.5180 Y47.3468
G01 X23.5261 Y47.3594
G01 X23.5382 Y47.3751
G01 X23.5483 Y47.3860
G01 X23.5555 Y47.3929
G01 X23.6158 Y47.4452
G01 X23.6277 Y47.4542
G01 X23.6359 Y47.4597
G01 X23.6488 Y47.4672
G01 X23.6622 Y47.4737
G01 X23.6760 Y47.4792
G01 X23.6902 Y47.4837
G01 X23.6999 Y47.4861
G01 X23.7145 Y47.4888
G01 X23.7837 Y47.4987
G01 X23.7984 Y47.5003
G01 X23.8133 Y47.5007
G01 X23.8232 Y47.5004
G01 X23.8379 Y47.4991
G01 X23.8477 Y47.4976
G01 X23.8670 Y47.4931
G01 X23.8811 Y47.4885
G01 X23.9358 Y47.4683
G01 X23.9450 Y47.4643
G01 X23.9561 Y47.4586
G01 X24.0855 Y47.4134
G01 X24.2200 Y47.3982
G01 X24.3545 Y47.4134
G01 X24.4822 Y47.4580
G01 X24.5968 Y47.5300
G01 X24.6925 Y47.6257
G01 X24.7645 Y47.7403
G01 X24.8091 Y47.8680
G01 X24.8243 Y48.0025
G01 X24.8091 Y48.1370
G01 X24.7887 Y48.1955
G01 X24.7832 Y48.2139
G01 X24.7803 Y48.2280
G01 X24.7726 Y48.2737
G01 X24.7710 Y48.2881
G01 X24.7705 Y48.3025
G01 X24.7705 Y54.3442
G01 X24.7493 Y54.4506
G01 X24.7078 Y54.5508
G01 X24.6476 Y54.6409
G01 X22.5457 Y56.7428
G01 X22.5360 Y56.7533
G01 X22.5270 Y56.7644
G01 X22.5188 Y56.7761
G01 X22.5116 Y56.7884
G01 X22.4781 Y56.8497
G01 X22.4694 Y56.8676
G01 X22.4626 Y56.8863
G01 X22.4587 Y56.9007
G01 X22.4559 Y56.9153
G01 X22.4539 Y56.9350
G01 X22.4538 Y56.9549
G01 X22.4591 Y57.0295
G01 X22.4607 Y57.0442
G01 X22.4634 Y57.0586
G01 X22.4685 Y57.0775
G01 X22.4755 Y57.0958
G01 X22.4843 Y57.1133
G01 X22.4893 Y57.1218
G01 X22.4975 Y57.1339
G01 X22.4975 Y57.4584
G01 X22.4197 Y57.5051
G01 X22.3448 Y57.5606
G01 X22.2757 Y57.6232
G01 X22.2196 Y57.6849
G01 X22.2101 Y57.6962
G01 X22.1576 Y57.7672
G01 X22.1145 Y57.8386
G01 X22.1074 Y57.8515
G01 X22.0738 Y57.9225
G01 X22.0680 Y57.9360
G01 X22.0399 Y58.0146
G01 X22.0370 Y58.0239
G01 X22.0299 Y58.0524
G01 X21.9228 Y58.0524
G01 X21.9234 Y58.0491
G01 X21.9513 Y57.9630
G01 X21.9538 Y57.9538
G01 X21.9567 Y57.9399
G01 X21.9586 Y57.9257
G01 X21.9596 Y57.9115
G01 X21.9616 Y57.8416
G01 X21.9611 Y57.8218
G01 X21.9595 Y57.8070
G01 X21.9557 Y57.7875
G01 X21.9515 Y57.7732
G01 X21.9444 Y57.7546
G01 X21.9378 Y57.7413
G01 X21.9329 Y57.7326
G01 X21.8915 Y57.6644
G01 X21.8827 Y57.6524
G01 X21.8764 Y57.6447
G01 X21.8626 Y57.6304
G01 X21.8475 Y57.6175
G01 X21.8354 Y57.6089
G01 X21.8269 Y57.6037
G01 X21.8138 Y57.5966
G01 X21.7421 Y57.5616
G01 X21.7283 Y57.5563
G01 X21.7189 Y57.5533
G01 X21.7045 Y57.5496
G01 X21.6948 Y57.5478
G01 X21.6801 Y57.5460
G01 X21.6653 Y57.5453
G01 X21.6098 Y57.5460
G01 X21.5993 Y57.5467
G01 X21.5889 Y57.5479
G01 X21.5617 Y57.5530
G01 X19.2898 Y57.5531
G01 X19.2708 Y57.5544
G01 X19.2567 Y57.5566
G01 X19.2474 Y57.5586
G01 X19.1618 Y57.5838
G01 X19.1436 Y57.5911
G01 X19.1305 Y57.5978
G01 X19.1138 Y57.6081
G01 X19.1020 Y57.6170
G01 X19.0773 Y57.6370
G01 X19.0693 Y57.6442
G01 X19.0060 Y57.7074
G01 X18.9029 Y57.7710
G01 X18.8868 Y57.7824
G01 X18.8754 Y57.7920
G01 X18.8649 Y57.8024
G01 X18.8115 Y57.8617
G01 X18.7994 Y57.8774
G01 X18.7939 Y57.8857
G01 X18.7865 Y57.8986
G01 X18.7781 Y57.9166
G01 X18.7730 Y57.9306
G01 X18.7702 Y57.9402
G01 X18.7661 Y57.9596
G01 X18.7535 Y58.0384
G01 X18.7523 Y58.0582
G01 X18.7524 Y58.0681
G01 X18.7530 Y58.0782
G01 X18.7348 Y58.0848
G01 X18.7257 Y58.0886
G01 X18.6947 Y58.1033
G01 X18.6818 Y58.1104
G01 X18.6565 Y58.1256
G01 X18.6444 Y58.1339
G01 X18.6169 Y58.1545
G01 X18.5913 Y58.1774
G01 X18.5808 Y58.1877
G01 X18.5580 Y58.2129
G01 X18.5485 Y58.2247
G01 X18.5282 Y58.2524
G01 X18.5104 Y58.2818
G01 X18.5033 Y58.2947
G01 X18.4886 Y58.3257
G01 X18.4831 Y58.3394
G01 X18.4723 Y58.3700
G01 X18.0651 Y58.3701
G01 X18.0271 Y58.3721
G01 X17.9895 Y58.3775
G01 X17.9798 Y58.3794
G01 X17.9525 Y58.3862
G01 X17.9337 Y58.3919
G01 X17.9026 Y58.4033
G01 X17.8638 Y58.4217
G01 X17.8270 Y58.4437
G01 X17.8002 Y58.4633
G01 X17.7850 Y58.4757
G01 X17.7642 Y58.4947
G01 X17.7572 Y58.5017
G01 X17.7318 Y58.5300
G01 X17.7062 Y58.5644
G01 X17.6842 Y58.6013
G01 X17.6658 Y58.6401
G01 X17.6513 Y58.6805
G01 X17.6409 Y58.7221
G01 X17.6346 Y58.7646
G01 X17.6327 Y58.7977
G01 X17.6325 Y59.2825
G01 X17.6346 Y59.3254
G01 X17.6400 Y59.3630
G01 X17.6431 Y59.3774
G01 X17.6513 Y59.4095
G01 X17.6623 Y59.4408
G01 X17.6677 Y59.4544
G01 X17.6842 Y59.4887
G01 X17.7010 Y59.5173
G01 X17.7110 Y59.5324
G01 X17.6107 Y59.6327
G01 X17.5935 Y59.6265
G01 X17.5743 Y59.6216
G01 X17.5547 Y59.6186
G01 X17.5348 Y59.6175
G01 X17.5199 Y59.6180
G01 X17.4403 Y59.6240
G01 X17.4206 Y59.6274
G01 X17.4014 Y59.6328
G01 X17.3873 Y59.6380
G01 X17.3782 Y59.6421
G01 X17.3606 Y59.6516
G01 X17.3058 Y59.6869
G01 X17.2937 Y59.6961
G01 X17.2811 Y59.7073
G01 X17.1739 Y59.7734
G01 X17.0531 Y59.8134
G01 X16.9840 Y59.8205
G01 X16.3060 Y59.8205
G01 X16.2369 Y59.8134
G01 X16.1161 Y59.7734
