(G-CODE GENERATED BY FLATCAM v8.994 - www.flatcam.org - Version Date: 2020/11/7)

(Name: Beecounter-B_Cu.gbr_iso_combined_cnc)
(Type: G-code from Geometry)
(Units: MM)

(Created on Saturday, 01 February 2025 at 15:39)

(This preprocessor is the default preprocessor used by FlatCAM.)
(It is made to work with MACH3 compatible motion controllers.)

(TOOL DIAMETER: 0.4 mm)
(Feedrate_XY: 120.0 mm/min)
(Feedrate_Z: 60.0 mm/min)
(Feedrate rapids 1500.0 mm/min)

(Z_Cut: -0.1 mm)
(Z_Move: 2.0 mm)
(Z Start: None mm)
(Z End: 15.0 mm)
(X,Y End: None mm)
(Steps per circle: 64)
(Preprocessor Geometry: default)

(X range:   -0.3000 ...   55.3100  mm)
(Y range:   -0.2900 ...  160.3100  mm)

(Spindle Speed: 0.0 RPM)
G21
G90
G94

G01 F120.00

M5
G00 Z15.0000
G00 X0.0000 Y0.0000
T1
M6    
(MSG, Change to Tool Dia = 0.4000)
M0
G00 Z15.0000

M03
G01 F120.00
G00 X6.6730 Y3.0532
G01 F60.00
G01 Z-0.1000
G01 F120.00
G01 X6.6448 Y3.2677
G01 X6.5888 Y3.4767
G01 X6.5060 Y3.6766
G01 X6.3978 Y3.8639
G01 X6.2661 Y4.0356
G01 X6.1131 Y4.1886
G01 X5.9414 Y4.3203
G01 X5.7541 Y4.4285
G01 X5.5542 Y4.5113
G01 X5.3452 Y4.5673
G01 X5.1307 Y4.5955
G01 X4.9143 Y4.5955
G01 X4.6998 Y4.5673
G01 X4.4908 Y4.5113
G01 X4.2909 Y4.4285
G01 X4.1036 Y4.3203
G01 X3.9319 Y4.1886
G01 X3.7789 Y4.0356
G01 X3.6472 Y3.8639
G01 X3.5390 Y3.6766
G01 X3.4562 Y3.4767
G01 X3.4002 Y3.2677
G01 X3.3720 Y3.0532
G01 X3.3720 Y2.8368
G01 X3.4002 Y2.6223
G01 X3.4562 Y2.4133
G01 X3.5390 Y2.2134
G01 X3.6472 Y2.0261
G01 X3.7789 Y1.8544
G01 X3.9319 Y1.7014
G01 X4.1036 Y1.5697
G01 X4.2909 Y1.4615
G01 X4.4908 Y1.3787
G01 X4.6998 Y1.3227
G01 X4.9143 Y1.2945
G01 X5.1307 Y1.2945
G01 X5.3452 Y1.3227
G01 X5.5542 Y1.3787
G01 X5.7541 Y1.4615
G01 X5.9414 Y1.5697
G01 X6.1131 Y1.7014
G01 X6.2661 Y1.8544
G01 X6.3978 Y2.0261
G01 X6.5060 Y2.2134
G01 X6.5888 Y2.4133
G01 X6.6450 Y2.6238
G01 X6.6730 Y2.8368
G01 X6.6730 Y3.0532
G00 Z2.0000
G00 X5.0900 Y6.9524
G01 F60.00
G01 Z-0.1000
G01 F120.00
G01 X5.0900 Y6.8410
G01 X5.2172 Y6.9003
G01 X5.3820 Y7.0157
G01 X5.5243 Y7.1580
G01 X5.6397 Y7.3228
G01 X5.6990 Y7.4500
G01 X5.5876 Y7.4500
G01 X5.5704 Y7.4138
G01 X5.5637 Y7.4007
G01 X5.5183 Y7.3249
G01 X5.5103 Y7.3126
G01 X5.4517 Y7.2339
G01 X5.3825 Y7.1575
G01 X5.3061 Y7.0883
G01 X5.2274 Y7.0297
G01 X5.2151 Y7.0217
G01 X5.1393 Y6.9763
G01 X5.1262 Y6.9696
G01 X5.0900 Y6.9524
G00 Z2.0000
G00 X3.5810 Y7.4500
G01 F60.00
G01 Z-0.1000
G01 F120.00
G01 X3.6403 Y7.3228
G01 X3.7557 Y7.1580
G01 X3.8980 Y7.0157
G01 X4.0628 Y6.9003
G01 X4.1900 Y6.8410
G01 X4.1900 Y6.9524
G01 X4.1538 Y6.9696
G01 X4.1407 Y6.9763
G01 X4.0649 Y7.0217
G01 X4.0526 Y7.0297
G01 X3.9739 Y7.0883
G01 X3.8975 Y7.1575
G01 X3.8283 Y7.2339
G01 X3.7697 Y7.3126
G01 X3.7617 Y7.3249
G01 X3.7163 Y7.4007
G01 X3.7096 Y7.4138
G01 X3.6924 Y7.4500
G01 X3.5810 Y7.4500
G00 Z2.0000
G00 X3.5810 Y8.3500
G01 F60.00
G01 Z-0.1000
G01 F120.00
G01 X3.5934 Y8.3500
G01 X3.5849 Y8.3585
G01 X3.5810 Y8.3500
G00 Z2.0000
G00 X5.5875 Y9.9899
G01 F60.00
G01 Z-0.1000
G01 F120.00
G01 X7.9126 Y9.9899
G01 X7.9441 Y9.9750
G01 X7.9578 Y9.9695
G01 X7.9949 Y9.9565
G01 X8.0329 Y9.9468
G01 X8.0521 Y9.9429
G01 X8.0910 Y9.9374
G01 X8.1400 Y9.9350
G01 X8.1792 Y9.9367
G01 X8.1988 Y9.9386
G01 X8.2375 Y9.9446
G01 X8.2851 Y9.9565
G01 X8.3313 Y9.9731
G01 X8.3669 Y9.9896
G01 X8.3842 Y9.9989
G01 X8.4137 Y10.0166
G01 X8.4218 Y10.0220
G01 X8.4572 Y10.0485
G01 X8.4900 Y10.0780
G01 X8.4970 Y10.0850
G01 X8.5201 Y10.1104
G01 X8.5325 Y10.1255
G01 X8.5557 Y10.1572
G01 X8.5810 Y10.1993
G01 X8.6019 Y10.2437
G01 X8.6144 Y10.2779
G01 X13.5231 Y15.1865
G01 X13.5573 Y15.1990
G01 X13.5884 Y15.2134
G01 X13.6015 Y15.2202
G01 X13.6310 Y15.2379
G01 X13.6431 Y15.2462
G01 X13.6706 Y15.2669
G01 X13.6962 Y15.2898
G01 X13.7067 Y15.3001
G01 X13.7330 Y15.3293
G01 X13.7593 Y15.3648
G01 X13.7820 Y15.4027
G01 X13.7989 Y15.4381
G01 X13.8044 Y15.4517
G01 X13.8143 Y15.4795
G01 X13.8195 Y15.4980
G01 X13.8371 Y15.5280
G01 X13.8520 Y15.5589
G01 X13.8578 Y15.5725
G01 X13.8694 Y15.6048
G01 X13.8735 Y15.6190
G01 X13.8816 Y15.6523
G01 X13.8869 Y15.6863
G01 X13.8885 Y15.7009
G01 X13.8903 Y15.7402
G01 X13.8888 Y15.7745
G01 X13.8876 Y15.7892
G01 X13.8816 Y15.8280
G01 X13.8709 Y15.8708
G01 X13.8596 Y15.9033
G01 X13.8520 Y15.9214
G01 X13.8394 Y15.9480
G01 X13.8351 Y15.9560
G01 X13.8351 Y138.5636
G01 X18.0464 Y142.7749
G01 X26.6069 Y142.7749
G01 X26.6402 Y142.7630
G01 X26.6543 Y142.7589
G01 X26.6925 Y142.7496
G01 X26.7312 Y142.7436
G01 X26.7508 Y142.7417
G01 X26.7900 Y142.7400
G01 X26.8390 Y142.7424
G01 X26.8875 Y142.7496
G01 X26.9351 Y142.7615
G01 X26.9813 Y142.7781
G01 X27.0169 Y142.7946
G01 X27.0300 Y142.8014
G01 X27.0637 Y142.8216
G01 X27.0718 Y142.8270
G01 X27.0995 Y142.8475
G01 X27.1110 Y142.8567
G01 X27.1364 Y142.8797
G01 X27.1503 Y142.8936
G01 X27.1765 Y142.9228
G01 X27.2057 Y142.9622
G01 X27.2310 Y143.0043
G01 X27.2519 Y143.0487
G01 X27.2685 Y143.0949
G01 X27.2804 Y143.1425
G01 X27.2876 Y143.1910
G01 X27.2898 Y143.2302
G01 X27.2899 Y143.2449
G01 X27.2880 Y143.2841
G01 X27.2871 Y143.2939
G01 X27.2821 Y143.3279
G01 X27.2794 Y143.3423
G01 X27.2711 Y143.3757
G01 X27.2654 Y143.3945
G01 X27.2519 Y143.4313
G01 X27.2310 Y143.4757
G01 X27.2057 Y143.5178
G01 X27.1765 Y143.5572
G01 X27.1436 Y143.5936
G01 X27.1072 Y143.6265
G01 X27.0678 Y143.6557
G01 X27.0342 Y143.6761
G01 X27.0213 Y143.6832
G01 X26.9859 Y143.7000
G01 X26.9768 Y143.7038
G01 X26.9445 Y143.7154
G01 X26.9257 Y143.7211
G01 X26.8923 Y143.7294
G01 X26.8779 Y143.7321
G01 X26.8390 Y143.7376
G01 X26.7900 Y143.7400
G01 X26.7410 Y143.7376
G01 X26.6973 Y143.7313
G01 X26.6829 Y143.7282
G01 X26.6496 Y143.7198
G01 X26.6402 Y143.7170
G01 X26.6078 Y143.7055
G01 X26.5941 Y143.7000
G01 X26.5631 Y143.6854
G01 X26.5543 Y143.6810
G01 X26.5441 Y143.6751
G01 X18.1160 Y143.6751
G01 X18.0912 Y143.6869
G01 X18.0777 Y143.6927
G01 X18.0500 Y143.7027
G01 X18.0359 Y143.7071
G01 X17.9978 Y143.7165
G01 X17.9639 Y143.7218
G01 X17.9492 Y143.7234
G01 X17.9100 Y143.7251
G01 X17.8757 Y143.7237
G01 X17.8610 Y143.7224
G01 X17.8319 Y143.7182
G01 X17.8174 Y143.7155
G01 X17.7841 Y143.7071
G01 X17.7700 Y143.7027
G01 X17.7377 Y143.6909
G01 X17.7066 Y143.6764
G01 X17.6935 Y143.6696
G01 X17.6682 Y143.6545
G01 X17.6559 Y143.6465
G01 X17.6283 Y143.6260
G01 X17.6170 Y143.6165
G01 X17.5952 Y143.5967
G01 X13.2153 Y139.2169
G01 X13.2038 Y139.2119
G01 X13.1728 Y139.1970
G01 X13.1349 Y139.1743
G01 X13.0994 Y139.1480
G01 X13.0667 Y139.1183
G01 X13.0370 Y139.0856
G01 X13.0164 Y139.0581
G01 X13.0081 Y139.0460
G01 X12.9880 Y139.0122
G01 X12.9691 Y138.9723
G01 X12.9573 Y138.9400
G01 X12.9516 Y138.9212
G01 X12.9445 Y138.8926
G01 X12.9418 Y138.8781
G01 X12.9370 Y138.8441
G01 X12.9349 Y138.8000
G01 X12.9349 Y15.8714
G01 X7.9673 Y10.9039
G01 X7.9487 Y10.8969
G01 X7.9337 Y10.8901
G01 X5.5875 Y10.8901
G01 X5.5704 Y10.9262
G01 X5.5637 Y10.9393
G01 X5.5157 Y11.0192
G01 X5.5074 Y11.0314
G01 X5.4577 Y11.0984
G01 X5.4485 Y11.1099
G01 X5.3825 Y11.1825
G01 X5.3135 Y11.2452
G01 X5.2984 Y11.2577
G01 X5.2314 Y11.3074
G01 X5.2192 Y11.3157
G01 X5.1350 Y11.3660
G01 X5.0508 Y11.4061
G01 X5.0327 Y11.4136
G01 X4.9448 Y11.4448
G01 X4.8448 Y11.4698
G01 X4.7527 Y11.4837
G01 X4.7331 Y11.4857
G01 X4.6400 Y11.4900
G01 X4.5469 Y11.4857
G01 X4.5273 Y11.4837
G01 X4.4352 Y11.4698
G01 X4.3352 Y11.4448
G01 X4.2473 Y11.4136
G01 X4.2292 Y11.4061
G01 X4.1450 Y11.3660
G01 X4.0649 Y11.3183
G01 X4.0486 Y11.3074
G01 X3.9739 Y11.2517
G01 X3.9046 Y11.1892
G01 X3.8908 Y11.1754
G01 X3.8283 Y11.1061
G01 X3.7726 Y11.0314
G01 X3.7617 Y11.0151
G01 X3.7188 Y10.9435
G01 X3.7117 Y10.9306
G01 X3.6699 Y10.8418
G01 X3.6352 Y10.7448
G01 X3.6102 Y10.6448
G01 X3.5951 Y10.5429
G01 X3.5900 Y10.4400
G01 X3.5951 Y10.3371
G01 X3.6102 Y10.2352
G01 X3.6352 Y10.1352
G01 X3.6699 Y10.0382
G01 X3.7140 Y9.9450
G01 X3.7670 Y9.8567
G01 X3.8283 Y9.7739
G01 X3.8975 Y9.6975
G01 X3.9739 Y9.6283
G01 X4.0567 Y9.5670
G01 X4.1365 Y9.5188
G01 X4.1494 Y9.5117
G01 X4.2382 Y9.4699
G01 X4.3352 Y9.4352
G01 X4.4352 Y9.4102
G01 X4.5371 Y9.3951
G01 X4.6400 Y9.3900
G01 X4.7429 Y9.3951
G01 X4.8448 Y9.4102
G01 X4.9353 Y9.4326
G01 X4.9495 Y9.4367
G01 X5.0418 Y9.4699
G01 X5.1350 Y9.5140
G01 X5.2233 Y9.5670
G01 X5.2984 Y9.6223
G01 X5.3099 Y9.6315
G01 X5.3825 Y9.6975
G01 X5.4452 Y9.7665
G01 X5.4547 Y9.7777
G01 X5.5074 Y9.8486
G01 X5.5157 Y9.8608
G01 X5.5637 Y9.9407
G01 X5.5704 Y9.9538
G01 X5.5875 Y9.9899
G00 Z2.0000
G00 X5.4900 Y11.9300
G01 F60.00
G01 Z-0.1000
G01 F120.00
G01 X5.5096 Y11.9310
G01 X5.5242 Y11.9329
G01 X5.5433 Y11.9372
G01 X5.5620 Y11.9434
G01 X5.5799 Y11.9514
G01 X5.5970 Y11.9610
G01 X5.6130 Y11.9723
G01 X5.6243 Y11.9818
G01 X5.6348 Y11.9921
G01 X5.6477 Y12.0070
G01 X5.6590 Y12.0230
G01 X5.6686 Y12.0401
G01 X5.6766 Y12.0580
G01 X5.6828 Y12.0767
G01 X5.6871 Y12.0958
G01 X5.6895 Y12.1153
G01 X5.6900 Y12.1300
G01 X5.6899 Y13.8349
G01 X5.6890 Y13.8496
G01 X5.6862 Y13.8690
G01 X5.6814 Y13.8881
G01 X5.6748 Y13.9065
G01 X5.6664 Y13.9243
G01 X5.6590 Y13.9370
G01 X5.6477 Y13.9530
G01 X5.6382 Y13.9643
G01 X5.6243 Y13.9782
G01 X5.6130 Y13.9877
G01 X5.6052 Y13.9935
G01 X5.5886 Y14.0040
G01 X5.5710 Y14.0128
G01 X5.5620 Y14.0166
G01 X5.5481 Y14.0214
G01 X5.5290 Y14.0262
G01 X5.5096 Y14.0290
G01 X5.4900 Y14.0300
G01 X3.7851 Y14.0299
G01 X3.7655 Y14.0285
G01 X3.7510 Y14.0262
G01 X3.7319 Y14.0214
G01 X3.7180 Y14.0166
G01 X3.7001 Y14.0086
G01 X3.6830 Y13.9990
G01 X3.6709 Y13.9906
G01 X3.6557 Y13.9782
G01 X3.6418 Y13.9643
G01 X3.6294 Y13.9491
G01 X3.6210 Y13.9370
G01 X3.6160 Y13.9286
G01 X3.6072 Y13.9110
G01 X3.6001 Y13.8927
G01 X3.5949 Y13.8738
G01 X3.5929 Y13.8642
G01 X3.5910 Y13.8496
G01 X3.5900 Y13.8300
G01 X3.5901 Y12.1251
G01 X3.5910 Y12.1104
G01 X3.5938 Y12.0910
G01 X3.5986 Y12.0719
G01 X3.6052 Y12.0535
G01 X3.6114 Y12.0401
G01 X3.6210 Y12.0230
G01 X3.6294 Y12.0109
G01 X3.6418 Y11.9957
G01 X3.6557 Y11.9818
G01 X3.6709 Y11.9694
G01 X3.6872 Y11.9585
G01 X3.7045 Y11.9492
G01 X3.7226 Y11.9417
G01 X3.7414 Y11.9360
G01 X3.7607 Y11.9322
G01 X3.7704 Y11.9310
G01 X3.7851 Y11.9301
G01 X5.4900 Y11.9300
G00 Z2.0000
G00 X4.2909 Y19.4285
G01 F60.00
G01 Z-0.1000
G01 F120.00
G01 X4.1036 Y19.3203
G01 X3.9319 Y19.1886
G01 X3.7789 Y19.0356
G01 X3.6472 Y18.8639
G01 X3.5390 Y18.6766
G01 X3.4562 Y18.4767
G01 X3.4002 Y18.2677
G01 X3.3720 Y18.0532
G01 X3.3720 Y17.8368
G01 X3.4002 Y17.6223
G01 X3.4562 Y17.4133
G01 X3.5390 Y17.2134
G01 X3.6472 Y17.0261
G01 X3.7789 Y16.8544
G01 X3.9319 Y16.7014
G01 X4.1036 Y16.5697
G01 X4.2909 Y16.4615
G01 X4.4908 Y16.3787
G01 X4.6998 Y16.3227
G01 X4.9143 Y16.2945
G01 X5.1307 Y16.2945
G01 X5.3452 Y16.3227
G01 X5.5542 Y16.3787
G01 X5.7541 Y16.4615
G01 X5.9414 Y16.5697
G01 X6.1131 Y16.7014
G01 X6.2661 Y16.8544
G01 X6.3978 Y17.0261
G01 X6.4904 Y17.1866
G01 X6.5060 Y17.2134
G01 X6.5888 Y17.4133
G01 X6.6448 Y17.6223
G01 X6.6730 Y17.8368
G01 X6.6730 Y18.0532
G01 X6.6448 Y18.2677
G01 X6.5888 Y18.4767
G01 X6.5060 Y18.6766
G01 X6.3978 Y18.8639
G01 X6.2661 Y19.0356
G01 X6.1131 Y19.1886
G01 X5.9414 Y19.3203
G01 X5.9246 Y19.3300
G01 X5.7541 Y19.4285
G01 X5.5542 Y19.5113
G01 X5.3452 Y19.5673
G01 X5.1307 Y19.5955
G01 X4.9143 Y19.5955
G01 X4.6998 Y19.5673
G01 X4.4908 Y19.5113
G01 X4.2909 Y19.4285
G00 Z2.0000
G00 X6.6730 Y23.0532
G01 F60.00
G01 Z-0.1000
G01 F120.00
G01 X6.6448 Y23.2677
G01 X6.5888 Y23.4767
G01 X6.5060 Y23.6766
G01 X6.3978 Y23.8639
G01 X6.2661 Y24.0356
G01 X6.1131 Y24.1886
G01 X5.9414 Y24.3203
G01 X5.7541 Y24.4285
G01 X5.5542 Y24.5113
G01 X5.3452 Y24.5673
G01 X5.1307 Y24.5955
G01 X4.9143 Y24.5955
G01 X4.6998 Y24.5673
G01 X4.4908 Y24.5113
G01 X4.2909 Y24.4285
G01 X4.1036 Y24.3203
G01 X3.9319 Y24.1886
G01 X3.7789 Y24.0356
G01 X3.6472 Y23.8639
G01 X3.5390 Y23.6766
G01 X3.4562 Y23.4767
G01 X3.4002 Y23.2677
G01 X3.3720 Y23.0532
G01 X3.3720 Y22.8368
G01 X3.4002 Y22.6223
G01 X3.4562 Y22.4133
G01 X3.5390 Y22.2134
G01 X3.6472 Y22.0261
G01 X3.7789 Y21.8544
G01 X3.9319 Y21.7014
G01 X4.1036 Y21.5697
G01 X4.2909 Y21.4615
G01 X4.4908 Y21.3787
G01 X4.6998 Y21.3227
G01 X4.9143 Y21.2945
G01 X5.1307 Y21.2945
G01 X5.3452 Y21.3227
G01 X5.5542 Y21.3787
G01 X5.7541 Y21.4615
G01 X5.9414 Y21.5697
G01 X6.1131 Y21.7014
G01 X6.2661 Y21.8544
G01 X6.3978 Y22.0261
G01 X6.5060 Y22.2134
G01 X6.5888 Y22.4133
G01 X6.6450 Y22.6238
G01 X6.6730 Y22.8368
G01 X6.6730 Y23.0532
G00 Z2.0000
G00 X5.0900 Y26.9524
G01 F60.00
G01 Z-0.1000
G01 F120.00
G01 X5.0900 Y26.8410
G01 X5.2172 Y26.9003
G01 X5.3820 Y27.0157
G01 X5.5243 Y27.1580
G01 X5.6397 Y27.3228
G01 X5.6990 Y27.4500
G01 X5.5876 Y27.4500
G01 X5.5704 Y27.4138
G01 X5.5637 Y27.4007
G01 X5.5183 Y27.3249
G01 X5.5103 Y27.3126
G01 X5.4517 Y27.2339
G01 X5.3825 Y27.1575
G01 X5.3061 Y27.0883
G01 X5.2274 Y27.0297
G01 X5.2151 Y27.0217
G01 X5.1393 Y26.9763
G01 X5.1262 Y26.9696
G01 X5.0900 Y26.9524
G00 Z2.0000
G00 X3.6090 Y27.3899
G01 F60.00
G01 Z-0.1000
G01 F120.00
G01 X3.6403 Y27.3228
G01 X3.7557 Y27.1580
G01 X3.8980 Y27.0157
G01 X4.0628 Y26.9003
G01 X4.1900 Y26.8410
G01 X4.1900 Y26.9524
G01 X4.1538 Y26.9696
G01 X4.1407 Y26.9763
G01 X4.0649 Y27.0217
G01 X4.0526 Y27.0297
G01 X3.9739 Y27.0883
G01 X3.9011 Y27.1541
G01 X3.8908 Y27.1646
G01 X3.8348 Y27.2265
G01 X3.8223 Y27.2416
G01 X3.7670 Y27.3167
G01 X3.7228 Y27.3899
G01 X3.6090 Y27.3899
G00 Z2.0000
G00 X5.5875 Y29.9899
G01 F60.00
G01 Z-0.1000
G01 F120.00
G01 X7.8126 Y29.9899
G01 X7.8441 Y29.9750
G01 X7.8578 Y29.9695
G01 X7.8949 Y29.9565
G01 X7.9329 Y29.9468
G01 X7.9521 Y29.9429
G01 X7.9910 Y29.9374
G01 X8.0400 Y29.9350
G01 X8.0792 Y29.9367
G01 X8.0988 Y29.9386
G01 X8.1375 Y29.9446
G01 X8.1851 Y29.9565
G01 X8.2222 Y29.9695
G01 X8.2403 Y29.9770
G01 X8.2757 Y29.9940
G01 X8.3178 Y30.0193
G01 X8.3572 Y30.0485
G01 X8.3936 Y30.0814
G01 X8.4265 Y30.1178
G01 X8.4501 Y30.1492
G01 X8.4584 Y30.1613
G01 X8.4810 Y30.1993
G01 X8.4980 Y30.2347
G01 X8.5038 Y30.2482
G01 X8.5154 Y30.2805
G01 X8.5198 Y30.2946
G01 X8.5294 Y30.3327
G01 X8.5313 Y30.3423
G01 X8.5344 Y30.3628
G01 X12.6960 Y34.5245
G01 X12.7222 Y34.5537
G01 X12.7485 Y34.5892
G01 X12.7712 Y34.6271
G01 X12.7901 Y34.6670
G01 X12.8050 Y34.7086
G01 X12.8136 Y34.7419
G01 X12.8170 Y34.7584
G01 X12.8239 Y34.7732
G01 X12.8277 Y34.7823
G01 X12.8377 Y34.8100
G01 X12.8421 Y34.8241
G01 X12.8515 Y34.8622
G01 X12.8580 Y34.9059
G01 X12.8601 Y34.9500
G01 X12.8601 Y139.0636
G01 X15.4499 Y141.6534
G01 X15.4718 Y141.6612
G01 X15.4809 Y141.6650
G01 X15.5119 Y141.6796
G01 X15.5250 Y141.6864
G01 X15.5628 Y141.7093
G01 X15.5984 Y141.7354
G01 X15.6060 Y141.7417
G01 X15.6314 Y141.7647
G01 X15.6453 Y141.7786
G01 X15.6715 Y141.8078
G01 X15.6980 Y141.8432
G01 X15.7060 Y141.8555
G01 X15.7260 Y141.8893
G01 X15.7430 Y141.9247
G01 X15.7505 Y141.9428
G01 X15.7635 Y141.9799
G01 X15.7732 Y142.0179
G01 X15.7771 Y142.0371
G01 X15.7826 Y142.0760
G01 X15.7848 Y142.1152
G01 X15.7848 Y142.1348
G01 X15.7826 Y142.1740
G01 X15.7771 Y142.2129
G01 X15.7732 Y142.2321
G01 X15.7635 Y142.2701
G01 X15.7505 Y142.3072
G01 X15.7430 Y142.3253
G01 X15.7260 Y142.3607
G01 X15.7060 Y142.3945
G01 X15.6951 Y142.4108
G01 X15.6715 Y142.4422
G01 X15.6453 Y142.4714
G01 X15.6314 Y142.4853
G01 X15.6022 Y142.5115
G01 X15.5708 Y142.5351
G01 X15.5545 Y142.5460
G01 X15.5207 Y142.5660
G01 X15.4853 Y142.5830
G01 X15.4672 Y142.5905
G01 X15.4301 Y142.6035
G01 X15.3921 Y142.6132
G01 X15.3729 Y142.6171
G01 X15.3340 Y142.6226
G01 X15.2850 Y142.6250
G01 X15.2458 Y142.6233
G01 X15.2262 Y142.6214
G01 X15.1875 Y142.6154
G01 X15.1493 Y142.6061
G01 X15.1352 Y142.6020
G01 X15.1028 Y142.5905
G01 X15.0847 Y142.5830
G01 X15.0493 Y142.5660
G01 X15.0072 Y142.5407
G01 X14.9678 Y142.5115
G01 X14.9314 Y142.4786
G01 X14.8985 Y142.4422
G01 X14.8749 Y142.4108
G01 X14.8666 Y142.3987
G01 X14.8489 Y142.3692
G01 X14.8418 Y142.3563
G01 X14.8231 Y142.3163
G01 X14.8134 Y142.2899
G01 X12.1472 Y139.6234
G01 X12.1275 Y139.6016
G01 X12.1183 Y139.5901
G01 X12.0980 Y139.5623
G01 X12.0768 Y139.5272
G01 X12.0652 Y139.5143
G01 X12.0590 Y139.5067
G01 X12.0385 Y139.4791
G01 X12.0331 Y139.4710
G01 X12.0179 Y139.4457
G01 X12.0086 Y139.4284
G01 X11.9941 Y139.3973
G01 X11.9823 Y139.3650
G01 X11.9779 Y139.3509
G01 X11.9707 Y139.3224
G01 X11.9676 Y139.3080
G01 X11.9626 Y139.2740
G01 X11.9613 Y139.2593
G01 X11.9599 Y139.2299
G01 X11.9599 Y35.0614
G01 X7.7886 Y30.8901
G01 X5.5875 Y30.8901
G01 X5.5704 Y30.9262
G01 X5.5637 Y30.9393
G01 X5.5157 Y31.0192
G01 X5.5074 Y31.0314
G01 X5.4577 Y31.0984
G01 X5.4485 Y31.1099
G01 X5.3825 Y31.1825
G01 X5.3135 Y31.2452
G01 X5.2984 Y31.2577
G01 X5.2314 Y31.3074
G01 X5.2192 Y31.3157
G01 X5.1350 Y31.3660
G01 X5.0508 Y31.4061
G01 X5.0327 Y31.4136
G01 X4.9448 Y31.4448
G01 X4.8448 Y31.4698
G01 X4.7527 Y31.4837
G01 X4.7331 Y31.4857
G01 X4.6400 Y31.4900
G01 X4.5469 Y31.4857
G01 X4.5273 Y31.4837
G01 X4.4352 Y31.4698
G01 X4.3352 Y31.4448
G01 X4.2473 Y31.4136
G01 X4.2292 Y31.4061
G01 X4.1450 Y31.3660
G01 X4.0649 Y31.3183
G01 X4.0486 Y31.3074
G01 X3.9739 Y31.2517
G01 X3.9046 Y31.1892
G01 X3.8908 Y31.1754
G01 X3.8283 Y31.1061
G01 X3.7726 Y31.0314
G01 X3.7617 Y31.0151
G01 X3.7188 Y30.9435
G01 X3.7117 Y30.9306
G01 X3.6699 Y30.8418
G01 X3.6352 Y30.7448
G01 X3.6102 Y30.6448
G01 X3.5951 Y30.5429
G01 X3.5900 Y30.4400
G01 X3.5951 Y30.3371
G01 X3.6102 Y30.2352
G01 X3.6352 Y30.1352
G01 X3.6699 Y30.0382
G01 X3.7140 Y29.9450
G01 X3.7670 Y29.8567
G01 X3.8283 Y29.7739
G01 X3.8975 Y29.6975
G01 X3.9739 Y29.6283
G01 X4.0567 Y29.5670
G01 X4.1365 Y29.5188
G01 X4.1494 Y29.5117
G01 X4.2382 Y29.4699
G01 X4.3352 Y29.4352
G01 X4.4352 Y29.4102
G01 X4.5371 Y29.3951
G01 X4.6400 Y29.3900
G01 X4.7429 Y29.3951
G01 X4.8448 Y29.4102
G01 X4.9353 Y29.4326
G01 X4.9495 Y29.4367
G01 X5.0418 Y29.4699
G01 X5.1350 Y29.5140
G01 X5.2233 Y29.5670
G01 X5.2984 Y29.6223
G01 X5.3099 Y29.6315
G01 X5.3825 Y29.6975
G01 X5.4452 Y29.7665
G01 X5.4547 Y29.7777
G01 X5.5074 Y29.8486
G01 X5.5157 Y29.8608
G01 X5.5637 Y29.9407
G01 X5.5704 Y29.9538
G01 X5.5875 Y29.9899
G00 Z2.0000
G00 X5.4900 Y31.9300
G01 F60.00
G01 Z-0.1000
G01 F120.00
G01 X5.5096 Y31.9310
G01 X5.5242 Y31.9329
G01 X5.5433 Y31.9372
G01 X5.5620 Y31.9434
G01 X5.5799 Y31.9514
G01 X5.5970 Y31.9610
G01 X5.6091 Y31.9694
G01 X5.6243 Y31.9818
G01 X5.6382 Y31.9957
G01 X5.6506 Y32.0109
G01 X5.6615 Y32.0272
G01 X5.6708 Y32.0445
G01 X5.6766 Y32.0580
G01 X5.6828 Y32.0767
G01 X5.6871 Y32.0958
G01 X5.6895 Y32.1153
G01 X5.6900 Y32.1300
G01 X5.6899 Y33.8349
G01 X5.6885 Y33.8545
G01 X5.6862 Y33.8690
G01 X5.6814 Y33.8881
G01 X5.6748 Y33.9065
G01 X5.6686 Y33.9199
G01 X5.6590 Y33.9370
G01 X5.6506 Y33.9491
G01 X5.6382 Y33.9643
G01 X5.6243 Y33.9782
G01 X5.6091 Y33.9906
G01 X5.5928 Y34.0015
G01 X5.5843 Y34.0064
G01 X5.5710 Y34.0128
G01 X5.5527 Y34.0199
G01 X5.5433 Y34.0228
G01 X5.5290 Y34.0262
G01 X5.5096 Y34.0290
G01 X5.4900 Y34.0300
G01 X3.7851 Y34.0299
G01 X3.7704 Y34.0290
G01 X3.7510 Y34.0262
G01 X3.7319 Y34.0214
G01 X3.7180 Y34.0166
G01 X3.7001 Y34.0086
G01 X3.6830 Y33.9990
G01 X3.6670 Y33.9877
G01 X3.6557 Y33.9782
G01 X3.6418 Y33.9643
G01 X3.6354 Y33.9569
G01 X3.6265 Y33.9452
G01 X3.6160 Y33.9286
G01 X3.6072 Y33.9110
G01 X3.6017 Y33.8974
G01 X3.5986 Y33.8881
G01 X3.5938 Y33.8690
G01 X3.5910 Y33.8496
G01 X3.5900 Y33.8300
G01 X3.5901 Y32.1251
G01 X3.5915 Y32.1055
G01 X3.5938 Y32.0910
G01 X3.5972 Y32.0767
G01 X3.6034 Y32.0580
G01 X3.6114 Y32.0401
G01 X3.6185 Y32.0272
G01 X3.6294 Y32.0109
G01 X3.6418 Y31.9957
G01 X3.6557 Y31.9818
G01 X3.6670 Y31.9723
G01 X3.6748 Y31.9665
G01 X3.6914 Y31.9560
G01 X3.7090 Y31.9472
G01 X3.7273 Y31.9401
G01 X3.7462 Y31.9349
G01 X3.7655 Y31.9315
G01 X3.7851 Y31.9301
G01 X5.4900 Y31.9300
G00 Z2.0000
G00 X4.2909 Y39.4285
G01 F60.00
G01 Z-0.1000
G01 F120.00
G01 X4.1036 Y39.3203
G01 X3.9319 Y39.1886
G01 X3.7789 Y39.0356
G01 X3.6472 Y38.8639
G01 X3.5390 Y38.6766
G01 X3.4562 Y38.4767
G01 X3.4002 Y38.2677
G01 X3.3720 Y38.0532
G01 X3.3720 Y37.8368
G01 X3.4002 Y37.6223
G01 X3.4562 Y37.4133
G01 X3.5390 Y37.2134
G01 X3.6472 Y37.0261
G01 X3.7789 Y36.8544
G01 X3.9319 Y36.7014
G01 X4.1036 Y36.5697
G01 X4.2909 Y36.4615
G01 X4.4908 Y36.3787
G01 X4.6998 Y36.3227
G01 X4.9143 Y36.2945
G01 X5.1307 Y36.2945
G01 X5.3452 Y36.3227
G01 X5.5542 Y36.3787
G01 X5.7541 Y36.4615
G01 X5.9414 Y36.5697
G01 X6.1131 Y36.7014
G01 X6.2661 Y36.8544
G01 X6.3978 Y37.0261
G01 X6.5060 Y37.2134
G01 X6.5888 Y37.4133
G01 X6.6448 Y37.6223
G01 X6.6730 Y37.8368
G01 X6.6730 Y38.0532
G01 X6.6448 Y38.2677
G01 X6.5888 Y38.4767
G01 X6.5060 Y38.6766
G01 X6.3978 Y38.8639
G01 X6.2661 Y39.0356
G01 X6.1131 Y39.1886
G01 X5.9414 Y39.3203
G01 X5.9246 Y39.3300
G01 X5.7541 Y39.4285
G01 X5.5542 Y39.5113
G01 X5.3452 Y39.5673
G01 X5.1307 Y39.5955
G01 X4.9143 Y39.5955
G01 X4.6998 Y39.5673
G01 X4.4908 Y39.5113
G01 X4.2909 Y39.4285
G00 Z2.0000
G00 X6.6730 Y43.0532
G01 F60.00
G01 Z-0.1000
G01 F120.00
G01 X6.6448 Y43.2677
G01 X6.5888 Y43.4767
G01 X6.5060 Y43.6766
G01 X6.3978 Y43.8639
G01 X6.2661 Y44.0356
G01 X6.1131 Y44.1886
G01 X5.9414 Y44.3203
G01 X5.7541 Y44.4285
G01 X5.5542 Y44.5113
G01 X5.3452 Y44.5673
G01 X5.1307 Y44.5955
G01 X4.9143 Y44.5955
G01 X4.6998 Y44.5673
G01 X4.4908 Y44.5113
G01 X4.2909 Y44.4285
G01 X4.1036 Y44.3203
G01 X3.9319 Y44.1886
G01 X3.7789 Y44.0356
G01 X3.6472 Y43.8639
G01 X3.5390 Y43.6766
G01 X3.4562 Y43.4767
G01 X3.4002 Y43.2677
G01 X3.3720 Y43.0532
G01 X3.3720 Y42.8368
G01 X3.4002 Y42.6223
G01 X3.4562 Y42.4133
G01 X3.5390 Y42.2134
G01 X3.6472 Y42.0261
G01 X3.7789 Y41.8544
G01 X3.9319 Y41.7014
G01 X4.1036 Y41.5697
G01 X4.2909 Y41.4615
G01 X4.4908 Y41.3787
G01 X4.6998 Y41.3227
G01 X4.9143 Y41.2945
G01 X5.1307 Y41.2945
G01 X5.3452 Y41.3227
G01 X5.5542 Y41.3787
G01 X5.7541 Y41.4615
G01 X5.9414 Y41.5697
G01 X6.1131 Y41.7014
G01 X6.2661 Y41.8544
G01 X6.3978 Y42.0261
G01 X6.5060 Y42.2134
G01 X6.5888 Y42.4133
G01 X6.6450 Y42.6238
G01 X6.6730 Y42.8368
G01 X6.6730 Y43.0532
G00 Z2.0000
G00 X5.0900 Y46.9524
G01 F60.00
G01 Z-0.1000
G01 F120.00
G01 X5.0900 Y46.8410
G01 X5.2172 Y46.9003
G01 X5.3820 Y47.0157
G01 X5.5243 Y47.1580
G01 X5.6397 Y47.3228
G01 X5.6990 Y47.4500
G01 X5.5876 Y47.4500
G01 X5.5704 Y47.4138
G01 X5.5637 Y47.4007
G01 X5.5183 Y47.3249
G01 X5.5103 Y47.3126
G01 X5.4517 Y47.2339
G01 X5.3825 Y47.1575
G01 X5.3061 Y47.0883
G01 X5.2274 Y47.0297
G01 X5.2151 Y47.0217
G01 X5.1393 Y46.9763
G01 X5.1262 Y46.9696
G01 X5.0900 Y46.9524
G00 Z2.0000
G00 X3.6090 Y47.3899
G01 F60.00
G01 Z-0.1000
G01 F120.00
G01 X3.6403 Y47.3228
G01 X3.7557 Y47.1580
G01 X3.8980 Y47.0157
G01 X4.0628 Y46.9003
G01 X4.1900 Y46.8410
G01 X4.1900 Y46.9524
G01 X4.1538 Y46.9696
G01 X4.1407 Y46.9763
G01 X4.0649 Y47.0217
G01 X4.0526 Y47.0297
G01 X3.9739 Y47.0883
G01 X3.9011 Y47.1541
G01 X3.8908 Y47.1646
G01 X3.8348 Y47.2265
G01 X3.8223 Y47.2416
G01 X3.7670 Y47.3167
G01 X3.7228 Y47.3899
G01 X3.6090 Y47.3899
G00 Z2.0000
G00 X5.5875 Y49.9899
G01 F60.00
G01 Z-0.1000
G01 F120.00
G01 X7.5937 Y49.9899
G01 X7.6192 Y49.9781
G01 X7.6607 Y49.9630
G01 X7.6749 Y49.9589
G01 X7.7082 Y49.9506
G01 X7.7227 Y49.9479
G01 X7.7616 Y49.9424
G01 X7.8008 Y49.9402
G01 X7.8155 Y49.9401
G01 X7.8596 Y49.9424
G01 X7.8984 Y49.9479
G01 X7.9177 Y49.9518
G01 X7.9557 Y49.9615
G01 X7.9928 Y49.9745
G01 X8.0109 Y49.9820
G01 X8.0463 Y49.9990
G01 X8.0884 Y50.0243
G01 X8.1278 Y50.0535
G01 X8.1641 Y50.0864
G01 X8.1971 Y50.1228
G01 X8.2207 Y50.1542
G01 X8.2290 Y50.1663
G01 X8.2515 Y50.2043
G01 X8.2685 Y50.2397
G01 X8.2743 Y50.2532
G01 X8.2860 Y50.2855
G01 X8.2904 Y50.2996
G01 X8.2999 Y50.3377
G01 X8.3033 Y50.3568
G01 X11.7351 Y53.7888
G01 X11.7580 Y53.8144
G01 X11.7843 Y53.8499
G01 X11.8070 Y53.8878
G01 X11.8239 Y53.9232
G01 X11.8294 Y53.9369
G01 X11.8393 Y53.9647
G01 X11.8421 Y53.9741
G01 X11.8480 Y53.9974
G01 X11.8592 Y54.0171
G01 X11.8739 Y54.0482
G01 X11.8794 Y54.0619
G01 X11.8893 Y54.0896
G01 X11.8934 Y54.1038
G01 X11.9015 Y54.1372
G01 X11.9074 Y54.1760
G01 X11.9087 Y54.1906
G01 X11.9101 Y54.2250
G01 X11.9101 Y139.7388
G01 X17.3015 Y145.1543
G01 X17.3223 Y145.1618
G01 X17.3314 Y145.1655
G01 X17.3669 Y145.1823
G01 X17.3798 Y145.1894
G01 X17.4092 Y145.2071
G01 X17.4174 Y145.2126
G01 X17.4527 Y145.2390
G01 X17.4820 Y145.2652
G01 X17.4958 Y145.2791
G01 X17.5220 Y145.3083
G01 X17.5456 Y145.3397
G01 X17.5565 Y145.3560
G01 X17.5765 Y145.3898
G01 X17.5975 Y145.4342
G01 X17.6109 Y145.4711
G01 X17.6166 Y145.4898
G01 X17.6259 Y145.5280
G01 X17.6319 Y145.5668
G01 X17.6338 Y145.5863
G01 X17.6355 Y145.6255
G01 X17.6338 Y145.6647
G01 X17.6319 Y145.6843
G01 X17.6259 Y145.7231
G01 X17.6166 Y145.7612
G01 X17.6109 Y145.7800
G01 X17.5975 Y145.8169
G01 X17.5809 Y145.8524
G01 X17.5716 Y145.8698
G01 X17.5513 Y145.9033
G01 X17.5281 Y145.9350
G01 X17.5156 Y145.9501
G01 X17.4891 Y145.9791
G01 X17.4601 Y146.0056
G01 X17.4450 Y146.0181
G01 X17.4133 Y146.0413
G01 X17.3798 Y146.0616
G01 X17.3624 Y146.0709
G01 X17.3269 Y146.0875
G01 X17.2900 Y146.1009
G01 X17.2712 Y146.1066
G01 X17.2331 Y146.1159
G01 X17.1894 Y146.1226
G01 X17.1747 Y146.1238
G01 X17.1355 Y146.1255
G01 X17.0865 Y146.1231
G01 X17.0380 Y146.1159
G01 X16.9998 Y146.1066
G01 X16.9811 Y146.1009
G01 X16.9442 Y146.0875
G01 X16.9086 Y146.0709
G01 X16.8955 Y146.0641
G01 X16.8660 Y146.0465
G01 X16.8497 Y146.0356
G01 X16.8183 Y146.0120
G01 X16.7820 Y145.9791
G01 X16.7490 Y145.9427
G01 X16.7254 Y145.9113
G01 X16.7171 Y145.8992
G01 X16.6994 Y145.8698
G01 X16.6923 Y145.8569
G01 X16.6736 Y145.8169
G01 X16.6635 Y145.7894
G01 X11.2160 Y140.3176
G01 X11.1928 Y140.2922
G01 X11.1815 Y140.2784
G01 X11.1670 Y140.2665
G01 X11.1452 Y140.2467
G01 X11.1383 Y140.2398
G01 X11.1120 Y140.2106
G01 X11.0857 Y140.1751
G01 X11.0630 Y140.1372
G01 X11.0481 Y140.1062
G01 X11.0406 Y140.0881
G01 X11.0307 Y140.0603
G01 X11.0279 Y140.0509
G01 X11.0185 Y140.0128
G01 X11.0126 Y139.9740
G01 X11.0113 Y139.9593
G01 X11.0099 Y139.9250
G01 X11.0099 Y54.3364
G01 X7.5636 Y50.8901
G01 X5.5875 Y50.8901
G01 X5.5704 Y50.9262
G01 X5.5637 Y50.9393
G01 X5.5157 Y51.0192
G01 X5.5074 Y51.0314
G01 X5.4577 Y51.0984
G01 X5.4485 Y51.1099
G01 X5.3825 Y51.1825
G01 X5.3135 Y51.2452
G01 X5.2984 Y51.2577
G01 X5.2314 Y51.3074
G01 X5.2192 Y51.3157
G01 X5.1350 Y51.3660
G01 X5.0508 Y51.4061
G01 X5.0327 Y51.4136
G01 X4.9448 Y51.4448
G01 X4.8448 Y51.4698
G01 X4.7527 Y51.4837
G01 X4.7331 Y51.4857
G01 X4.6400 Y51.4900
G01 X4.5469 Y51.4857
G01 X4.5273 Y51.4837
G01 X4.4352 Y51.4698
G01 X4.3352 Y51.4448
G01 X4.2473 Y51.4136
G01 X4.2292 Y51.4061
G01 X4.1450 Y51.3660
G01 X4.0649 Y51.3183
G01 X4.0486 Y51.3074
G01 X3.9739 Y51.2517
G01 X3.9046 Y51.1892
G01 X3.8908 Y51.1754
G01 X3.8283 Y51.1061
G01 X3.7726 Y51.0314
G01 X3.7617 Y51.0151
G01 X3.7188 Y50.9435
G01 X3.7117 Y50.9306
G01 X3.6699 Y50.8418
G01 X3.6352 Y50.7448
G01 X3.6102 Y50.6448
G01 X3.5951 Y50.5429
G01 X3.5900 Y50.4400
G01 X3.5951 Y50.3371
G01 X3.6102 Y50.2352
G01 X3.6352 Y50.1352
G01 X3.6699 Y50.0382
G01 X3.7140 Y49.9450
G01 X3.7670 Y49.8567
G01 X3.8283 Y49.7739
G01 X3.8975 Y49.6975
G01 X3.9739 Y49.6283
G01 X4.0567 Y49.5670
G01 X4.1365 Y49.5188
G01 X4.1494 Y49.5117
G01 X4.2382 Y49.4699
G01 X4.3352 Y49.4352
G01 X4.4352 Y49.4102
G01 X4.5371 Y49.3951
G01 X4.6400 Y49.3900
G01 X4.7429 Y49.3951
G01 X4.8448 Y49.4102
G01 X4.9353 Y49.4326
G01 X4.9495 Y49.4367
G01 X5.0418 Y49.4699
G01 X5.1350 Y49.5140
G01 X5.2233 Y49.5670
G01 X5.2984 Y49.6223
G01 X5.3099 Y49.6315
G01 X5.3825 Y49.6975
G01 X5.4452 Y49.7665
G01 X5.4547 Y49.7777
G01 X5.5074 Y49.8486
G01 X5.5157 Y49.8608
G01 X5.5637 Y49.9407
G01 X5.5704 Y49.9538
G01 X5.5875 Y49.9899
G00 Z2.0000
G00 X5.4900 Y51.9300
G01 F60.00
G01 Z-0.1000
G01 F120.00
G01 X5.5047 Y51.9305
G01 X5.5242 Y51.9329
G01 X5.5433 Y51.9372
G01 X5.5620 Y51.9434
G01 X5.5799 Y51.9514
G01 X5.5928 Y51.9585
G01 X5.6091 Y51.9694
G01 X5.6243 Y51.9818
G01 X5.6382 Y51.9957
G01 X5.6506 Y52.0109
G01 X5.6615 Y52.0272
G01 X5.6708 Y52.0445
G01 X5.6766 Y52.0580
G01 X5.6828 Y52.0767
G01 X5.6871 Y52.0958
G01 X5.6895 Y52.1153
G01 X5.6900 Y52.1300
G01 X5.6899 Y53.8349
G01 X5.6885 Y53.8545
G01 X5.6862 Y53.8690
G01 X5.6814 Y53.8881
G01 X5.6748 Y53.9065
G01 X5.6686 Y53.9199
G01 X5.6590 Y53.9370
G01 X5.6506 Y53.9491
G01 X5.6382 Y53.9643
G01 X5.6243 Y53.9782
G01 X5.6091 Y53.9906
G01 X5.5928 Y54.0015
G01 X5.5843 Y54.0064
G01 X5.5710 Y54.0128
G01 X5.5527 Y54.0199
G01 X5.5433 Y54.0228
G01 X5.5290 Y54.0262
G01 X5.5096 Y54.0290
G01 X5.4900 Y54.0300
G01 X3.7851 Y54.0299
G01 X3.7704 Y54.0290
G01 X3.7510 Y54.0262
G01 X3.7319 Y54.0214
G01 X3.7180 Y54.0166
G01 X3.7001 Y54.0086
G01 X3.6830 Y53.9990
G01 X3.6670 Y53.9877
G01 X3.6557 Y53.9782
G01 X3.6418 Y53.9643
G01 X3.6354 Y53.9569
G01 X3.6265 Y53.9452
G01 X3.6160 Y53.9286
G01 X3.6072 Y53.9110
G01 X3.6017 Y53.8974
G01 X3.5986 Y53.8881
G01 X3.5938 Y53.8690
G01 X3.5910 Y53.8496
G01 X3.5900 Y53.8300
G01 X3.5901 Y52.1251
G01 X3.5915 Y52.1055
G01 X3.5938 Y52.0910
G01 X3.5972 Y52.0767
G01 X3.6034 Y52.0580
G01 X3.6114 Y52.0401
G01 X3.6185 Y52.0272
G01 X3.6294 Y52.0109
G01 X3.6418 Y51.9957
G01 X3.6486 Y51.9886
G01 X3.6594 Y51.9786
G01 X3.6748 Y51.9665
G01 X3.6914 Y51.9560
G01 X3.7090 Y51.9472
G01 X3.7273 Y51.9401
G01 X3.7462 Y51.9349
G01 X3.7655 Y51.9315
G01 X3.7851 Y51.9301
G01 X5.4900 Y51.9300
G00 Z2.0000
G00 X4.2909 Y59.4285
G01 F60.00
G01 Z-0.1000
G01 F120.00
G01 X4.1036 Y59.3203
G01 X3.9319 Y59.1886
G01 X3.7789 Y59.0356
G01 X3.6472 Y58.8639
G01 X3.5390 Y58.6766
G01 X3.4562 Y58.4767
G01 X3.4002 Y58.2677
G01 X3.3720 Y58.0532
G01 X3.3720 Y57.8368
G01 X3.4002 Y57.6223
G01 X3.4562 Y57.4133
G01 X3.5390 Y57.2134
G01 X3.6472 Y57.0261
G01 X3.7789 Y56.8544
G01 X3.9319 Y56.7014
G01 X4.1036 Y56.5697
G01 X4.2909 Y56.4615
G01 X4.4908 Y56.3787
G01 X4.6998 Y56.3227
G01 X4.9143 Y56.2945
G01 X5.1307 Y56.2945
G01 X5.3452 Y56.3227
G01 X5.5542 Y56.3787
G01 X5.7541 Y56.4615
G01 X5.9414 Y56.5697
G01 X6.1131 Y56.7014
G01 X6.2661 Y56.8544
G01 X6.3978 Y57.0261
G01 X6.5060 Y57.2134
G01 X6.5888 Y57.4133
G01 X6.6448 Y57.6223
G01 X6.6730 Y57.8368
G01 X6.6730 Y58.0532
G01 X6.6448 Y58.2677
G01 X6.5888 Y58.4767
G01 X6.5060 Y58.6766
G01 X6.3978 Y58.8639
G01 X6.2661 Y59.0356
G01 X6.1131 Y59.1886
G01 X5.9414 Y59.3203
G01 X5.9246 Y59.3300
G01 X5.7541 Y59.4285
G01 X5.5542 Y59.5113
G01 X5.3452 Y59.5673
G01 X5.1307 Y59.5955
G01 X4.9143 Y59.5955
G01 X4.6998 Y59.5673
G01 X4.4908 Y59.5113
G01 X4.2909 Y59.4285
G00 Z2.0000
G00 X6.6730 Y63.0532
G01 F60.00
G01 Z-0.1000
G01 F120.00
G01 X6.6448 Y63.2677
G01 X6.5888 Y63.4767
G01 X6.5060 Y63.6766
G01 X6.3978 Y63.8639
G01 X6.2661 Y64.0356
G01 X6.1131 Y64.1886
G01 X5.9414 Y64.3203
G01 X5.7541 Y64.4285
G01 X5.5542 Y64.5113
G01 X5.3452 Y64.5673
G01 X5.1307 Y64.5955
G01 X4.9143 Y64.5955
G01 X4.6998 Y64.5673
G01 X4.4908 Y64.5113
G01 X4.2909 Y64.4285
G01 X4.1036 Y64.3203
G01 X3.9319 Y64.1886
G01 X3.7789 Y64.0356
G01 X3.6472 Y63.8639
G01 X3.5390 Y63.6766
G01 X3.4562 Y63.4767
G01 X3.4002 Y63.2677
G01 X3.3720 Y63.0532
G01 X3.3720 Y62.8368
G01 X3.4002 Y62.6223
G01 X3.4562 Y62.4133
G01 X3.5390 Y62.2134
G01 X3.6472 Y62.0261
G01 X3.7789 Y61.8544
G01 X3.9319 Y61.7014
G01 X4.1036 Y61.5697
G01 X4.2909 Y61.4615
G01 X4.4908 Y61.3787
G01 X4.6998 Y61.3227
G01 X4.9143 Y61.2945
G01 X5.1307 Y61.2945
G01 X5.3452 Y61.3227
G01 X5.5542 Y61.3787
G01 X5.7541 Y61.4615
G01 X5.9414 Y61.5697
G01 X6.1131 Y61.7014
G01 X6.2661 Y61.8544
G01 X6.3978 Y62.0261
G01 X6.5060 Y62.2134
G01 X6.5888 Y62.4133
G01 X6.6450 Y62.6238
G01 X6.6730 Y62.8368
G01 X6.6730 Y63.0532
G00 Z2.0000
G00 X5.0900 Y66.9524
G01 F60.00
G01 Z-0.1000
G01 F120.00
G01 X5.0900 Y66.8410
G01 X5.2172 Y66.9003
G01 X5.3820 Y67.0157
G01 X5.5243 Y67.1580
G01 X5.6397 Y67.3228
G01 X5.6990 Y67.4500
G01 X5.5876 Y67.4500
G01 X5.5704 Y67.4138
G01 X5.5637 Y67.4007
G01 X5.5183 Y67.3249
G01 X5.5103 Y67.3126
G01 X5.4517 Y67.2339
G01 X5.3825 Y67.1575
G01 X5.3061 Y67.0883
G01 X5.2274 Y67.0297
G01 X5.2151 Y67.0217
G01 X5.1393 Y66.9763
G01 X5.1262 Y66.9696
G01 X5.0900 Y66.9524
G00 Z2.0000
G00 X3.6090 Y67.3899
G01 F60.00
G01 Z-0.1000
G01 F120.00
G01 X3.6403 Y67.3228
G01 X3.7557 Y67.1580
G01 X3.8980 Y67.0157
G01 X4.0628 Y66.9003
G01 X4.1900 Y66.8410
G01 X4.1900 Y66.9524
G01 X4.1538 Y66.9696
G01 X4.1407 Y66.9763
G01 X4.0649 Y67.0217
G01 X4.0526 Y67.0297
G01 X3.9739 Y67.0883
G01 X3.9011 Y67.1541
G01 X3.8908 Y67.1646
G01 X3.8348 Y67.2265
G01 X3.8223 Y67.2416
G01 X3.7670 Y67.3167
G01 X3.7228 Y67.3899
G01 X3.6090 Y67.3899
G00 Z2.0000
G00 X5.5875 Y69.9899
G01 F60.00
G01 Z-0.1000
G01 F120.00
G01 X7.8626 Y69.9899
G01 X7.8941 Y69.9750
G01 X7.9078 Y69.9695
G01 X7.9449 Y69.9565
G01 X7.9829 Y69.9468
G01 X8.0021 Y69.9429
G01 X8.0410 Y69.9374
G01 X8.0900 Y69.9350
G01 X8.1292 Y69.9367
G01 X8.1488 Y69.9386
G01 X8.1875 Y69.9446
G01 X8.2257 Y69.9539
G01 X8.2445 Y69.9596
G01 X8.2813 Y69.9731
G01 X8.3257 Y69.9940
G01 X8.3678 Y70.0193
G01 X8.4072 Y70.0485
G01 X8.4436 Y70.0814
G01 X8.4765 Y70.1178
G01 X8.5057 Y70.1572
G01 X8.5310 Y70.1993
G01 X8.5519 Y70.2437
G01 X8.5644 Y70.2779
G01 X10.8647 Y72.5782
G01 X10.8909 Y72.6074
G01 X10.9172 Y72.6429
G01 X10.9399 Y72.6808
G01 X10.9549 Y72.7117
G01 X10.9607 Y72.7253
G01 X10.9706 Y72.7530
G01 X10.9763 Y72.7718
G01 X10.9844 Y72.8052
G01 X10.9909 Y72.8489
G01 X10.9930 Y72.8881
G01 X10.9929 Y72.9028
G01 X10.9909 Y72.9371
G01 X10.9851 Y72.9772
G01 X10.9851 Y140.2738
G01 X10.9930 Y140.2802
G01 X11.0152 Y140.2996
G01 X11.0423 Y140.3280
G01 X11.0666 Y140.3589
G01 X11.0826 Y140.3836
G01 X11.0923 Y140.4006
G01 X11.1033 Y140.4225
G01 X11.1073 Y140.4315
G01 X11.1180 Y140.4590
G01 X11.1368 Y140.5152
G01 X13.5637 Y142.9422
G01 X13.5848 Y142.9480
G01 X13.6172 Y142.9595
G01 X13.6309 Y142.9650
G01 X13.6707 Y142.9840
G01 X13.7045 Y143.0040
G01 X13.7168 Y143.0120
G01 X13.7522 Y143.0385
G01 X13.7886 Y143.0714
G01 X13.8215 Y143.1078
G01 X13.8507 Y143.1472
G01 X13.8711 Y143.1808
G01 X13.8804 Y143.1981
G01 X13.8969 Y143.2337
G01 X13.9104 Y143.2705
G01 X13.9161 Y143.2893
G01 X13.9254 Y143.3275
G01 X13.9326 Y143.3760
G01 X13.9348 Y143.4152
G01 X13.9348 Y143.4348
G01 X13.9326 Y143.4740
G01 X13.9271 Y143.5129
G01 X13.9232 Y143.5321
G01 X13.9135 Y143.5701
G01 X13.9005 Y143.6072
G01 X13.8930 Y143.6253
G01 X13.8760 Y143.6607
G01 X13.8560 Y143.6945
G01 X13.8451 Y143.7108
G01 X13.8215 Y143.7422
G01 X13.7953 Y143.7714
G01 X13.7814 Y143.7853
G01 X13.7522 Y143.8115
G01 X13.7208 Y143.8351
G01 X13.7045 Y143.8460
G01 X13.6707 Y143.8660
G01 X13.6353 Y143.8830
G01 X13.6172 Y143.8905
G01 X13.5801 Y143.9035
G01 X13.5421 Y143.9132
G01 X13.5229 Y143.9171
G01 X13.4840 Y143.9226
G01 X13.4350 Y143.9250
G01 X13.3958 Y143.9233
G01 X13.3762 Y143.9214
G01 X13.3375 Y143.9154
G01 X13.2993 Y143.9061
G01 X13.2852 Y143.9020
G01 X13.2528 Y143.8905
G01 X13.2347 Y143.8830
G01 X13.1993 Y143.8660
G01 X13.1572 Y143.8407
G01 X13.1178 Y143.8115
G01 X13.0814 Y143.7786
G01 X13.0485 Y143.7422
G01 X13.0220 Y143.7068
G01 X13.0140 Y143.6945
G01 X12.9964 Y143.6650
G01 X12.9918 Y143.6563
G01 X12.9800 Y143.6316
G01 X10.3599 Y141.0112
G01 X10.3370 Y140.9856
G01 X10.3135 Y140.9541
G01 X10.3055 Y140.9418
G01 X10.2904 Y140.9165
G01 X10.2858 Y140.9078
G01 X10.2801 Y140.8959
G01 X10.2533 Y140.8760
G01 X10.2420 Y140.8665
G01 X10.2167 Y140.8433
G01 X10.1935 Y140.8180
G01 X10.1840 Y140.8067
G01 X10.1635 Y140.7791
G01 X10.1555 Y140.7668
G01 X10.1404 Y140.7415
G01 X10.1336 Y140.7284
G01 X10.1191 Y140.6973
G01 X10.1073 Y140.6650
G01 X10.1029 Y140.6509
G01 X10.0945 Y140.6176
G01 X10.0918 Y140.6031
G01 X10.0870 Y140.5691
G01 X10.0851 Y140.5348
G01 X10.0849 Y73.0714
G01 X7.9173 Y70.9039
G01 X7.8987 Y70.8969
G01 X7.8837 Y70.8901
G01 X5.5875 Y70.8901
G01 X5.5704 Y70.9262
G01 X5.5637 Y70.9393
G01 X5.5157 Y71.0192
G01 X5.5074 Y71.0314
G01 X5.4577 Y71.0984
G01 X5.4485 Y71.1099
G01 X5.3825 Y71.1825
G01 X5.3135 Y71.2452
G01 X5.2984 Y71.2577
G01 X5.2314 Y71.3074
G01 X5.2192 Y71.3157
G01 X5.1350 Y71.3660
G01 X5.0508 Y71.4061
G01 X5.0327 Y71.4136
G01 X4.9448 Y71.4448
G01 X4.8448 Y71.4698
G01 X4.7527 Y71.4837
G01 X4.7331 Y71.4857
G01 X4.6400 Y71.4900
G01 X4.5469 Y71.4857
G01 X4.5273 Y71.4837
G01 X4.4352 Y71.4698
G01 X4.3352 Y71.4448
G01 X4.2473 Y71.4136
G01 X4.2292 Y71.4061
G01 X4.1450 Y71.3660
G01 X4.0649 Y71.3183
G01 X4.0486 Y71.3074
G01 X3.9739 Y71.2517
G01 X3.9046 Y71.1892
G01 X3.8908 Y71.1754
G01 X3.8283 Y71.1061
G01 X3.7726 Y71.0314
G01 X3.7617 Y71.0151
G01 X3.7188 Y70.9435
G01 X3.7117 Y70.9306
G01 X3.6699 Y70.8418
G01 X3.6352 Y70.7448
G01 X3.6102 Y70.6448
G01 X3.5951 Y70.5429
G01 X3.5900 Y70.4400
G01 X3.5951 Y70.3371
G01 X3.6102 Y70.2352
G01 X3.6352 Y70.1352
G01 X3.6699 Y70.0382
G01 X3.7140 Y69.9450
G01 X3.7670 Y69.8567
G01 X3.8283 Y69.7739
G01 X3.8975 Y69.6975
G01 X3.9739 Y69.6283
G01 X4.0567 Y69.5670
G01 X4.1365 Y69.5188
G01 X4.1494 Y69.5117
G01 X4.2382 Y69.4699
G01 X4.3352 Y69.4352
G01 X4.4352 Y69.4102
G01 X4.5371 Y69.3951
G01 X4.6400 Y69.3900
G01 X4.7429 Y69.3951
G01 X4.8448 Y69.4102
G01 X4.9353 Y69.4326
G01 X4.9495 Y69.4367
G01 X5.0418 Y69.4699
G01 X5.1350 Y69.5140
G01 X5.2233 Y69.5670
G01 X5.2984 Y69.6223
G01 X5.3099 Y69.6315
G01 X5.3825 Y69.6975
G01 X5.4452 Y69.7665
G01 X5.4547 Y69.7777
G01 X5.5074 Y69.8486
G01 X5.5157 Y69.8608
G01 X5.5637 Y69.9407
G01 X5.5704 Y69.9538
G01 X5.5875 Y69.9899
G00 Z2.0000
G00 X5.4900 Y71.9300
G01 F60.00
G01 Z-0.1000
G01 F120.00
G01 X5.5047 Y71.9305
G01 X5.5242 Y71.9329
G01 X5.5433 Y71.9372
G01 X5.5620 Y71.9434
G01 X5.5799 Y71.9514
G01 X5.5970 Y71.9610
G01 X5.6130 Y71.9723
G01 X5.6279 Y71.9852
G01 X5.6414 Y71.9994
G01 X5.6506 Y72.0109
G01 X5.6615 Y72.0272
G01 X5.6708 Y72.0445
G01 X5.6783 Y72.0626
G01 X5.6840 Y72.0814
G01 X5.6871 Y72.0958
G01 X5.6895 Y72.1153
G01 X5.6900 Y72.1300
G01 X5.6899 Y73.8349
G01 X5.6885 Y73.8545
G01 X5.6851 Y73.8738
G01 X5.6814 Y73.8881
G01 X5.6748 Y73.9065
G01 X5.6664 Y73.9243
G01 X5.6590 Y73.9370
G01 X5.6506 Y73.9491
G01 X5.6382 Y73.9643
G01 X5.6243 Y73.9782
G01 X5.6091 Y73.9906
G01 X5.5928 Y74.0015
G01 X5.5799 Y74.0086
G01 X5.5710 Y74.0128
G01 X5.5527 Y74.0199
G01 X5.5338 Y74.0251
G01 X5.5145 Y74.0285
G01 X5.4998 Y74.0298
G01 X5.4900 Y74.0300
G01 X3.7851 Y74.0299
G01 X3.7655 Y74.0285
G01 X3.7462 Y74.0251
G01 X3.7273 Y74.0199
G01 X3.7135 Y74.0148
G01 X3.6957 Y74.0064
G01 X3.6830 Y73.9990
G01 X3.6670 Y73.9877
G01 X3.6557 Y73.9782
G01 X3.6418 Y73.9643
G01 X3.6294 Y73.9491
G01 X3.6185 Y73.9328
G01 X3.6136 Y73.9243
G01 X3.6072 Y73.9110
G01 X3.6034 Y73.9020
G01 X3.5986 Y73.8881
G01 X3.5938 Y73.8690
G01 X3.5910 Y73.8496
G01 X3.5900 Y73.8300
G01 X3.5901 Y72.1251
G01 X3.5910 Y72.1104
G01 X3.5938 Y72.0910
G01 X3.5986 Y72.0719
G01 X3.6034 Y72.0580
G01 X3.6092 Y72.0445
G01 X3.6185 Y72.0272
G01 X3.6294 Y72.0109
G01 X3.6418 Y71.9957
G01 X3.6486 Y71.9886
G01 X3.6594 Y71.9786
G01 X3.6748 Y71.9665
G01 X3.6914 Y71.9560
G01 X3.7090 Y71.9472
G01 X3.7273 Y71.9401
G01 X3.7462 Y71.9349
G01 X3.7655 Y71.9315
G01 X3.7851 Y71.9301
G01 X5.4900 Y71.9300
G00 Z2.0000
G00 X4.2909 Y79.4285
G01 F60.00
G01 Z-0.1000
G01 F120.00
G01 X4.1036 Y79.3203
G01 X3.9319 Y79.1886
G01 X3.7789 Y79.0356
G01 X3.6472 Y78.8639
G01 X3.5390 Y78.6766
G01 X3.4562 Y78.4767
G01 X3.4002 Y78.2677
G01 X3.3720 Y78.0532
G01 X3.3720 Y77.8368
G01 X3.4002 Y77.6223
G01 X3.4562 Y77.4133
G01 X3.5390 Y77.2134
G01 X3.6472 Y77.0261
G01 X3.7789 Y76.8544
G01 X3.9319 Y76.7014
G01 X4.1036 Y76.5697
G01 X4.2909 Y76.4615
G01 X4.4908 Y76.3787
G01 X4.6998 Y76.3227
G01 X4.9143 Y76.2945
G01 X5.1307 Y76.2945
G01 X5.3452 Y76.3227
G01 X5.5542 Y76.3787
G01 X5.7541 Y76.4615
G01 X5.9414 Y76.5697
G01 X6.1131 Y76.7014
G01 X6.2661 Y76.8544
G01 X6.3978 Y77.0261
G01 X6.5060 Y77.2134
G01 X6.5888 Y77.4133
G01 X6.6448 Y77.6223
G01 X6.6730 Y77.8368
G01 X6.6730 Y78.0532
G01 X6.6448 Y78.2677
G01 X6.5888 Y78.4767
G01 X6.5060 Y78.6766
G01 X6.3978 Y78.8639
G01 X6.2661 Y79.0356
G01 X6.1131 Y79.1886
G01 X5.9414 Y79.3203
G01 X5.9246 Y79.3300
G01 X5.7541 Y79.4285
G01 X5.5542 Y79.5113
G01 X5.3452 Y79.5673
G01 X5.1307 Y79.5955
G01 X4.9143 Y79.5955
G01 X4.6998 Y79.5673
G01 X4.4908 Y79.5113
G01 X4.2909 Y79.4285
G00 Z2.0000
G00 X6.6730 Y83.0532
G01 F60.00
G01 Z-0.1000
G01 F120.00
G01 X6.6448 Y83.2677
G01 X6.5888 Y83.4767
G01 X6.5060 Y83.6766
G01 X6.3978 Y83.8639
G01 X6.2661 Y84.0356
G01 X6.1131 Y84.1886
G01 X5.9414 Y84.3203
G01 X5.7541 Y84.4285
G01 X5.5542 Y84.5113
G01 X5.3452 Y84.5673
G01 X5.1307 Y84.5955
G01 X4.9143 Y84.5955
G01 X4.6998 Y84.5673
G01 X4.4908 Y84.5113
G01 X4.2909 Y84.4285
G01 X4.1036 Y84.3203
G01 X3.9319 Y84.1886
G01 X3.7789 Y84.0356
G01 X3.6472 Y83.8639
G01 X3.5390 Y83.6766
G01 X3.4562 Y83.4767
G01 X3.4002 Y83.2677
G01 X3.3720 Y83.0532
G01 X3.3720 Y82.8368
G01 X3.4002 Y82.6223
G01 X3.4562 Y82.4133
G01 X3.5390 Y82.2134
G01 X3.6472 Y82.0261
G01 X3.7789 Y81.8544
G01 X3.9319 Y81.7014
G01 X4.1036 Y81.5697
G01 X4.2909 Y81.4615
G01 X4.4908 Y81.3787
G01 X4.6998 Y81.3227
G01 X4.9143 Y81.2945
G01 X5.1307 Y81.2945
G01 X5.3452 Y81.3227
G01 X5.5542 Y81.3787
G01 X5.7541 Y81.4615
G01 X5.9414 Y81.5697
G01 X6.1131 Y81.7014
G01 X6.2661 Y81.8544
G01 X6.3978 Y82.0261
G01 X6.5060 Y82.2134
G01 X6.5888 Y82.4133
G01 X6.6450 Y82.6238
G01 X6.6730 Y82.8368
G01 X6.6730 Y83.0532
G00 Z2.0000
G00 X5.0900 Y86.9524
G01 F60.00
G01 Z-0.1000
G01 F120.00
G01 X5.0900 Y86.8410
G01 X5.2172 Y86.9003
G01 X5.3820 Y87.0157
G01 X5.5243 Y87.1580
G01 X5.6397 Y87.3228
G01 X5.6990 Y87.4500
G01 X5.5876 Y87.4500
G01 X5.5704 Y87.4138
G01 X5.5637 Y87.4007
G01 X5.5183 Y87.3249
G01 X5.5103 Y87.3126
G01 X5.4517 Y87.2339
G01 X5.3825 Y87.1575
G01 X5.3061 Y87.0883
G01 X5.2274 Y87.0297
G01 X5.2151 Y87.0217
G01 X5.1393 Y86.9763
G01 X5.1262 Y86.9696
G01 X5.0900 Y86.9524
G00 Z2.0000
G00 X3.5857 Y87.4399
G01 F60.00
G01 Z-0.1000
G01 F120.00
G01 X3.6403 Y87.3228
G01 X3.7557 Y87.1580
G01 X3.8980 Y87.0157
G01 X4.0628 Y86.9003
G01 X4.1900 Y86.8410
G01 X4.1900 Y86.9524
G01 X4.1538 Y86.9696
G01 X4.1407 Y86.9763
G01 X4.0649 Y87.0217
G01 X4.0526 Y87.0297
G01 X3.9739 Y87.0883
G01 X3.8975 Y87.1575
G01 X3.8283 Y87.2339
G01 X3.7697 Y87.3126
G01 X3.7617 Y87.3249
G01 X3.7163 Y87.4007
G01 X3.7117 Y87.4094
G01 X3.6972 Y87.4399
G01 X3.5857 Y87.4399
G00 Z2.0000
G00 X5.5875 Y89.9899
G01 F60.00
G01 Z-0.1000
G01 F120.00
G01 X7.8126 Y89.9899
G01 X7.8441 Y89.9750
G01 X7.8578 Y89.9695
G01 X7.8949 Y89.9565
G01 X7.9329 Y89.9468
G01 X7.9521 Y89.9429
G01 X7.9910 Y89.9374
G01 X8.0400 Y89.9350
G01 X8.0890 Y89.9374
G01 X8.1375 Y89.9446
G01 X8.1851 Y89.9565
G01 X8.2222 Y89.9695
G01 X8.2359 Y89.9750
G01 X8.2757 Y89.9940
G01 X8.3178 Y90.0193
G01 X8.3572 Y90.0485
G01 X8.3936 Y90.0814
G01 X8.4265 Y90.1178
G01 X8.4501 Y90.1492
G01 X8.4584 Y90.1613
G01 X8.4786 Y90.1950
G01 X8.4854 Y90.2081
G01 X8.5019 Y90.2437
G01 X8.5139 Y90.2763
G01 X9.9354 Y91.6891
G01 X9.9584 Y91.7147
G01 X9.9848 Y91.7500
G01 X10.0076 Y91.7879
G01 X10.0247 Y91.8232
G01 X10.0285 Y91.8323
G01 X10.0385 Y91.8600
G01 X10.0443 Y91.8787
G01 X10.0515 Y91.9073
G01 X10.0534 Y91.9169
G01 X10.0579 Y91.9460
G01 X10.0596 Y91.9607
G01 X10.0614 Y91.9999
G01 X10.0601 Y92.0342
G01 X10.0589 Y92.0489
G01 X10.0547 Y92.0780
G01 X10.0521 Y92.0925
G01 X10.0438 Y92.1259
G01 X10.0410 Y92.1353
G01 X10.0351 Y92.1521
G01 X10.0351 Y140.8786
G01 X16.6964 Y147.5399
G01 X19.0304 Y147.5399
G01 X19.0571 Y147.5334
G01 X19.0959 Y147.5275
G01 X19.1106 Y147.5262
G01 X19.1449 Y147.5248
G01 X19.1890 Y147.5270
G01 X19.2231 Y147.5318
G01 X19.2423 Y147.5356
G01 X19.2709 Y147.5428
G01 X19.2849 Y147.5473
G01 X19.3172 Y147.5591
G01 X19.3483 Y147.5735
G01 X19.3614 Y147.5803
G01 X19.3867 Y147.5954
G01 X19.3990 Y147.6034
G01 X19.4266 Y147.6239
G01 X19.4379 Y147.6334
G01 X19.4597 Y147.6532
G01 X20.7767 Y148.9702
G01 X20.8030 Y148.9994
G01 X20.8293 Y149.0349
G01 X20.8520 Y149.0728
G01 X20.8669 Y149.1038
G01 X20.8744 Y149.1219
G01 X20.8843 Y149.1497
G01 X20.8884 Y149.1638
G01 X20.8965 Y149.1972
G01 X20.9030 Y149.2409
G01 X20.9051 Y149.2850
G01 X20.9051 Y150.1487
G01 X20.9622 Y150.1833
G01 X21.0292 Y150.2329
G01 X21.0910 Y150.2890
G01 X21.1406 Y150.3433
G01 X21.1531 Y150.3585
G01 X21.1911 Y150.4097
G01 X21.2020 Y150.4261
G01 X21.2396 Y150.4893
G01 X21.2713 Y150.5557
G01 X21.2771 Y150.5693
G01 X21.3034 Y150.6433
G01 X21.3215 Y150.7146
G01 X21.3253 Y150.7338
G01 X21.3359 Y150.8067
G01 X21.3400 Y150.8900
G01 X21.3399 Y151.2949
G01 X21.3359 Y151.3733
G01 X21.3237 Y151.4558
G01 X21.3034 Y151.5367
G01 X21.2788 Y151.6061
G01 X21.2713 Y151.6243
G01 X21.2440 Y151.6819
G01 X21.2348 Y151.6992
G01 X21.1967 Y151.7622
G01 X21.1471 Y151.8292
G01 X21.0910 Y151.8910
G01 X21.0367 Y151.9406
G01 X21.0215 Y151.9531
G01 X20.9703 Y151.9911
G01 X20.9539 Y152.0020
G01 X20.8907 Y152.0396
G01 X20.8153 Y152.0753
G01 X20.7367 Y152.1034
G01 X20.6654 Y152.1215
G01 X20.6462 Y152.1253
G01 X20.5831 Y152.1347
G01 X20.5635 Y152.1366
G01 X20.4900 Y152.1400
G01 X20.4165 Y152.1366
G01 X20.3969 Y152.1347
G01 X20.3242 Y152.1237
G01 X20.2433 Y152.1034
G01 X20.1647 Y152.0753
G01 X20.0893 Y152.0396
G01 X20.0178 Y151.9967
G01 X19.9585 Y151.9531
G01 X19.9433 Y151.9406
G01 X19.8961 Y151.8978
G01 X19.8822 Y151.8839
G01 X19.8329 Y151.8292
G01 X19.7833 Y151.7622
G01 X19.7404 Y151.6907
G01 X19.7087 Y151.6243
G01 X19.7012 Y151.6061
G01 X19.6797 Y151.5461
G01 X19.6740 Y151.5273
G01 X19.6563 Y151.4558
G01 X19.6453 Y151.3831
G01 X19.6437 Y151.3684
G01 X19.6400 Y151.2900
G01 X19.6400 Y150.8900
G01 X19.6434 Y150.8165
G01 X19.6453 Y150.7969
G01 X19.6563 Y150.7242
G01 X19.6766 Y150.6433
G01 X19.7047 Y150.5647
G01 X19.7360 Y150.4981
G01 X19.7452 Y150.4808
G01 X19.7833 Y150.4178
G01 X19.8269 Y150.3585
G01 X19.8394 Y150.3433
G01 X19.8822 Y150.2961
G01 X19.8961 Y150.2822
G01 X19.9508 Y150.2329
G01 X20.0049 Y150.1925
G01 X20.0049 Y149.4714
G01 X18.9736 Y148.4401
G01 X16.5051 Y148.4401
G01 X16.4659 Y148.4380
G01 X16.4270 Y148.4324
G01 X16.4174 Y148.4305
G01 X16.3888 Y148.4234
G01 X16.3700 Y148.4177
G01 X16.3377 Y148.4059
G01 X16.2978 Y148.3870
G01 X16.2599 Y148.3643
G01 X16.2322 Y148.3440
G01 X16.2207 Y148.3348
G01 X16.1917 Y148.3083
G01 X9.3842 Y141.5008
G01 X9.3609 Y141.4755
G01 X9.3515 Y141.4642
G01 X9.3282 Y141.4326
G01 X9.3137 Y141.4088
G01 X9.2957 Y141.3948
G01 X9.2738 Y141.3751
G01 X9.2633 Y141.3648
G01 X9.2370 Y141.3356
G01 X9.2107 Y141.3001
G01 X9.1880 Y141.2622
G01 X9.1691 Y141.2223
G01 X9.1543 Y141.1807
G01 X9.1457 Y141.1474
G01 X9.1426 Y141.1330
G01 X9.1370 Y141.0941
G01 X9.1349 Y141.0500
G01 X9.1349 Y92.1625
G01 X7.8687 Y90.9044
G01 X7.8487 Y90.8969
G01 X7.8337 Y90.8901
G01 X5.5875 Y90.8901
G01 X5.5704 Y90.9262
G01 X5.5637 Y90.9393
G01 X5.5157 Y91.0192
G01 X5.5074 Y91.0314
G01 X5.4577 Y91.0984
G01 X5.4485 Y91.1099
G01 X5.3825 Y91.1825
G01 X5.3135 Y91.2452
G01 X5.2984 Y91.2577
G01 X5.2314 Y91.3074
G01 X5.2192 Y91.3157
G01 X5.1350 Y91.3660
G01 X5.0508 Y91.4061
G01 X5.0327 Y91.4136
G01 X4.9448 Y91.4448
G01 X4.8448 Y91.4698
G01 X4.7527 Y91.4837
G01 X4.7331 Y91.4857
G01 X4.6400 Y91.4900
G01 X4.5371 Y91.4849
G01 X4.4448 Y91.4715
G01 X4.4256 Y91.4677
G01 X4.3352 Y91.4448
G01 X4.2473 Y91.4136
G01 X4.2292 Y91.4061
G01 X4.1450 Y91.3660
G01 X4.0649 Y91.3183
G01 X4.0486 Y91.3074
G01 X3.9739 Y91.2517
G01 X3.9046 Y91.1892
G01 X3.8908 Y91.1754
G01 X3.8283 Y91.1061
G01 X3.7726 Y91.0314
G01 X3.7617 Y91.0151
G01 X3.7188 Y90.9435
G01 X3.7117 Y90.9306
G01 X3.6699 Y90.8418
G01 X3.6352 Y90.7448
G01 X3.6102 Y90.6448
G01 X3.5951 Y90.5429
G01 X3.5900 Y90.4400
G01 X3.5951 Y90.3371
G01 X3.6102 Y90.2352
G01 X3.6352 Y90.1352
G01 X3.6699 Y90.0382
G01 X3.7140 Y89.9450
G01 X3.7670 Y89.8567
G01 X3.8283 Y89.7739
G01 X3.8975 Y89.6975
G01 X3.9739 Y89.6283
G01 X4.0567 Y89.5670
G01 X4.1365 Y89.5188
G01 X4.1494 Y89.5117
G01 X4.2382 Y89.4699
G01 X4.3352 Y89.4352
G01 X4.4352 Y89.4102
G01 X4.5371 Y89.3951
G01 X4.6400 Y89.3900
G01 X4.7429 Y89.3951
G01 X4.8448 Y89.4102
G01 X4.9353 Y89.4326
G01 X4.9495 Y89.4367
G01 X5.0418 Y89.4699
G01 X5.1350 Y89.5140
G01 X5.2233 Y89.5670
G01 X5.2984 Y89.6223
G01 X5.3099 Y89.6315
G01 X5.3825 Y89.6975
G01 X5.4452 Y89.7665
G01 X5.4547 Y89.7777
G01 X5.5074 Y89.8486
G01 X5.5157 Y89.8608
G01 X5.5637 Y89.9407
G01 X5.5704 Y89.9538
G01 X5.5875 Y89.9899
G00 Z2.0000
G00 X5.4900 Y91.9300
G01 F60.00
G01 Z-0.1000
G01 F120.00
G01 X5.5047 Y91.9305
G01 X5.5242 Y91.9329
G01 X5.5433 Y91.9372
G01 X5.5620 Y91.9434
G01 X5.5799 Y91.9514
G01 X5.5970 Y91.9610
G01 X5.6130 Y91.9723
G01 X5.6279 Y91.9852
G01 X5.6414 Y91.9994
G01 X5.6506 Y92.0109
G01 X5.6615 Y92.0272
G01 X5.6708 Y92.0445
G01 X5.6783 Y92.0626
G01 X5.6840 Y92.0814
G01 X5.6871 Y92.0958
G01 X5.6895 Y92.1153
G01 X5.6900 Y92.1300
G01 X5.6899 Y93.8349
G01 X5.6885 Y93.8545
G01 X5.6851 Y93.8738
G01 X5.6814 Y93.8881
G01 X5.6748 Y93.9065
G01 X5.6664 Y93.9243
G01 X5.6590 Y93.9370
G01 X5.6506 Y93.9491
G01 X5.6382 Y93.9643
G01 X5.6243 Y93.9782
G01 X5.6091 Y93.9906
G01 X5.5928 Y94.0015
G01 X5.5799 Y94.0086
G01 X5.5710 Y94.0128
G01 X5.5527 Y94.0199
G01 X5.5338 Y94.0251
G01 X5.5145 Y94.0285
G01 X5.4998 Y94.0298
G01 X5.4900 Y94.0300
G01 X3.7851 Y94.0299
G01 X3.7655 Y94.0285
G01 X3.7462 Y94.0251
G01 X3.7273 Y94.0199
G01 X3.7135 Y94.0148
G01 X3.6957 Y94.0064
G01 X3.6830 Y93.9990
G01 X3.6670 Y93.9877
G01 X3.6557 Y93.9782
G01 X3.6418 Y93.9643
G01 X3.6294 Y93.9491
G01 X3.6185 Y93.9328
G01 X3.6136 Y93.9243
G01 X3.6072 Y93.9110
G01 X3.6034 Y93.9020
G01 X3.5986 Y93.8881
G01 X3.5938 Y93.8690
G01 X3.5910 Y93.8496
G01 X3.5900 Y93.8300
G01 X3.5901 Y92.1251
G01 X3.5910 Y92.1104
G01 X3.5938 Y92.0910
G01 X3.5986 Y92.0719
G01 X3.6034 Y92.0580
G01 X3.6092 Y92.0445
G01 X3.6185 Y92.0272
G01 X3.6294 Y92.0109
G01 X3.6418 Y91.9957
G01 X3.6486 Y91.9886
G01 X3.6594 Y91.9786
G01 X3.6748 Y91.9665
G01 X3.6914 Y91.9560
G01 X3.7090 Y91.9472
G01 X3.7273 Y91.9401
G01 X3.7462 Y91.9349
G01 X3.7655 Y91.9315
G01 X3.7851 Y91.9301
G01 X5.4900 Y91.9300
G00 Z2.0000
G00 X4.2909 Y99.4285
G01 F60.00
G01 Z-0.1000
G01 F120.00
G01 X4.1036 Y99.3203
G01 X3.9319 Y99.1886
G01 X3.7789 Y99.0356
G01 X3.6472 Y98.8639
G01 X3.5390 Y98.6766
G01 X3.4562 Y98.4767
G01 X3.4002 Y98.2677
G01 X3.3720 Y98.0532
G01 X3.3720 Y97.8368
G01 X3.4002 Y97.6223
G01 X3.4562 Y97.4133
G01 X3.5390 Y97.2134
G01 X3.6472 Y97.0261
G01 X3.7789 Y96.8544
G01 X3.9319 Y96.7014
G01 X4.1036 Y96.5697
G01 X4.2909 Y96.4615
G01 X4.4908 Y96.3787
G01 X4.6998 Y96.3227
G01 X4.9143 Y96.2945
G01 X5.1307 Y96.2945
G01 X5.3452 Y96.3227
G01 X5.5542 Y96.3787
G01 X5.7541 Y96.4615
G01 X5.9414 Y96.5697
G01 X6.1131 Y96.7014
G01 X6.2661 Y96.8544
G01 X6.3978 Y97.0261
G01 X6.5060 Y97.2134
G01 X6.5888 Y97.4133
G01 X6.6448 Y97.6223
G01 X6.6730 Y97.8368
G01 X6.6730 Y98.0532
G01 X6.6448 Y98.2677
G01 X6.5888 Y98.4767
G01 X6.5060 Y98.6766
G01 X6.3978 Y98.8639
G01 X6.2661 Y99.0356
G01 X6.1131 Y99.1886
G01 X5.9414 Y99.3203
G01 X5.9246 Y99.3300
G01 X5.7541 Y99.4285
G01 X5.5542 Y99.5113
G01 X5.3452 Y99.5673
G01 X5.1307 Y99.5955
G01 X4.9143 Y99.5955
G01 X4.6998 Y99.5673
G01 X4.4908 Y99.5113
G01 X4.2909 Y99.4285
G00 Z2.0000
G00 X6.6730 Y103.0532
G01 F60.00
G01 Z-0.1000
G01 F120.00
G01 X6.6448 Y103.2677
G01 X6.5888 Y103.4767
G01 X6.5060 Y103.6766
G01 X6.3978 Y103.8639
G01 X6.2661 Y104.0356
G01 X6.1131 Y104.1886
G01 X5.9414 Y104.3203
G01 X5.7541 Y104.4285
G01 X5.5542 Y104.5113
G01 X5.3452 Y104.5673
G01 X5.1307 Y104.5955
G01 X4.9143 Y104.5955
G01 X4.6998 Y104.5673
G01 X4.4908 Y104.5113
G01 X4.2909 Y104.4285
G01 X4.1036 Y104.3203
G01 X3.9319 Y104.1886
G01 X3.7789 Y104.0356
G01 X3.6472 Y103.8639
G01 X3.5390 Y103.6766
G01 X3.4562 Y103.4767
G01 X3.4002 Y103.2677
G01 X3.3720 Y103.0532
G01 X3.3720 Y102.8368
G01 X3.4002 Y102.6223
G01 X3.4562 Y102.4133
G01 X3.5390 Y102.2134
G01 X3.6472 Y102.0261
G01 X3.7789 Y101.8544
G01 X3.9319 Y101.7014
G01 X4.1036 Y101.5697
G01 X4.2909 Y101.4615
G01 X4.4908 Y101.3787
G01 X4.6998 Y101.3227
G01 X4.9143 Y101.2945
G01 X5.1307 Y101.2945
G01 X5.3452 Y101.3227
G01 X5.5542 Y101.3787
G01 X5.7541 Y101.4615
G01 X5.9414 Y101.5697
G01 X6.1131 Y101.7014
G01 X6.2661 Y101.8544
G01 X6.3978 Y102.0261
G01 X6.5060 Y102.2134
G01 X6.5888 Y102.4133
G01 X6.6450 Y102.6238
G01 X6.6730 Y102.8368
G01 X6.6730 Y103.0532
G00 Z2.0000
G00 X5.0900 Y106.9524
G01 F60.00
G01 Z-0.1000
G01 F120.00
G01 X5.0900 Y106.8410
G01 X5.2172 Y106.9003
G01 X5.3820 Y107.0157
G01 X5.5243 Y107.1580
G01 X5.6397 Y107.3228
G01 X5.6990 Y107.4500
G01 X5.5876 Y107.4500
G01 X5.5704 Y107.4138
G01 X5.5637 Y107.4007
G01 X5.5183 Y107.3249
G01 X5.5103 Y107.3126
G01 X5.4517 Y107.2339
G01 X5.3825 Y107.1575
G01 X5.3061 Y107.0883
G01 X5.2274 Y107.0297
G01 X5.2151 Y107.0217
G01 X5.1393 Y106.9763
G01 X5.1262 Y106.9696
G01 X5.0900 Y106.9524
G00 Z2.0000
G00 X3.5857 Y107.4399
G01 F60.00
G01 Z-0.1000
G01 F120.00
G01 X3.6403 Y107.3228
G01 X3.7557 Y107.1580
G01 X3.8980 Y107.0157
G01 X4.0628 Y106.9003
G01 X4.1900 Y106.8410
G01 X4.1900 Y106.9524
G01 X4.1538 Y106.9696
G01 X4.1407 Y106.9763
G01 X4.0649 Y107.0217
G01 X4.0526 Y107.0297
G01 X3.9739 Y107.0883
G01 X3.8975 Y107.1575
G01 X3.8283 Y107.2339
G01 X3.7697 Y107.3126
G01 X3.7617 Y107.3249
G01 X3.7163 Y107.4007
G01 X3.7117 Y107.4094
G01 X3.6972 Y107.4399
G01 X3.5857 Y107.4399
G00 Z2.0000
G00 X5.5868 Y109.9884
G01 F60.00
G01 Z-0.1000
G01 F120.00
G01 X7.7012 Y109.9851
G01 X7.7399 Y109.9715
G01 X7.7875 Y109.9596
G01 X7.8360 Y109.9524
G01 X7.8850 Y109.9500
G01 X7.9340 Y109.9524
G01 X7.9729 Y109.9579
G01 X7.9921 Y109.9618
G01 X8.0254 Y109.9702
G01 X8.0395 Y109.9746
G01 X8.0763 Y109.9881
G01 X8.1119 Y110.0046
G01 X8.1250 Y110.0114
G01 X8.1587 Y110.0316
G01 X8.1708 Y110.0399
G01 X8.2022 Y110.0635
G01 X8.2314 Y110.0897
G01 X8.2420 Y110.1000
G01 X8.2715 Y110.1328
G01 X8.2951 Y110.1642
G01 X8.3034 Y110.1763
G01 X8.3236 Y110.2100
G01 X8.3304 Y110.2231
G01 X8.3450 Y110.2541
G01 X8.3488 Y110.2632
G01 X8.3620 Y110.3002
G01 X8.3648 Y110.3096
G01 X8.3688 Y110.3252
G01 X8.8658 Y110.8789
G01 X8.8810 Y110.8880
G01 X8.8891 Y110.8935
G01 X8.9128 Y110.9110
G01 X8.9243 Y110.9202
G01 X8.9533 Y110.9467
G01 X8.9830 Y110.9794
G01 X9.0093 Y111.0149
G01 X9.0271 Y111.0443
G01 X9.0342 Y111.0571
G01 X9.0509 Y111.0927
G01 X9.0643 Y111.1296
G01 X9.0684 Y111.1438
G01 X9.0765 Y111.1772
G01 X9.0824 Y111.2160
G01 X9.0837 Y111.2306
G01 X9.0851 Y111.2650
G01 X9.0851 Y141.5240
G01 X16.3360 Y148.7749
G01 X18.2149 Y148.7749
G01 X18.2539 Y148.7770
G01 X18.2970 Y148.7834
G01 X18.3074 Y148.7857
G01 X18.3398 Y148.7940
G01 X18.3721 Y148.8052
G01 X18.3867 Y148.8110
G01 X18.4170 Y148.8253
G01 X18.4264 Y148.8303
G01 X18.4551 Y148.8475
G01 X18.4681 Y148.8564
G01 X18.4949 Y148.8765
G01 X18.5240 Y148.9025
G01 X19.5439 Y149.9173
G01 X19.5672 Y149.9426
G01 X19.5767 Y149.9538
G01 X19.5944 Y149.9774
G01 X19.6053 Y149.9937
G01 X19.6205 Y150.0189
G01 X19.6251 Y150.0276
G01 X19.6378 Y150.0541
G01 X19.6437 Y150.0677
G01 X19.6568 Y150.1047
G01 X19.6676 Y150.1475
G01 X19.6742 Y150.1912
G01 X19.6764 Y150.2304
G01 X19.6763 Y150.2451
G01 X19.6745 Y150.2794
G01 X19.6697 Y150.3134
G01 X19.6671 Y150.3279
G01 X19.6600 Y150.3565
G01 X19.6560 Y150.3707
G01 X19.6445 Y150.4031
G01 X19.6407 Y150.4121
G01 X19.6351 Y150.4243
G01 X19.6351 Y152.1485
G01 X20.1309 Y152.6444
G01 X20.1759 Y152.6283
G01 X20.1899 Y152.6238
G01 X20.2804 Y152.6012
G01 X20.2948 Y152.5985
G01 X20.3822 Y152.5856
G01 X20.3969 Y152.5843
G01 X20.4900 Y152.5800
G01 X20.5831 Y152.5843
G01 X20.5978 Y152.5856
G01 X20.6852 Y152.5985
G01 X20.7044 Y152.6023
G01 X20.7948 Y152.6252
G01 X20.8827 Y152.6564
G01 X20.9008 Y152.6639
G01 X20.9850 Y152.7040
G01 X21.0692 Y152.7543
G01 X21.0814 Y152.7626
G01 X21.1561 Y152.8183
G01 X21.2325 Y152.8875
G01 X21.3017 Y152.9639
G01 X21.3574 Y153.0386
G01 X21.3683 Y153.0549
G01 X21.4112 Y153.1265
G01 X21.4204 Y153.1438
G01 X21.4601 Y153.2282
G01 X21.4917 Y153.3159
G01 X21.4974 Y153.3347
G01 X21.5198 Y153.4252
G01 X21.5349 Y153.5271
G01 X21.5400 Y153.6300
G01 X21.5349 Y153.7329
G01 X21.5198 Y153.8348
G01 X21.4948 Y153.9348
G01 X21.4601 Y154.0318
G01 X21.4160 Y154.1250
G01 X21.3630 Y154.2133
G01 X21.3017 Y154.2961
G01 X21.2325 Y154.3725
G01 X21.1561 Y154.4417
G01 X21.0733 Y154.5030
G01 X20.9850 Y154.5560
G01 X20.8918 Y154.6001
G01 X20.7995 Y154.6333
G01 X20.7853 Y154.6374
G01 X20.7044 Y154.6577
G01 X20.6852 Y154.6615
G01 X20.5929 Y154.6749
G01 X20.4998 Y154.6798
G01 X20.4802 Y154.6798
G01 X20.3871 Y154.6749
G01 X20.2948 Y154.6615
G01 X20.2756 Y154.6577
G01 X20.1852 Y154.6348
G01 X20.0973 Y154.6036
G01 X20.0792 Y154.5961
G01 X19.9950 Y154.5560
G01 X19.9067 Y154.5030
G01 X19.8316 Y154.4477
G01 X19.8165 Y154.4352
G01 X19.7546 Y154.3792
G01 X19.7441 Y154.3689
G01 X19.6783 Y154.2961
G01 X19.6226 Y154.2214
G01 X19.6117 Y154.2051
G01 X19.5640 Y154.1250
G01 X19.5239 Y154.0408
G01 X19.5164 Y154.0227
G01 X19.4852 Y153.9348
G01 X19.4612 Y153.8396
G01 X19.4585 Y153.8252
G01 X19.4463 Y153.7427
G01 X19.4443 Y153.7231
G01 X19.4400 Y153.6300
G01 X19.4446 Y153.5320
G01 X19.4463 Y153.5173
G01 X19.4585 Y153.4348
G01 X19.4612 Y153.4204
G01 X19.4838 Y153.3299
G01 X19.4883 Y153.3159
G01 X19.4991 Y153.2857
G01 X18.9183 Y152.7048
G01 X18.8920 Y152.6756
G01 X18.8685 Y152.6441
G01 X18.8631 Y152.6360
G01 X18.8479 Y152.6107
G01 X18.8386 Y152.5934
G01 X18.8261 Y152.5668
G01 X18.8206 Y152.5531
G01 X18.8093 Y152.5207
G01 X18.8007 Y152.4874
G01 X18.7976 Y152.4730
G01 X18.7920 Y152.4341
G01 X18.7899 Y152.3900
G01 X18.7920 Y152.3459
G01 X18.7968 Y152.3119
G01 X18.7995 Y152.2974
G01 X18.8066 Y152.2688
G01 X18.8107 Y152.2547
G01 X18.8241 Y152.2177
G01 X18.8349 Y152.1944
G01 X18.8349 Y150.4818
G01 X18.0242 Y149.6751
G01 X16.1397 Y149.6749
G01 X16.1054 Y149.6730
G01 X16.0617 Y149.6665
G01 X16.0189 Y149.6557
G01 X15.9864 Y149.6444
G01 X15.9728 Y149.6389
G01 X15.9461 Y149.6264
G01 X15.9288 Y149.6171
G01 X15.8995 Y149.5993
G01 X15.8640 Y149.5730
G01 X15.8312 Y149.5433
G01 X8.4960 Y142.2080
G01 X8.4673 Y142.1977
G01 X8.4538 Y142.1919
G01 X8.4228 Y142.1770
G01 X8.3932 Y142.1595
G01 X8.3809 Y142.1515
G01 X8.3494 Y142.1280
G01 X8.3167 Y142.0983
G01 X8.2870 Y142.0656
G01 X8.2635 Y142.0341
G01 X8.2555 Y142.0218
G01 X8.2380 Y141.9922
G01 X8.2231 Y141.9612
G01 X8.2173 Y141.9477
G01 X8.2057 Y141.9154
G01 X8.2029 Y141.9060
G01 X8.1957 Y141.8774
G01 X8.1918 Y141.8582
G01 X8.1870 Y141.8241
G01 X8.1849 Y141.7800
G01 X8.1849 Y111.4680
G01 X7.6803 Y110.9059
G01 X7.6537 Y110.8932
G01 X7.6397 Y110.8855
G01 X5.5882 Y110.8887
G01 X5.5704 Y110.9262
G01 X5.5637 Y110.9393
G01 X5.5157 Y111.0192
G01 X5.5074 Y111.0314
G01 X5.4577 Y111.0984
G01 X5.4485 Y111.1099
G01 X5.3825 Y111.1825
G01 X5.3135 Y111.2452
G01 X5.2984 Y111.2577
G01 X5.2314 Y111.3074
G01 X5.2192 Y111.3157
G01 X5.1350 Y111.3660
G01 X5.0508 Y111.4061
G01 X5.0327 Y111.4136
G01 X4.9448 Y111.4448
G01 X4.8448 Y111.4698
G01 X4.7527 Y111.4837
G01 X4.7331 Y111.4857
G01 X4.6400 Y111.4900
G01 X4.5371 Y111.4849
G01 X4.4448 Y111.4715
G01 X4.4256 Y111.4677
G01 X4.3352 Y111.4448
G01 X4.2473 Y111.4136
G01 X4.2292 Y111.4061
G01 X4.1450 Y111.3660
G01 X4.0649 Y111.3183
G01 X4.0486 Y111.3074
G01 X3.9739 Y111.2517
G01 X3.9046 Y111.1892
G01 X3.8908 Y111.1754
G01 X3.8283 Y111.1061
G01 X3.7726 Y111.0314
G01 X3.7617 Y111.0151
G01 X3.7188 Y110.9435
G01 X3.7117 Y110.9306
G01 X3.6699 Y110.8418
G01 X3.6352 Y110.7448
G01 X3.6102 Y110.6448
G01 X3.5951 Y110.5429
G01 X3.5900 Y110.4400
G01 X3.5951 Y110.3371
G01 X3.6102 Y110.2352
G01 X3.6352 Y110.1352
G01 X3.6699 Y110.0382
G01 X3.7140 Y109.9450
G01 X3.7670 Y109.8567
G01 X3.8283 Y109.7739
G01 X3.8975 Y109.6975
G01 X3.9739 Y109.6283
G01 X4.0567 Y109.5670
G01 X4.1365 Y109.5188
G01 X4.1494 Y109.5117
G01 X4.2382 Y109.4699
G01 X4.3352 Y109.4352
G01 X4.4352 Y109.4102
G01 X4.5371 Y109.3951
G01 X4.6400 Y109.3900
G01 X4.7429 Y109.3951
G01 X4.8448 Y109.4102
G01 X4.9353 Y109.4326
G01 X4.9495 Y109.4367
G01 X5.0418 Y109.4699
G01 X5.1350 Y109.5140
G01 X5.2233 Y109.5670
G01 X5.2984 Y109.6223
G01 X5.3099 Y109.6315
G01 X5.3825 Y109.6975
G01 X5.4452 Y109.7665
G01 X5.4547 Y109.7777
G01 X5.5074 Y109.8486
G01 X5.5157 Y109.8608
G01 X5.5637 Y109.9407
G01 X5.5704 Y109.9538
G01 X5.5868 Y109.9884
G00 Z2.0000
G00 X5.4900 Y111.9300
G01 F60.00
G01 Z-0.1000
G01 F120.00
G01 X5.5047 Y111.9305
G01 X5.5242 Y111.9329
G01 X5.5433 Y111.9372
G01 X5.5620 Y111.9434
G01 X5.5799 Y111.9514
G01 X5.5970 Y111.9610
G01 X5.6130 Y111.9723
G01 X5.6279 Y111.9852
G01 X5.6414 Y111.9994
G01 X5.6506 Y112.0109
G01 X5.6615 Y112.0272
G01 X5.6708 Y112.0445
G01 X5.6783 Y112.0626
G01 X5.6840 Y112.0814
G01 X5.6871 Y112.0958
G01 X5.6895 Y112.1153
G01 X5.6900 Y112.1300
G01 X5.6899 Y113.8349
G01 X5.6885 Y113.8545
G01 X5.6851 Y113.8738
G01 X5.6814 Y113.8881
G01 X5.6748 Y113.9065
G01 X5.6664 Y113.9243
G01 X5.6590 Y113.9370
G01 X5.6506 Y113.9491
G01 X5.6382 Y113.9643
G01 X5.6243 Y113.9782
G01 X5.6091 Y113.9906
G01 X5.5928 Y114.0015
G01 X5.5799 Y114.0086
G01 X5.5710 Y114.0128
G01 X5.5527 Y114.0199
G01 X5.5338 Y114.0251
G01 X5.5145 Y114.0285
G01 X5.4998 Y114.0298
G01 X5.4900 Y114.0300
G01 X3.7851 Y114.0299
G01 X3.7655 Y114.0285
G01 X3.7462 Y114.0251
G01 X3.7273 Y114.0199
G01 X3.7135 Y114.0148
G01 X3.6957 Y114.0064
G01 X3.6830 Y113.9990
G01 X3.6670 Y113.9877
G01 X3.6557 Y113.9782
G01 X3.6418 Y113.9643
G01 X3.6294 Y113.9491
G01 X3.6185 Y113.9328
G01 X3.6136 Y113.9243
G01 X3.6072 Y113.9110
G01 X3.6034 Y113.9020
G01 X3.5986 Y113.8881
G01 X3.5938 Y113.8690
G01 X3.5910 Y113.8496
G01 X3.5900 Y113.8300
G01 X3.5901 Y112.1251
G01 X3.5910 Y112.1104
G01 X3.5938 Y112.0910
G01 X3.5986 Y112.0719
G01 X3.6034 Y112.0580
G01 X3.6092 Y112.0445
G01 X3.6185 Y112.0272
G01 X3.6294 Y112.0109
G01 X3.6418 Y111.9957
G01 X3.6486 Y111.9886
G01 X3.6594 Y111.9786
G01 X3.6748 Y111.9665
G01 X3.6914 Y111.9560
G01 X3.7090 Y111.9472
G01 X3.7273 Y111.9401
G01 X3.7462 Y111.9349
G01 X3.7655 Y111.9315
G01 X3.7851 Y111.9301
G01 X5.4900 Y111.9300
G00 Z2.0000
G00 X4.2909 Y119.4285
G01 F60.00
G01 Z-0.1000
G01 F120.00
G01 X4.1036 Y119.3203
G01 X3.9319 Y119.1886
G01 X3.7789 Y119.0356
G01 X3.6472 Y118.8639
G01 X3.5390 Y118.6766
G01 X3.4562 Y118.4767
G01 X3.4002 Y118.2677
G01 X3.3720 Y118.0532
G01 X3.3720 Y117.8368
G01 X3.4002 Y117.6223
G01 X3.4562 Y117.4133
G01 X3.5390 Y117.2134
G01 X3.6472 Y117.0261
G01 X3.7789 Y116.8544
G01 X3.9319 Y116.7014
G01 X4.1036 Y116.5697
G01 X4.2909 Y116.4615
G01 X4.4908 Y116.3787
G01 X4.6998 Y116.3227
G01 X4.9143 Y116.2945
G01 X5.1307 Y116.2945
G01 X5.3452 Y116.3227
G01 X5.5542 Y116.3787
G01 X5.7541 Y116.4615
G01 X5.9414 Y116.5697
G01 X6.1131 Y116.7014
G01 X6.2661 Y116.8544
G01 X6.3978 Y117.0261
G01 X6.5060 Y117.2134
G01 X6.5888 Y117.4133
G01 X6.6448 Y117.6223
G01 X6.6730 Y117.8368
G01 X6.6730 Y118.0532
G01 X6.6448 Y118.2677
G01 X6.5888 Y118.4767
G01 X6.5060 Y118.6766
G01 X6.3978 Y118.8639
G01 X6.2661 Y119.0356
G01 X6.1131 Y119.1886
G01 X5.9414 Y119.3203
G01 X5.9246 Y119.3300
G01 X5.7541 Y119.4285
G01 X5.5542 Y119.5113
G01 X5.3452 Y119.5673
G01 X5.1307 Y119.5955
G01 X4.9143 Y119.5955
G01 X4.6998 Y119.5673
G01 X4.4908 Y119.5113
G01 X4.2909 Y119.4285
G00 Z2.0000
G00 X6.6730 Y123.0532
G01 F60.00
G01 Z-0.1000
G01 F120.00
G01 X6.6448 Y123.2677
G01 X6.5888 Y123.4767
G01 X6.5060 Y123.6766
G01 X6.3978 Y123.8639
G01 X6.2661 Y124.0356
G01 X6.1131 Y124.1886
G01 X5.9414 Y124.3203
G01 X5.7541 Y124.4285
G01 X5.5542 Y124.5113
G01 X5.3452 Y124.5673
G01 X5.1307 Y124.5955
G01 X4.9143 Y124.5955
G01 X4.6998 Y124.5673
G01 X4.4908 Y124.5113
G01 X4.2909 Y124.4285
G01 X4.1036 Y124.3203
G01 X3.9319 Y124.1886
G01 X3.7789 Y124.0356
G01 X3.6472 Y123.8639
G01 X3.5390 Y123.6766
G01 X3.4562 Y123.4767
G01 X3.4002 Y123.2677
G01 X3.3720 Y123.0532
G01 X3.3720 Y122.8368
G01 X3.4002 Y122.6223
G01 X3.4562 Y122.4133
G01 X3.5390 Y122.2134
G01 X3.6472 Y122.0261
G01 X3.7789 Y121.8544
G01 X3.9319 Y121.7014
G01 X4.1036 Y121.5697
G01 X4.2909 Y121.4615
G01 X4.4908 Y121.3787
G01 X4.6998 Y121.3227
G01 X4.9143 Y121.2945
G01 X5.1307 Y121.2945
G01 X5.3452 Y121.3227
G01 X5.5542 Y121.3787
G01 X5.7541 Y121.4615
G01 X5.9414 Y121.5697
G01 X6.1131 Y121.7014
G01 X6.2661 Y121.8544
G01 X6.3978 Y122.0261
G01 X6.5060 Y122.2134
G01 X6.5888 Y122.4133
G01 X6.6450 Y122.6238
G01 X6.6730 Y122.8368
G01 X6.6730 Y123.0532
G00 Z2.0000
G00 X5.0900 Y126.9524
G01 F60.00
G01 Z-0.1000
G01 F120.00
G01 X5.0900 Y126.8410
G01 X5.2172 Y126.9003
G01 X5.3820 Y127.0157
G01 X5.5243 Y127.1580
G01 X5.6397 Y127.3228
G01 X5.6990 Y127.4500
G01 X5.5876 Y127.4500
G01 X5.5704 Y127.4138
G01 X5.5637 Y127.4007
G01 X5.5183 Y127.3249
G01 X5.5103 Y127.3126
G01 X5.4517 Y127.2339
G01 X5.3825 Y127.1575
G01 X5.3061 Y127.0883
G01 X5.2274 Y127.0297
G01 X5.2151 Y127.0217
G01 X5.1393 Y126.9763
G01 X5.1262 Y126.9696
G01 X5.0900 Y126.9524
G00 Z2.0000
G00 X3.6090 Y127.3899
G01 F60.00
G01 Z-0.1000
G01 F120.00
G01 X3.6403 Y127.3228
G01 X3.7557 Y127.1580
G01 X3.8980 Y127.0157
G01 X4.0628 Y126.9003
G01 X4.1900 Y126.8410
G01 X4.1900 Y126.9524
G01 X4.1538 Y126.9696
G01 X4.1407 Y126.9763
G01 X4.0649 Y127.0217
G01 X4.0526 Y127.0297
G01 X3.9739 Y127.0883
G01 X3.9011 Y127.1541
G01 X3.8908 Y127.1646
G01 X3.8348 Y127.2265
G01 X3.8223 Y127.2416
G01 X3.7670 Y127.3167
G01 X3.7228 Y127.3899
G01 X3.6090 Y127.3899
G00 Z2.0000
G00 X5.5658 Y130.9353
G01 F60.00
G01 Z-0.1000
G01 F120.00
G01 X5.5130 Y131.0233
G01 X5.4517 Y131.1061
G01 X5.3825 Y131.1825
G01 X5.3061 Y131.2517
G01 X5.2233 Y131.3130
G01 X5.1350 Y131.3660
G01 X5.0418 Y131.4101
G01 X4.9448 Y131.4448
G01 X4.8448 Y131.4698
G01 X4.7429 Y131.4849
G01 X4.6400 Y131.4900
G01 X4.5371 Y131.4849
G01 X4.4352 Y131.4698
G01 X4.3352 Y131.4448
G01 X4.2382 Y131.4101
G01 X4.1450 Y131.3660
G01 X4.0567 Y131.3130
G01 X3.9739 Y131.2517
G01 X3.8975 Y131.1825
G01 X3.8283 Y131.1061
G01 X3.7670 Y131.0233
G01 X3.7140 Y130.9350
G01 X3.6699 Y130.8418
G01 X3.6352 Y130.7448
G01 X3.6102 Y130.6448
G01 X3.5951 Y130.5429
G01 X3.5900 Y130.4400
G01 X3.5951 Y130.3371
G01 X3.6102 Y130.2352
G01 X3.6352 Y130.1352
G01 X3.6699 Y130.0382
G01 X3.7140 Y129.9450
G01 X3.7670 Y129.8567
G01 X3.8223 Y129.7816
G01 X3.8348 Y129.7665
G01 X3.8975 Y129.6975
G01 X3.9739 Y129.6283
G01 X4.0486 Y129.5726
G01 X4.0649 Y129.5617
G01 X4.1450 Y129.5140
G01 X4.2382 Y129.4699
G01 X4.3259 Y129.4383
G01 X4.3447 Y129.4326
G01 X4.4352 Y129.4102
G01 X4.5273 Y129.3963
G01 X4.5469 Y129.3943
G01 X4.6400 Y129.3900
G01 X4.7380 Y129.3946
G01 X4.7527 Y129.3963
G01 X4.8352 Y129.4085
G01 X4.8544 Y129.4123
G01 X4.9448 Y129.4352
G01 X5.0327 Y129.4664
G01 X5.0508 Y129.4739
G01 X5.1350 Y129.5140
G01 X5.2151 Y129.5617
G01 X5.2314 Y129.5726
G01 X5.3061 Y129.6283
G01 X5.3754 Y129.6908
G01 X5.3892 Y129.7046
G01 X5.4517 Y129.7739
G01 X5.5074 Y129.8486
G01 X5.5183 Y129.8649
G01 X5.5660 Y129.9450
G01 X5.6086 Y130.0348
G01 X7.4408 Y130.0258
G01 X7.4687 Y130.0129
G01 X7.5102 Y129.9979
G01 X7.5196 Y129.9950
G01 X7.5529 Y129.9866
G01 X7.5673 Y129.9836
G01 X7.6110 Y129.9772
G01 X7.6502 Y129.9751
G01 X7.6649 Y129.9749
G01 X7.7041 Y129.9768
G01 X7.7188 Y129.9785
G01 X7.7575 Y129.9844
G01 X7.7957 Y129.9938
G01 X7.8145 Y129.9995
G01 X7.8513 Y130.0129
G01 X7.8869 Y130.0295
G01 X7.9042 Y130.0387
G01 X7.9378 Y130.0591
G01 X7.9695 Y130.0823
G01 X7.9846 Y130.0947
G01 X8.0136 Y130.1213
G01 X8.0401 Y130.1502
G01 X8.0525 Y130.1654
G01 X8.0757 Y130.1971
G01 X8.0961 Y130.2306
G01 X8.1032 Y130.2435
G01 X8.1200 Y130.2790
G01 X8.1255 Y130.2927
G01 X8.1385 Y130.3297
G01 X8.1482 Y130.3677
G01 X8.1521 Y130.3870
G01 X8.1576 Y130.4258
G01 X8.1600 Y130.4748
G01 X8.1576 Y130.5239
G01 X8.1521 Y130.5627
G01 X8.1494 Y130.5772
G01 X8.1411 Y130.6105
G01 X8.1370 Y130.6247
G01 X8.1219 Y130.6662
G01 X8.1101 Y130.6917
G01 X8.1101 Y141.9636
G01 X15.6267 Y149.4801
G01 X15.6412 Y149.4863
G01 X15.6722 Y149.5012
G01 X15.7060 Y149.5212
G01 X15.7181 Y149.5296
G01 X15.7456 Y149.5502
G01 X15.7748 Y149.5765
G01 X15.7851 Y149.5870
G01 X15.8048 Y149.6089
G01 X15.8110 Y149.6164
G01 X15.8315 Y149.6440
G01 X15.8395 Y149.6564
G01 X15.8570 Y149.6860
G01 X15.8719 Y149.7169
G01 X15.8777 Y149.7305
G01 X15.8907 Y149.7675
G01 X15.8993 Y149.8008
G01 X15.9024 Y149.8152
G01 X15.9080 Y149.8541
G01 X15.9101 Y149.8933
G01 X15.9101 Y150.1668
G01 X15.9851 Y150.2117
G01 X16.0014 Y150.2226
G01 X16.0761 Y150.2783
G01 X16.1454 Y150.3408
G01 X16.1592 Y150.3546
G01 X16.2217 Y150.4239
G01 X16.2774 Y150.4986
G01 X16.2883 Y150.5149
G01 X16.3360 Y150.5950
G01 X16.3761 Y150.6792
G01 X16.3836 Y150.6973
G01 X16.4148 Y150.7852
G01 X16.4377 Y150.8756
G01 X16.4415 Y150.8948
G01 X16.4549 Y150.9871
G01 X16.4598 Y151.0802
G01 X16.4598 Y151.0998
G01 X16.4557 Y151.1831
G01 X16.4537 Y151.2027
G01 X16.4398 Y151.2948
G01 X16.4174 Y151.3853
G01 X16.4117 Y151.4041
G01 X16.3801 Y151.4918
G01 X16.3404 Y151.5762
G01 X16.3312 Y151.5935
G01 X16.2830 Y151.6733
G01 X16.2277 Y151.7484
G01 X16.2152 Y151.7635
G01 X16.1525 Y151.8325
G01 X16.0761 Y151.9017
G01 X16.0014 Y151.9574
G01 X15.9851 Y151.9683
G01 X15.9135 Y152.0112
G01 X15.9006 Y152.0183
G01 X15.8118 Y152.0601
G01 X15.7148 Y152.0948
G01 X15.6148 Y152.1198
G01 X15.5227 Y152.1337
G01 X15.5031 Y152.1357
G01 X15.4198 Y152.1398
G01 X15.4002 Y152.1398
G01 X15.3071 Y152.1349
G01 X15.2052 Y152.1198
G01 X15.1052 Y152.0948
G01 X15.0173 Y152.0636
G01 X14.9992 Y152.0561
G01 X14.9238 Y152.0204
G01 X14.9065 Y152.0112
G01 X14.8267 Y151.9630
G01 X14.7439 Y151.9017
G01 X14.6675 Y151.8325
G01 X14.6048 Y151.7635
G01 X14.5923 Y151.7484
G01 X14.5370 Y151.6733
G01 X14.4840 Y151.5850
G01 X14.4399 Y151.4918
G01 X14.4083 Y151.4041
G01 X14.4026 Y151.3853
G01 X14.3802 Y151.2948
G01 X14.3663 Y151.2027
G01 X14.3643 Y151.1831
G01 X14.3602 Y151.0998
G01 X14.3602 Y151.0802
G01 X14.3651 Y150.9871
G01 X14.3785 Y150.8948
G01 X14.3823 Y150.8756
G01 X14.4026 Y150.7947
G01 X14.4083 Y150.7759
G01 X14.4399 Y150.6882
G01 X14.4796 Y150.6038
G01 X14.4888 Y150.5865
G01 X14.5370 Y150.5067
G01 X14.5983 Y150.4239
G01 X14.6675 Y150.3475
G01 X14.7365 Y150.2848
G01 X14.7516 Y150.2723
G01 X14.8186 Y150.2226
G01 X14.8349 Y150.2117
G01 X14.9150 Y150.1640
G01 X14.9979 Y150.1245
G01 X7.4938 Y142.6204
G01 X7.4788 Y142.6140
G01 X7.4478 Y142.5991
G01 X7.4099 Y142.5764
G01 X7.3744 Y142.5501
G01 X7.3417 Y142.5204
G01 X7.3120 Y142.4877
G01 X7.2914 Y142.4602
G01 X7.2805 Y142.4439
G01 X7.2654 Y142.4186
G01 X7.2608 Y142.4100
G01 X7.2461 Y142.3789
G01 X7.2406 Y142.3652
G01 X7.2293 Y142.3328
G01 X7.2207 Y142.2995
G01 X7.2176 Y142.2851
G01 X7.2120 Y142.2463
G01 X7.2099 Y142.2021
G01 X7.2099 Y130.9272
G01 X5.5658 Y130.9353
G00 Z2.0000
G00 X5.4900 Y131.9300
G01 F60.00
G01 Z-0.1000
G01 F120.00
G01 X5.5096 Y131.9310
G01 X5.5290 Y131.9338
G01 X5.5481 Y131.9386
G01 X5.5620 Y131.9434
G01 X5.5799 Y131.9514
G01 X5.5970 Y131.9610
G01 X5.6130 Y131.9723
G01 X5.6279 Y131.9852
G01 X5.6382 Y131.9957
G01 X5.6506 Y132.0109
G01 X5.6615 Y132.0272
G01 X5.6708 Y132.0445
G01 X5.6783 Y132.0626
G01 X5.6840 Y132.0814
G01 X5.6878 Y132.1007
G01 X5.6895 Y132.1153
G01 X5.6900 Y132.1300
G01 X5.6899 Y133.8349
G01 X5.6885 Y133.8545
G01 X5.6862 Y133.8690
G01 X5.6814 Y133.8881
G01 X5.6766 Y133.9020
G01 X5.6686 Y133.9199
G01 X5.6615 Y133.9328
G01 X5.6506 Y133.9491
G01 X5.6382 Y133.9643
G01 X5.6279 Y133.9748
G01 X5.6206 Y133.9814
G01 X5.6052 Y133.9935
G01 X5.5886 Y134.0040
G01 X5.5710 Y134.0128
G01 X5.5620 Y134.0166
G01 X5.5481 Y134.0214
G01 X5.5290 Y134.0262
G01 X5.5096 Y134.0290
G01 X5.4900 Y134.0300
G01 X3.7851 Y134.0299
G01 X3.7704 Y134.0290
G01 X3.7510 Y134.0262
G01 X3.7319 Y134.0214
G01 X3.7135 Y134.0148
G01 X3.7001 Y134.0086
G01 X3.6830 Y133.9990
G01 X3.6709 Y133.9906
G01 X3.6557 Y133.9782
G01 X3.6418 Y133.9643
G01 X3.6294 Y133.9491
G01 X3.6237 Y133.9411
G01 X3.6160 Y133.9286
G01 X3.6072 Y133.9110
G01 X3.6001 Y133.8927
G01 X3.5949 Y133.8738
G01 X3.5915 Y133.8545
G01 X3.5902 Y133.8398
G01 X3.5900 Y133.8300
G01 X3.5901 Y132.1251
G01 X3.5910 Y132.1104
G01 X3.5938 Y132.0910
G01 X3.5986 Y132.0719
G01 X3.6034 Y132.0580
G01 X3.6092 Y132.0445
G01 X3.6185 Y132.0272
G01 X3.6294 Y132.0109
G01 X3.6418 Y131.9957
G01 X3.6486 Y131.9886
G01 X3.6594 Y131.9786
G01 X3.6748 Y131.9665
G01 X3.6914 Y131.9560
G01 X3.7090 Y131.9472
G01 X3.7273 Y131.9401
G01 X3.7462 Y131.9349
G01 X3.7655 Y131.9315
G01 X3.7851 Y131.9301
G01 X5.4900 Y131.9300
G00 Z2.0000
G00 X14.0399 Y135.8240
G01 F60.00
G01 Z-0.1000
G01 F120.00
G01 X14.0399 Y128.9951
G01 X14.0293 Y128.9763
G01 X14.0145 Y128.9453
G01 X14.0087 Y128.9318
G01 X13.9940 Y128.8901
G01 X13.9831 Y128.8473
G01 X13.9812 Y128.8377
G01 X13.9761 Y128.8038
G01 X13.9742 Y128.7842
G01 X13.9725 Y128.7450
G01 X13.9745 Y128.7009
G01 X13.9761 Y128.6862
G01 X13.9821 Y128.6475
G01 X13.9940 Y128.5999
G01 X14.0106 Y128.5537
G01 X14.0315 Y128.5093
G01 X14.0568 Y128.4672
G01 X14.0860 Y128.4278
G01 X14.1189 Y128.3914
G01 X14.1553 Y128.3585
G01 X14.1947 Y128.3293
G01 X14.2368 Y128.3040
G01 X14.2812 Y128.2831
G01 X14.3274 Y128.2665
G01 X14.3750 Y128.2546
G01 X14.4235 Y128.2474
G01 X14.4725 Y128.2450
G01 X14.5166 Y128.2470
G01 X14.5313 Y128.2486
G01 X14.5652 Y128.2537
G01 X14.5748 Y128.2556
G01 X14.6082 Y128.2639
G01 X14.6223 Y128.2680
G01 X14.6547 Y128.2795
G01 X14.6728 Y128.2870
G01 X14.7082 Y128.3040
G01 X14.7503 Y128.3293
G01 X14.7897 Y128.3585
G01 X14.8261 Y128.3914
G01 X14.8590 Y128.4278
G01 X14.8882 Y128.4672
G01 X14.9135 Y128.5093
G01 X14.9305 Y128.5447
G01 X14.9363 Y128.5582
G01 X14.9495 Y128.5952
G01 X14.9523 Y128.6046
G01 X14.9607 Y128.6379
G01 X14.9646 Y128.6571
G01 X14.9696 Y128.6911
G01 X14.9708 Y128.7058
G01 X14.9724 Y128.7401
G01 X14.9724 Y128.7499
G01 X14.9705 Y128.7891
G01 X14.9689 Y128.8038
G01 X14.9638 Y128.8377
G01 X14.9607 Y128.8521
G01 X14.9510 Y128.8901
G01 X14.9401 Y128.9212
G01 X14.9401 Y135.7925
G01 X14.9575 Y135.8291
G01 X14.9630 Y135.8428
G01 X14.9760 Y135.8799
G01 X14.9857 Y135.9179
G01 X14.9896 Y135.9371
G01 X14.9951 Y135.9760
G01 X14.9975 Y136.0250
G01 X14.9951 Y136.0740
G01 X14.9879 Y136.1225
G01 X14.9760 Y136.1701
G01 X14.9630 Y136.2072
G01 X14.9575 Y136.2209
G01 X14.9385 Y136.2607
G01 X14.9132 Y136.3028
G01 X14.8840 Y136.3422
G01 X14.8511 Y136.3786
G01 X14.8147 Y136.4115
G01 X14.7753 Y136.4407
G01 X14.7332 Y136.4660
G01 X14.6888 Y136.4869
G01 X14.6426 Y136.5035
G01 X14.5950 Y136.5154
G01 X14.5465 Y136.5226
G01 X14.4975 Y136.5250
G01 X14.4485 Y136.5226
G01 X14.4000 Y136.5154
G01 X14.3524 Y136.5035
G01 X14.3153 Y136.4905
G01 X14.3016 Y136.4850
G01 X14.2618 Y136.4660
G01 X14.2197 Y136.4407
G01 X14.1803 Y136.4115
G01 X14.1439 Y136.3786
G01 X14.1110 Y136.3422
G01 X14.0818 Y136.3028
G01 X14.0565 Y136.2607
G01 X14.0395 Y136.2253
G01 X14.0337 Y136.2118
G01 X14.0190 Y136.1701
G01 X14.0071 Y136.1225
G01 X13.9999 Y136.0740
G01 X13.9977 Y136.0348
G01 X13.9976 Y136.0201
G01 X13.9999 Y135.9760
G01 X14.0054 Y135.9371
G01 X14.0081 Y135.9227
G01 X14.0164 Y135.8893
G01 X14.0205 Y135.8752
G01 X14.0337 Y135.8382
G01 X14.0399 Y135.8240
G00 Z2.0000
G00 X14.3687 Y136.9455
G01 F60.00
G01 Z-0.1000
G01 F120.00
G01 X25.0899 Y126.2243
G01 X25.0899 Y123.4900
G01 X25.0756 Y123.4899
G01 X25.0373 Y123.4881
G01 X25.0178 Y123.4862
G01 X24.9751 Y123.4796
G01 X24.9236 Y123.4667
G01 X24.8737 Y123.4489
G01 X24.8345 Y123.4306
G01 X24.8214 Y123.4238
G01 X24.7885 Y123.4042
G01 X24.7722 Y123.3933
G01 X24.7376 Y123.3673
G01 X24.6983 Y123.3317
G01 X24.6627 Y123.2924
G01 X24.6339 Y123.2538
G01 X24.6258 Y123.2415
G01 X24.6087 Y123.2128
G01 X24.5994 Y123.1955
G01 X24.5851 Y123.1653
G01 X24.5793 Y123.1518
G01 X24.5664 Y123.1157
G01 X24.5619 Y123.1017
G01 X24.5504 Y123.0549
G01 X24.5438 Y123.0122
G01 X24.5419 Y122.9927
G01 X24.5400 Y122.9495
G01 X24.5400 Y121.6305
G01 X24.5426 Y121.5775
G01 X24.5487 Y121.5347
G01 X24.5514 Y121.5203
G01 X24.5633 Y121.4736
G01 X24.5776 Y121.4328
G01 X24.5851 Y121.4147
G01 X24.6038 Y121.3757
G01 X24.6258 Y121.3385
G01 X24.6367 Y121.3222
G01 X24.6627 Y121.2876
G01 X24.6983 Y121.2483
G01 X24.7376 Y121.2127
G01 X24.7722 Y121.1867
G01 X24.7885 Y121.1758
G01 X24.8257 Y121.1538
G01 X24.8737 Y121.1311
G01 X24.9143 Y121.1164
G01 X24.9331 Y121.1107
G01 X24.9751 Y121.1004
G01 X25.0275 Y121.0926
G01 X25.0805 Y121.0900
G01 X25.8995 Y121.0900
G01 X25.9476 Y121.0922
G01 X25.9622 Y121.0938
G01 X25.9953 Y121.0987
G01 X26.0145 Y121.1025
G01 X26.0564 Y121.1133
G01 X26.1018 Y121.1293
G01 X26.1153 Y121.1351
G01 X26.1455 Y121.1494
G01 X26.1586 Y121.1562
G01 X26.1998 Y121.1811
G01 X26.2347 Y121.2066
G01 X26.2461 Y121.2158
G01 X26.2782 Y121.2449
G01 X26.2885 Y121.2554
G01 X26.3142 Y121.2839
G01 X26.3234 Y121.2953
G01 X26.3489 Y121.3302
G01 X26.3738 Y121.3714
G01 X26.3806 Y121.3845
G01 X26.3989 Y121.4237
G01 X26.4167 Y121.4736
G01 X26.4296 Y121.5251
G01 X26.4369 Y121.5726
G01 X26.4381 Y121.5873
G01 X26.4400 Y121.6305
G01 X26.4400 Y122.9495
G01 X26.4378 Y122.9976
G01 X26.4362 Y123.0122
G01 X26.4305 Y123.0501
G01 X26.4275 Y123.0645
G01 X26.4193 Y123.0969
G01 X26.4136 Y123.1157
G01 X26.4024 Y123.1472
G01 X26.3969 Y123.1609
G01 X26.3762 Y123.2043
G01 X26.3489 Y123.2498
G01 X26.3173 Y123.2924
G01 X26.2885 Y123.3246
G01 X26.2746 Y123.3385
G01 X26.2461 Y123.3642
G01 X26.2347 Y123.3734
G01 X26.1998 Y123.3989
G01 X26.1543 Y123.4262
G01 X26.1063 Y123.4489
G01 X26.0611 Y123.4652
G01 X26.0469 Y123.4693
G01 X26.0097 Y123.4786
G01 X25.9901 Y123.4821
G01 X25.9901 Y126.3449
G01 X25.9880 Y126.3841
G01 X25.9824 Y126.4230
G01 X25.9805 Y126.4326
G01 X25.9734 Y126.4612
G01 X25.9677 Y126.4800
G01 X25.9559 Y126.5123
G01 X25.9370 Y126.5522
G01 X25.9143 Y126.5901
G01 X25.8940 Y126.6178
G01 X25.8815 Y126.6330
G01 X25.8617 Y126.6548
G01 X25.8548 Y126.6617
G01 X25.8256 Y126.6880
G01 X25.7941 Y126.7115
G01 X25.7860 Y126.7169
G01 X25.7607 Y126.7321
G01 X25.7478 Y126.7392
G01 X25.7123 Y126.7559
G01 X25.6772 Y126.7686
G01 X14.9345 Y137.5113
G01 X14.9313 Y137.5327
G01 X14.9294 Y137.5423
G01 X14.9211 Y137.5757
G01 X14.9170 Y137.5898
G01 X14.9019 Y137.6313
G01 X14.8832 Y137.6713
G01 X14.8786 Y137.6800
G01 X14.8610 Y137.7095
G01 X14.8501 Y137.7258
G01 X14.8265 Y137.7572
G01 X14.7936 Y137.7936
G01 X14.7572 Y137.8265
G01 X14.7258 Y137.8501
G01 X14.7137 Y137.8584
G01 X14.6842 Y137.8761
G01 X14.6669 Y137.8854
G01 X14.6313 Y137.9019
G01 X14.5851 Y137.9185
G01 X14.5375 Y137.9304
G01 X14.4939 Y137.9371
G01 X14.4792 Y137.9383
G01 X14.4400 Y137.9400
G01 X14.3910 Y137.9376
G01 X14.3425 Y137.9304
G01 X14.2949 Y137.9185
G01 X14.2487 Y137.9019
G01 X14.2043 Y137.8810
G01 X14.1622 Y137.8557
G01 X14.1228 Y137.8265
G01 X14.0864 Y137.7936
G01 X14.0535 Y137.7572
G01 X14.0243 Y137.7178
G01 X13.9990 Y137.6757
G01 X13.9781 Y137.6313
G01 X13.9615 Y137.5851
G01 X13.9496 Y137.5375
G01 X13.9429 Y137.4939
G01 X13.9417 Y137.4792
G01 X13.9400 Y137.4400
G01 X13.9424 Y137.3910
G01 X13.9496 Y137.3425
G01 X13.9615 Y137.2949
G01 X13.9781 Y137.2487
G01 X13.9990 Y137.2043
G01 X14.0243 Y137.1622
G01 X14.0504 Y137.1266
G01 X14.0599 Y137.1154
G01 X14.0864 Y137.0864
G01 X14.1228 Y137.0535
G01 X14.1622 Y137.0243
G01 X14.2000 Y137.0014
G01 X14.2131 Y136.9946
G01 X14.2487 Y136.9781
G01 X14.2902 Y136.9630
G01 X14.3043 Y136.9589
G01 X14.3377 Y136.9506
G01 X14.3473 Y136.9487
G01 X14.3687 Y136.9455
G00 Z2.0000
G00 X21.9765 Y138.9433
G01 F60.00
G01 Z-0.1000
G01 F120.00
G01 X21.9254 Y138.7860
G01 X21.8995 Y138.6227
G01 X21.8995 Y137.9573
G01 X21.9254 Y137.7940
G01 X21.9765 Y137.6367
G01 X22.0515 Y137.4894
G01 X22.1487 Y137.3556
G01 X22.2656 Y137.2387
G01 X22.3994 Y137.1415
G01 X22.5467 Y137.0665
G01 X22.7040 Y137.0154
G01 X22.8673 Y136.9895
G01 X23.0327 Y136.9895
G01 X23.1960 Y137.0154
G01 X23.3533 Y137.0665
G01 X23.5006 Y137.1415
G01 X23.6344 Y137.2387
G01 X23.7513 Y137.3556
G01 X23.8485 Y137.4894
G01 X23.9316 Y137.6525
G01 X23.9387 Y137.6653
G01 X23.9439 Y137.6735
G01 X23.9555 Y137.6890
G01 X23.9977 Y137.7378
G01 X24.0075 Y137.7483
G01 X24.0181 Y137.7581
G01 X24.0332 Y137.7700
G01 X24.0452 Y137.7779
G01 X24.0621 Y137.7870
G01 X24.0798 Y137.7945
G01 X24.1505 Y137.8187
G01 X24.1647 Y137.8229
G01 X24.1793 Y137.8261
G01 X24.1940 Y137.8283
G01 X24.2039 Y137.8291
G01 X24.2188 Y137.8293
G01 X24.2386 Y137.8280
G01 X24.2582 Y137.8246
G01 X24.3309 Y137.8067
G01 X24.3499 Y137.8010
G01 X24.3682 Y137.7934
G01 X24.3858 Y137.7840
G01 X24.4023 Y137.7730
G01 X24.4176 Y137.7603
G01 X24.4282 Y137.7499
G01 X24.4794 Y137.6956
G01 X24.4886 Y137.6846
G01 X24.4969 Y137.6731
G01 X24.5044 Y137.6609
G01 X24.5090 Y137.6526
G01 X24.5920 Y137.4897
G01 X24.6891 Y137.3560
G01 X24.8060 Y137.2391
G01 X24.9397 Y137.1420
G01 X25.0400 Y137.0908
G01 X25.0400 Y137.2034
G01 X24.9622 Y137.2501
G01 X24.8951 Y137.2996
G01 X24.8799 Y137.3121
G01 X24.8182 Y137.3682
G01 X24.7621 Y137.4299
G01 X24.7496 Y137.4451
G01 X24.7001 Y137.5122
G01 X24.6522 Y137.5922
G01 X24.6163 Y137.6675
G01 X24.6088 Y137.6856
G01 X24.5809 Y137.7642
G01 X24.5604 Y137.8451
G01 X24.5566 Y137.8643
G01 X24.5446 Y137.9469
G01 X24.5400 Y138.0400
G01 X24.5400 Y138.5400
G01 X24.5439 Y138.6233
G01 X24.5458 Y138.6429
G01 X24.5583 Y138.7253
G01 X24.5783 Y138.8063
G01 X24.5840 Y138.8251
G01 X24.6123 Y138.9035
G01 X24.6522 Y138.9878
G01 X24.7001 Y139.0678
G01 X24.7556 Y139.1427
G01 X24.8182 Y139.2118
G01 X24.8873 Y139.2744
G01 X24.9622 Y139.3299
G01 X25.0400 Y139.3766
G01 X25.0400 Y139.4892
G01 X24.9397 Y139.4380
G01 X24.8060 Y139.3409
G01 X24.6891 Y139.2240
G01 X24.5920 Y139.0903
G01 X24.5090 Y138.9274
G01 X24.4993 Y138.9106
G01 X24.4910 Y138.8986
G01 X24.4819 Y138.8873
G01 X24.4429 Y138.8422
G01 X24.4296 Y138.8283
G01 X24.4188 Y138.8188
G01 X24.4034 Y138.8073
G01 X24.3870 Y138.7973
G01 X24.3741 Y138.7909
G01 X24.3562 Y138.7839
G01 X24.2901 Y138.7613
G01 X24.2758 Y138.7571
G01 X24.2613 Y138.7539
G01 X24.2416 Y138.7513
G01 X24.2267 Y138.7506
G01 X24.2118 Y138.7511
G01 X24.1970 Y138.7527
G01 X24.1775 Y138.7565
G01 X24.1049 Y138.7746
G01 X24.0954 Y138.7774
G01 X24.0814 Y138.7826
G01 X24.0679 Y138.7888
G01 X24.0591 Y138.7935
G01 X24.0423 Y138.8041
G01 X24.0344 Y138.8100
G01 X24.0230 Y138.8197
G01 X24.0124 Y138.8301
G01 X23.9612 Y138.8844
G01 X23.9520 Y138.8954
G01 X23.9436 Y138.9069
G01 X23.9385 Y138.9150
G01 X23.9316 Y138.9274
G01 X23.8485 Y139.0906
G01 X23.7513 Y139.2244
G01 X23.6344 Y139.3413
G01 X23.5006 Y139.4385
G01 X23.3533 Y139.5135
G01 X23.1960 Y139.5646
G01 X23.0327 Y139.5905
G01 X22.8673 Y139.5905
G01 X22.7040 Y139.5646
G01 X22.5467 Y139.5135
G01 X22.3994 Y139.4385
G01 X22.2656 Y139.3413
G01 X22.1487 Y139.2244
G01 X22.0515 Y139.0906
G01 X21.9765 Y138.9433
G00 Z2.0000
G00 X22.9402 Y137.0902
G01 F60.00
G01 Z-0.1000
G01 F120.00
G01 X22.9598 Y137.0902
G01 X23.0431 Y137.0946
G01 X23.1353 Y137.1083
G01 X23.2258 Y137.1309
G01 X23.3135 Y137.1623
G01 X23.3978 Y137.2022
G01 X23.4778 Y137.2501
G01 X23.5527 Y137.3056
G01 X23.6218 Y137.3682
G01 X23.6844 Y137.4373
G01 X23.7399 Y137.5122
G01 X23.7878 Y137.5922
G01 X23.8277 Y137.6765
G01 X23.8591 Y137.7642
G01 X23.8817 Y137.8547
G01 X23.8954 Y137.9469
G01 X23.9000 Y138.0400
G01 X23.8999 Y138.5449
G01 X23.8954 Y138.6331
G01 X23.8834 Y138.7157
G01 X23.8796 Y138.7349
G01 X23.8591 Y138.8158
G01 X23.8277 Y138.9035
G01 X23.7878 Y138.9878
G01 X23.7399 Y139.0678
G01 X23.6904 Y139.1349
G01 X23.6779 Y139.1501
G01 X23.6218 Y139.2118
G01 X23.5601 Y139.2679
G01 X23.5449 Y139.2804
G01 X23.4778 Y139.3299
G01 X23.3978 Y139.3778
G01 X23.3135 Y139.4177
G01 X23.2351 Y139.4460
G01 X23.2163 Y139.4517
G01 X23.1353 Y139.4717
G01 X23.0529 Y139.4842
G01 X23.0333 Y139.4861
G01 X22.9500 Y139.4900
G01 X22.8569 Y139.4854
G01 X22.7647 Y139.4717
G01 X22.6742 Y139.4491
G01 X22.5865 Y139.4177
G01 X22.5022 Y139.3778
G01 X22.4222 Y139.3299
G01 X22.3473 Y139.2744
G01 X22.2782 Y139.2118
G01 X22.2156 Y139.1427
G01 X22.1601 Y139.0678
G01 X22.1122 Y138.9878
G01 X22.0723 Y138.9035
G01 X22.0409 Y138.8158
G01 X22.0183 Y138.7253
G01 X22.0046 Y138.6331
G01 X22.0000 Y138.5400
G01 X22.0001 Y138.0351
G01 X22.0046 Y137.9469
G01 X22.0166 Y137.8643
G01 X22.0204 Y137.8451
G01 X22.0409 Y137.7642
G01 X22.0723 Y137.6765
G01 X22.1122 Y137.5922
G01 X22.1574 Y137.5163
G01 X22.1658 Y137.5042
G01 X22.2156 Y137.4373
G01 X22.2715 Y137.3754
G01 X22.2854 Y137.3615
G01 X22.3473 Y137.3056
G01 X22.4142 Y137.2558
G01 X22.4305 Y137.2449
G01 X22.5022 Y137.2022
G01 X22.5865 Y137.1623
G01 X22.6649 Y137.1340
G01 X22.6837 Y137.1283
G01 X22.7647 Y137.1083
G01 X22.8471 Y137.0958
G01 X22.8667 Y137.0939
G01 X22.9402 Y137.0902
G00 Z2.0000
G00 X25.9400 Y137.2034
G01 F60.00
G01 Z-0.1000
G01 F120.00
G01 X25.9400 Y137.0908
G01 X26.0403 Y137.1420
G01 X26.1740 Y137.2391
G01 X26.2909 Y137.3560
G01 X26.3880 Y137.4897
G01 X26.4631 Y137.6369
G01 X26.5141 Y137.7941
G01 X26.5214 Y137.8400
G01 X26.4183 Y137.8400
G01 X26.3991 Y137.7642
G01 X26.3712 Y137.6856
G01 X26.3637 Y137.6675
G01 X26.3322 Y137.6009
G01 X26.3230 Y137.5836
G01 X26.2799 Y137.5122
G01 X26.2304 Y137.4451
G01 X26.2179 Y137.4299
G01 X26.1618 Y137.3682
G01 X26.0927 Y137.3056
G01 X26.0178 Y137.2501
G01 X25.9400 Y137.2034
G00 Z2.0000
G00 X25.9400 Y139.4892
G01 F60.00
G01 Z-0.1000
G01 F120.00
G01 X25.9400 Y139.3766
G01 X26.0178 Y139.3299
G01 X26.0927 Y139.2744
G01 X26.1618 Y139.2118
G01 X26.2179 Y139.1501
G01 X26.2304 Y139.1349
G01 X26.2799 Y139.0678
G01 X26.3230 Y138.9964
G01 X26.3322 Y138.9791
G01 X26.3637 Y138.9125
G01 X26.3712 Y138.8944
G01 X26.3991 Y138.8158
G01 X26.4183 Y138.7400
G01 X26.5214 Y138.7400
G01 X26.5141 Y138.7859
G01 X26.4631 Y138.9431
G01 X26.3880 Y139.0903
G01 X26.2909 Y139.2240
G01 X26.1740 Y139.3409
G01 X26.0403 Y139.4380
G01 X25.9400 Y139.4892
G00 Z2.0000
G00 X29.0724 Y137.3468
G01 F60.00
G01 Z-0.1000
G01 F120.00
G01 X29.0724 Y134.7401
G01 X29.0745 Y134.7009
G01 X29.0810 Y134.6572
G01 X29.0918 Y134.6143
G01 X29.1031 Y134.5819
G01 X29.1106 Y134.5638
G01 X29.1233 Y134.5372
G01 X29.1304 Y134.5243
G01 X29.1456 Y134.4990
G01 X29.1510 Y134.4909
G01 X29.1685 Y134.4672
G01 X29.1777 Y134.4557
G01 X29.2042 Y134.4267
G01 X29.2295 Y134.4035
G01 X29.2408 Y134.3940
G01 X29.2724 Y134.3707
G01 X29.3060 Y134.3504
G01 X29.3191 Y134.3436
G01 X29.3502 Y134.3291
G01 X29.3853 Y134.3164
G01 X40.1280 Y123.5737
G01 X40.1312 Y123.5523
G01 X40.1331 Y123.5427
G01 X40.1414 Y123.5093
G01 X40.1455 Y123.4952
G01 X40.1606 Y123.4537
G01 X40.1793 Y123.4137
G01 X40.1864 Y123.4008
G01 X40.2041 Y123.3713
G01 X40.2095 Y123.3632
G01 X40.2300 Y123.3355
G01 X40.2424 Y123.3204
G01 X40.2655 Y123.2950
G01 X40.2725 Y123.2880
G01 X40.3053 Y123.2585
G01 X40.3447 Y123.2293
G01 X40.3868 Y123.2040
G01 X40.4312 Y123.1831
G01 X40.4774 Y123.1665
G01 X40.5250 Y123.1546
G01 X40.5735 Y123.1474
G01 X40.6127 Y123.1452
G01 X40.6274 Y123.1451
G01 X40.6666 Y123.1470
G01 X40.6764 Y123.1479
G01 X40.7104 Y123.1529
G01 X40.7248 Y123.1556
G01 X40.7582 Y123.1639
G01 X40.7770 Y123.1696
G01 X40.8093 Y123.1812
G01 X40.8184 Y123.1850
G01 X40.8494 Y123.1996
G01 X40.8625 Y123.2064
G01 X40.9003 Y123.2293
G01 X40.9320 Y123.2525
G01 X40.9435 Y123.2617
G01 X40.9761 Y123.2914
G01 X41.0090 Y123.3278
G01 X41.0382 Y123.3672
G01 X41.0586 Y123.4008
G01 X41.0657 Y123.4137
G01 X41.0844 Y123.4537
G01 X41.0979 Y123.4905
G01 X41.1023 Y123.5046
G01 X41.1107 Y123.5379
G01 X41.1138 Y123.5523
G01 X41.1196 Y123.5911
G01 X41.1208 Y123.6058
G01 X41.1224 Y123.6401
G01 X41.1224 Y123.6499
G01 X41.1205 Y123.6891
G01 X41.1189 Y123.7038
G01 X41.1129 Y123.7425
G01 X41.1036 Y123.7807
G01 X41.0995 Y123.7948
G01 X41.0880 Y123.8272
G01 X41.0825 Y123.8409
G01 X41.0657 Y123.8763
G01 X41.0586 Y123.8892
G01 X41.0409 Y123.9187
G01 X41.0326 Y123.9308
G01 X41.0090 Y123.9622
G01 X40.9795 Y123.9950
G01 X40.9689 Y124.0053
G01 X40.9435 Y124.0283
G01 X40.9359 Y124.0346
G01 X40.9083 Y124.0551
G01 X40.8920 Y124.0660
G01 X40.8625 Y124.0836
G01 X40.8538 Y124.0882
G01 X40.8138 Y124.1069
G01 X40.7723 Y124.1220
G01 X40.7582 Y124.1261
G01 X40.7248 Y124.1344
G01 X40.7152 Y124.1363
G01 X40.6938 Y124.1395
G01 X29.9726 Y134.8607
G01 X29.9726 Y137.3468
G01 X29.9850 Y137.3476
G01 X29.9947 Y137.3488
G01 X30.0326 Y137.3545
G01 X30.0470 Y137.3575
G01 X30.0794 Y137.3657
G01 X30.0936 Y137.3698
G01 X30.1343 Y137.3843
G01 X30.1478 Y137.3901
G01 X30.1780 Y137.4044
G01 X30.1911 Y137.4112
G01 X30.2240 Y137.4308
G01 X30.2363 Y137.4389
G01 X30.2749 Y137.4677
G01 X30.3071 Y137.4965
G01 X30.3176 Y137.5068
G01 X30.3498 Y137.5426
G01 X30.3814 Y137.5852
G01 X30.4087 Y137.6307
G01 X30.4314 Y137.6787
G01 X30.4492 Y137.7286
G01 X30.4621 Y137.7801
G01 X30.4699 Y137.8325
G01 X30.4724 Y137.8806
G01 X30.4725 Y139.2045
G01 X30.4699 Y139.2575
G01 X30.4630 Y139.3051
G01 X30.4600 Y139.3195
G01 X30.4492 Y139.3614
G01 X30.4349 Y139.4022
G01 X30.4274 Y139.4203
G01 X30.4087 Y139.4593
G01 X30.3867 Y139.4965
G01 X30.3758 Y139.5128
G01 X30.3498 Y139.5474
G01 X30.3142 Y139.5867
G01 X30.2823 Y139.6159
G01 X30.2672 Y139.6284
G01 X30.2323 Y139.6539
G01 X30.1953 Y139.6763
G01 X30.1824 Y139.6834
G01 X30.1434 Y139.7019
G01 X30.1297 Y139.7074
G01 X30.0889 Y139.7217
G01 X30.0374 Y139.7346
G01 X29.9850 Y139.7424
G01 X29.9369 Y139.7449
G01 X29.1130 Y139.7450
G01 X29.0600 Y139.7424
G01 X29.0076 Y139.7346
G01 X28.9561 Y139.7217
G01 X28.9153 Y139.7074
G01 X28.8972 Y139.6999
G01 X28.8582 Y139.6812
G01 X28.8210 Y139.6592
G01 X28.8047 Y139.6483
G01 X28.7701 Y139.6223
G01 X28.7308 Y139.5867
G01 X28.7016 Y139.5548
G01 X28.6891 Y139.5397
G01 X28.6636 Y139.5048
G01 X28.6412 Y139.4678
G01 X28.6341 Y139.4549
G01 X28.6156 Y139.4159
G01 X28.6101 Y139.4022
G01 X28.5958 Y139.3614
G01 X28.5829 Y139.3099
G01 X28.5751 Y139.2575
G01 X28.5726 Y139.2094
G01 X28.5725 Y137.8855
G01 X28.5751 Y137.8325
G01 X28.5812 Y137.7897
G01 X28.5839 Y137.7753
G01 X28.5958 Y137.7286
G01 X28.6118 Y137.6832
G01 X28.6176 Y137.6697
G01 X28.6319 Y137.6395
G01 X28.6412 Y137.6222
G01 X28.6636 Y137.5852
G01 X28.6952 Y137.5426
G01 X28.7308 Y137.5033
G01 X28.7664 Y137.4708
G01 X28.7778 Y137.4616
G01 X28.8047 Y137.4417
G01 X28.8210 Y137.4308
G01 X28.8582 Y137.4088
G01 X28.9062 Y137.3861
G01 X28.9561 Y137.3683
G01 X29.0028 Y137.3564
G01 X29.0172 Y137.3537
G01 X29.0503 Y137.3488
G01 X29.0600 Y137.3476
G01 X29.0724 Y137.3468
G00 Z2.0000
G00 X32.5125 Y137.4584
G01 F60.00
G01 Z-0.1000
G01 F120.00
G01 X32.5125 Y137.3458
G01 X32.6128 Y137.3970
G01 X32.7465 Y137.4941
G01 X32.8634 Y137.6110
G01 X32.9605 Y137.7447
G01 X33.0356 Y137.8919
G01 X33.0866 Y138.0491
G01 X33.0939 Y138.0950
G01 X32.9908 Y138.0950
G01 X32.9716 Y138.0192
G01 X32.9437 Y137.9406
G01 X32.9362 Y137.9225
G01 X32.9047 Y137.8559
G01 X32.8955 Y137.8386
G01 X32.8524 Y137.7672
G01 X32.8029 Y137.7001
G01 X32.7904 Y137.6849
G01 X32.7343 Y137.6232
G01 X32.6652 Y137.5606
G01 X32.5903 Y137.5051
G01 X32.5125 Y137.4584
G00 Z2.0000
G00 X32.5125 Y139.7442
G01 F60.00
G01 Z-0.1000
G01 F120.00
G01 X32.5125 Y139.6316
G01 X32.5903 Y139.5849
G01 X32.6652 Y139.5294
G01 X32.7343 Y139.4668
G01 X32.7904 Y139.4051
G01 X32.8029 Y139.3899
G01 X32.8524 Y139.3228
G01 X32.8955 Y139.2514
G01 X32.9047 Y139.2341
G01 X32.9362 Y139.1675
G01 X32.9437 Y139.1494
G01 X32.9716 Y139.0708
G01 X32.9908 Y138.9950
G01 X33.0939 Y138.9950
G01 X33.0866 Y139.0409
G01 X33.0356 Y139.1981
G01 X32.9605 Y139.3453
G01 X32.8634 Y139.4790
G01 X32.7465 Y139.5959
G01 X32.6128 Y139.6930
G01 X32.5125 Y139.7442
G00 Z2.0000
G00 X34.5591 Y141.6499
G01 F60.00
G01 Z-0.1000
G01 F120.00
G01 X40.9242 Y141.6499
G01 X41.2599 Y141.3226
G01 X41.2952 Y16.0566
G01 X41.2906 Y16.0480
G01 X41.2780 Y16.0214
G01 X41.2704 Y16.0033
G01 X41.2591 Y15.9708
G01 X41.2484 Y15.9280
G01 X41.2419 Y15.8843
G01 X41.2400 Y15.8500
G01 X41.2400 Y15.8303
G01 X41.2415 Y15.8009
G01 X41.2424 Y15.7912
G01 X41.2484 Y15.7523
G01 X41.2591 Y15.7095
G01 X41.2704 Y15.6771
G01 X41.2759 Y15.6634
G01 X41.2906 Y15.6323
G01 X41.2993 Y15.6168
G01 X41.3040 Y15.5867
G01 X41.3134 Y15.5486
G01 X41.3178 Y15.5345
G01 X41.3296 Y15.5022
G01 X41.3485 Y15.4623
G01 X41.3712 Y15.4244
G01 X41.3976 Y15.3890
G01 X41.4238 Y15.3598
G01 X41.4308 Y15.3528
G01 X41.4525 Y15.3330
G01 X41.4677 Y15.3206
G01 X41.4955 Y15.3003
G01 X41.5334 Y15.2776
G01 X41.5733 Y15.2587
G01 X41.6056 Y15.2469
G01 X41.6244 Y15.2412
G01 X41.6482 Y15.2353
G01 X41.6609 Y15.2325
G01 X46.5156 Y10.3779
G01 X46.5281 Y10.3437
G01 X46.5490 Y10.2993
G01 X46.5743 Y10.2572
G01 X46.5975 Y10.2255
G01 X46.6067 Y10.2140
G01 X46.6297 Y10.1886
G01 X46.6436 Y10.1747
G01 X46.6728 Y10.1485
G01 X46.7122 Y10.1193
G01 X46.7543 Y10.0940
G01 X46.7897 Y10.0770
G01 X46.8078 Y10.0695
G01 X46.8449 Y10.0565
G01 X46.8829 Y10.0468
G01 X46.9021 Y10.0429
G01 X46.9410 Y10.0374
G01 X46.9900 Y10.0350
G01 X47.0390 Y10.0374
G01 X47.0779 Y10.0429
G01 X47.0971 Y10.0468
G01 X47.1351 Y10.0565
G01 X47.1722 Y10.0695
G01 X47.1859 Y10.0750
G01 X47.2174 Y10.0899
G01 X49.5966 Y10.0899
G01 X49.6495 Y10.0017
G01 X49.7048 Y9.9266
G01 X49.7173 Y9.9115
G01 X49.7800 Y9.8425
G01 X49.8564 Y9.7733
G01 X49.9311 Y9.7176
G01 X49.9474 Y9.7067
G01 X50.0275 Y9.6590
G01 X50.1207 Y9.6149
G01 X50.2084 Y9.5833
G01 X50.2272 Y9.5776
G01 X50.3177 Y9.5552
G01 X50.4196 Y9.5401
G01 X50.5127 Y9.5352
G01 X50.5323 Y9.5352
G01 X50.6156 Y9.5393
G01 X50.6303 Y9.5406
G01 X50.7273 Y9.5552
G01 X50.8178 Y9.5776
G01 X50.8366 Y9.5833
G01 X50.9243 Y9.6149
G01 X51.0087 Y9.6546
G01 X51.0260 Y9.6638
G01 X51.1058 Y9.7120
G01 X51.1886 Y9.7733
G01 X51.2579 Y9.8358
G01 X51.2717 Y9.8496
G01 X51.3342 Y9.9189
G01 X51.3955 Y10.0017
G01 X51.4485 Y10.0900
G01 X51.4886 Y10.1742
G01 X51.4961 Y10.1923
G01 X51.5273 Y10.2802
G01 X51.5523 Y10.3802
G01 X51.5662 Y10.4723
G01 X51.5682 Y10.4919
G01 X51.5725 Y10.5850
G01 X51.5682 Y10.6781
G01 X51.5662 Y10.6977
G01 X51.5523 Y10.7898
G01 X51.5273 Y10.8898
G01 X51.4961 Y10.9777
G01 X51.4886 Y10.9958
G01 X51.4485 Y11.0800
G01 X51.3955 Y11.1683
G01 X51.3342 Y11.2511
G01 X51.2717 Y11.3204
G01 X51.2579 Y11.3342
G01 X51.1960 Y11.3902
G01 X51.1848 Y11.3997
G01 X51.1058 Y11.4580
G01 X51.0175 Y11.5110
G01 X50.9243 Y11.5551
G01 X50.8273 Y11.5898
G01 X50.7273 Y11.6148
G01 X50.6254 Y11.6299
G01 X50.5225 Y11.6350
G01 X50.4196 Y11.6299
G01 X50.3273 Y11.6165
G01 X50.3081 Y11.6127
G01 X50.2177 Y11.5898
G01 X50.1298 Y11.5586
G01 X50.1117 Y11.5511
G01 X50.0275 Y11.5110
G01 X49.9474 Y11.4633
G01 X49.9311 Y11.4524
G01 X49.8564 Y11.3967
G01 X49.7871 Y11.3342
G01 X49.7733 Y11.3204
G01 X49.7108 Y11.2511
G01 X49.6551 Y11.1764
G01 X49.6442 Y11.1601
G01 X49.5965 Y11.0800
G01 X49.5538 Y10.9901
G01 X47.1963 Y10.9901
G01 X47.1813 Y10.9969
G01 X47.1627 Y11.0039
G01 X42.1955 Y15.9711
G01 X42.1601 Y141.5001
G01 X42.1587 Y141.5345
G01 X42.1574 Y141.5491
G01 X42.1515 Y141.5879
G01 X42.1407 Y141.6308
G01 X42.1258 Y141.6724
G01 X42.1092 Y141.7079
G01 X42.1021 Y141.7208
G01 X42.0869 Y141.7461
G01 X42.0814 Y141.7542
G01 X42.0639 Y141.7779
G01 X42.0547 Y141.7894
G01 X42.0350 Y141.8113
G01 X42.0247 Y141.8218
G01 X41.9992 Y141.8449
G01 X41.9841 Y141.8568
G01 X41.9728 Y141.8740
G01 X41.9520 Y141.9014
G01 X41.9423 Y141.9125
G01 X41.9222 Y141.9341
G01 X41.4215 Y142.4223
G01 X41.4003 Y142.4415
G01 X41.3894 Y142.4508
G01 X41.3563 Y142.4750
G01 X41.3280 Y142.4921
G01 X41.3106 Y142.5016
G01 X41.2784 Y142.5163
G01 X41.2473 Y142.5277
G01 X41.2283 Y142.5335
G01 X41.1938 Y142.5417
G01 X41.1611 Y142.5468
G01 X41.1414 Y142.5488
G01 X41.1073 Y142.5501
G01 X34.7457 Y142.5501
G01 X34.7295 Y142.5609
G01 X34.6957 Y142.5809
G01 X34.6513 Y142.6019
G01 X34.6051 Y142.6184
G01 X34.5575 Y142.6303
G01 X34.5090 Y142.6375
G01 X34.4600 Y142.6399
G01 X34.4110 Y142.6375
G01 X34.3625 Y142.6303
G01 X34.3149 Y142.6184
G01 X34.2687 Y142.6019
G01 X34.2243 Y142.5809
G01 X34.1822 Y142.5557
G01 X34.1428 Y142.5264
G01 X34.1064 Y142.4935
G01 X34.0735 Y142.4571
G01 X34.0443 Y142.4177
G01 X34.0190 Y142.3756
G01 X33.9981 Y142.3313
G01 X33.9815 Y142.2851
G01 X33.9696 Y142.2375
G01 X33.9624 Y142.1889
G01 X33.9600 Y142.1399
G01 X33.9624 Y142.0909
G01 X33.9696 Y142.0424
G01 X33.9815 Y141.9948
G01 X33.9981 Y141.9486
G01 X34.0190 Y141.9042
G01 X34.0443 Y141.8622
G01 X34.0735 Y141.8227
G01 X34.1064 Y141.7864
G01 X34.1428 Y141.7534
G01 X34.1822 Y141.7242
G01 X34.2243 Y141.6990
G01 X34.2687 Y141.6780
G01 X34.3149 Y141.6615
G01 X34.3625 Y141.6495
G01 X34.4110 Y141.6423
G01 X34.4600 Y141.6399
G01 X34.5090 Y141.6423
G01 X34.5479 Y141.6479
G01 X34.5591 Y141.6499
G00 Z2.0000
G00 X30.9066 Y143.7751
G01 F60.00
G01 Z-0.1000
G01 F120.00
G01 X30.8859 Y143.7849
G01 X30.8768 Y143.7886
G01 X30.8445 Y143.8003
G01 X30.8304 Y143.8047
G01 X30.7875 Y143.8153
G01 X30.7488 Y143.8213
G01 X30.7341 Y143.8229
G01 X30.6900 Y143.8249
G01 X30.6410 Y143.8225
G01 X30.5925 Y143.8153
G01 X30.5543 Y143.8060
G01 X30.5402 Y143.8019
G01 X30.4987 Y143.7868
G01 X30.4543 Y143.7658
G01 X30.4122 Y143.7406
G01 X30.3728 Y143.7114
G01 X30.3364 Y143.6784
G01 X30.3035 Y143.6421
G01 X30.2743 Y143.6027
G01 X30.2539 Y143.5691
G01 X30.2468 Y143.5562
G01 X30.2281 Y143.5162
G01 X30.2115 Y143.4700
G01 X30.1996 Y143.4224
G01 X30.1924 Y143.3739
G01 X30.1900 Y143.3249
G01 X30.1924 Y143.2759
G01 X30.1996 Y143.2273
G01 X30.2115 Y143.1797
G01 X30.2281 Y143.1335
G01 X30.2490 Y143.0892
G01 X30.2743 Y143.0471
G01 X30.3035 Y143.0077
G01 X30.3364 Y142.9713
G01 X30.3728 Y142.9384
G01 X30.4122 Y142.9091
G01 X30.4458 Y142.8887
G01 X30.4587 Y142.8816
G01 X30.4941 Y142.8649
G01 X30.5078 Y142.8594
G01 X30.5449 Y142.8464
G01 X30.5829 Y142.8366
G01 X30.6021 Y142.8328
G01 X30.6410 Y142.8273
G01 X30.6900 Y142.8249
G01 X30.7390 Y142.8273
G01 X30.7779 Y142.8328
G01 X30.7923 Y142.8355
G01 X30.8257 Y142.8438
G01 X30.8398 Y142.8479
G01 X30.8813 Y142.8629
G01 X30.9072 Y142.8749
G01 X41.4486 Y142.8749
G01 X42.2350 Y142.0884
G01 X42.2957 Y34.7339
G01 X42.2974 Y34.6947
G01 X42.2991 Y34.6801
G01 X42.3035 Y34.6510
G01 X42.3054 Y34.6413
G01 X42.3125 Y34.6127
G01 X42.3166 Y34.5986
G01 X42.3265 Y34.5709
G01 X42.3340 Y34.5527
G01 X42.3489 Y34.5218
G01 X42.3717 Y34.4839
G01 X42.3980 Y34.4484
G01 X42.4277 Y34.4157
G01 X42.4604 Y34.3861
G01 X42.4959 Y34.3598
G01 X42.5338 Y34.3371
G01 X42.5648 Y34.3222
G01 X42.5783 Y34.3164
G01 X42.6061 Y34.3065
G01 X42.6248 Y34.3008
G01 X42.6534 Y34.2937
G01 X42.6631 Y34.2918
G01 X42.6971 Y34.2868
G01 X42.7077 Y34.2857
G01 X46.6156 Y30.3779
G01 X46.6281 Y30.3437
G01 X46.6490 Y30.2993
G01 X46.6743 Y30.2572
G01 X46.7004 Y30.2216
G01 X46.7099 Y30.2104
G01 X46.7330 Y30.1850
G01 X46.7400 Y30.1780
G01 X46.7654 Y30.1549
G01 X46.7766 Y30.1454
G01 X46.8042 Y30.1249
G01 X46.8205 Y30.1140
G01 X46.8543 Y30.0940
G01 X46.8897 Y30.0770
G01 X46.9078 Y30.0695
G01 X46.9449 Y30.0565
G01 X46.9829 Y30.0468
G01 X47.0021 Y30.0429
G01 X47.0410 Y30.0374
G01 X47.0900 Y30.0350
G01 X47.1390 Y30.0374
G01 X47.1779 Y30.0429
G01 X47.1971 Y30.0468
G01 X47.2351 Y30.0565
G01 X47.2722 Y30.0695
G01 X47.2859 Y30.0750
G01 X47.3174 Y30.0899
G01 X49.5966 Y30.0899
G01 X49.6495 Y30.0017
G01 X49.7048 Y29.9266
G01 X49.7173 Y29.9115
G01 X49.7800 Y29.8425
G01 X49.8564 Y29.7733
G01 X49.9311 Y29.7176
G01 X49.9474 Y29.7067
G01 X50.0190 Y29.6638
G01 X50.0363 Y29.6546
G01 X50.1207 Y29.6149
G01 X50.2177 Y29.5802
G01 X50.3177 Y29.5552
G01 X50.4098 Y29.5413
G01 X50.4294 Y29.5393
G01 X50.5127 Y29.5352
G01 X50.5323 Y29.5352
G01 X50.6254 Y29.5401
G01 X50.7225 Y29.5543
G01 X50.7369 Y29.5573
G01 X50.8178 Y29.5776
G01 X50.8366 Y29.5833
G01 X50.9243 Y29.6149
G01 X51.0175 Y29.6590
G01 X51.1058 Y29.7120
G01 X51.1809 Y29.7673
G01 X51.1960 Y29.7798
G01 X51.2650 Y29.8425
G01 X51.3342 Y29.9189
G01 X51.3899 Y29.9936
G01 X51.4008 Y30.0099
G01 X51.4485 Y30.0900
G01 X51.4886 Y30.1742
G01 X51.4961 Y30.1923
G01 X51.5273 Y30.2802
G01 X51.5523 Y30.3802
G01 X51.5662 Y30.4723
G01 X51.5682 Y30.4919
G01 X51.5725 Y30.5850
G01 X51.5674 Y30.6879
G01 X51.5523 Y30.7898
G01 X51.5299 Y30.8803
G01 X51.5242 Y30.8991
G01 X51.4926 Y30.9868
G01 X51.4485 Y31.0800
G01 X51.4008 Y31.1601
G01 X51.3899 Y31.1764
G01 X51.3342 Y31.2511
G01 X51.2717 Y31.3204
G01 X51.2579 Y31.3342
G01 X51.1886 Y31.3967
G01 X51.1139 Y31.4524
G01 X51.0976 Y31.4633
G01 X51.0175 Y31.5110
G01 X50.9243 Y31.5551
G01 X50.8273 Y31.5898
G01 X50.7369 Y31.6127
G01 X50.7177 Y31.6165
G01 X50.6254 Y31.6299
G01 X50.5323 Y31.6348
G01 X50.5127 Y31.6348
G01 X50.4294 Y31.6307
G01 X50.4098 Y31.6287
G01 X50.3177 Y31.6148
G01 X50.2177 Y31.5898
G01 X50.1207 Y31.5551
G01 X50.0275 Y31.5110
G01 X49.9392 Y31.4580
G01 X49.8641 Y31.4027
G01 X49.8490 Y31.3902
G01 X49.7871 Y31.3342
G01 X49.7733 Y31.3204
G01 X49.7108 Y31.2511
G01 X49.6551 Y31.1764
G01 X49.6442 Y31.1601
G01 X49.5965 Y31.0800
G01 X49.5538 Y30.9901
G01 X47.2963 Y30.9901
G01 X47.2813 Y30.9969
G01 X47.2627 Y31.0039
G01 X43.1970 Y35.0696
G01 X43.1351 Y142.2753
G01 X43.1330 Y142.3192
G01 X43.1274 Y142.3580
G01 X43.1254 Y142.3678
G01 X43.1184 Y142.3962
G01 X43.1142 Y142.4106
G01 X43.1008 Y142.4473
G01 X43.0864 Y142.4784
G01 X43.0795 Y142.4917
G01 X43.0592 Y142.5251
G01 X43.0390 Y142.5528
G01 X43.0296 Y142.5645
G01 X43.0033 Y142.5933
G01 X42.1019 Y143.4947
G01 X42.0969 Y143.5062
G01 X42.0820 Y143.5372
G01 X42.0593 Y143.5751
G01 X42.0330 Y143.6106
G01 X42.0033 Y143.6433
G01 X41.9706 Y143.6730
G01 X41.9431 Y143.6936
G01 X41.9268 Y143.7045
G01 X41.9015 Y143.7196
G01 X41.8884 Y143.7264
G01 X41.8573 Y143.7409
G01 X41.8157 Y143.7557
G01 X41.7728 Y143.7665
G01 X41.7340 Y143.7724
G01 X41.7193 Y143.7737
G01 X41.6850 Y143.7751
G01 X30.9066 Y143.7751
G00 Z2.0000
G00 X28.3064 Y145.1397
G01 F60.00
G01 Z-0.1000
G01 F120.00
G01 X42.5697 Y145.1251
G01 X44.1848 Y143.4644
G01 X44.1649 Y72.8651
G01 X44.1670 Y72.8210
G01 X44.1735 Y72.7773
G01 X44.1816 Y72.7439
G01 X44.1873 Y72.7251
G01 X44.1973 Y72.6974
G01 X44.2031 Y72.6839
G01 X44.2180 Y72.6529
G01 X44.2407 Y72.6150
G01 X44.2670 Y72.5795
G01 X44.2932 Y72.5503
G01 X44.3001 Y72.5434
G01 X44.3219 Y72.5235
G01 X44.3371 Y72.5111
G01 X44.3648 Y72.4908
G01 X44.3984 Y72.4704
G01 X44.4071 Y72.4658
G01 X44.4337 Y72.4532
G01 X44.4472 Y72.4473
G01 X44.4842 Y72.4343
G01 X44.5178 Y72.4256
G01 X46.5656 Y70.3779
G01 X46.5781 Y70.3437
G01 X46.5946 Y70.3081
G01 X46.6014 Y70.2950
G01 X46.6190 Y70.2655
G01 X46.6299 Y70.2492
G01 X46.6535 Y70.2178
G01 X46.6864 Y70.1814
G01 X46.7228 Y70.1485
G01 X46.7542 Y70.1249
G01 X46.7705 Y70.1140
G01 X46.8000 Y70.0964
G01 X46.8131 Y70.0896
G01 X46.8487 Y70.0731
G01 X46.8855 Y70.0596
G01 X46.8996 Y70.0552
G01 X46.9329 Y70.0468
G01 X46.9521 Y70.0429
G01 X46.9910 Y70.0374
G01 X47.0400 Y70.0350
G01 X47.0890 Y70.0374
G01 X47.1279 Y70.0429
G01 X47.1471 Y70.0468
G01 X47.1851 Y70.0565
G01 X47.2222 Y70.0695
G01 X47.2359 Y70.0750
G01 X47.2674 Y70.0899
G01 X49.5966 Y70.0899
G01 X49.6495 Y70.0017
G01 X49.7108 Y69.9189
G01 X49.7800 Y69.8425
G01 X49.8490 Y69.7798
G01 X49.8641 Y69.7673
G01 X49.9311 Y69.7176
G01 X49.9474 Y69.7067
G01 X50.0275 Y69.6590
G01 X50.1207 Y69.6149
G01 X50.2177 Y69.5802
G01 X50.3081 Y69.5573
G01 X50.3273 Y69.5535
G01 X50.4098 Y69.5413
G01 X50.4294 Y69.5393
