(G-CODE GENERATED BY FLATCAM v8.994 - www.flatcam.org - Version Date: 2020/11/7)

(Name: Beecounter-PTH.drl_cnc)
(Type: G-code from Geometry)
(Units: MM)

(Created on Saturday, 25 January 2025 at 13:29)

(This preprocessor is the default preprocessor used by FlatCAM.)
(It is made to work with MACH3 compatible motion controllers.)


(TOOLS DIAMETER: )
(Tool: 1 -> Dia: 0.3)
(Tool: 2 -> Dia: 0.8)
(Tool: 3 -> Dia: 1.0)

(FEEDRATE Z: )
(Tool: 1 -> Feedrate: 50.0)
(Tool: 2 -> Feedrate: 50.0)
(Tool: 3 -> Feedrate: 50.0)

(FEEDRATE RAPIDS: )
(Tool: 1 -> Feedrate Rapids: 1500)
(Tool: 2 -> Feedrate Rapids: 1500)
(Tool: 3 -> Feedrate Rapids: 1500)

(Z_CUT: )
(Tool: 1 -> Z_Cut: -1.7)
(Tool: 2 -> Z_Cut: -1.7)
(Tool: 3 -> Z_Cut: -1.7)

(Tools Offset: )
(Tool: 2 -> Offset Z: 0.0)
(Tool: 3 -> Offset Z: 0.0)

(Z_MOVE: )
(Tool: 1 -> Z_Move: 2)
(Tool: 2 -> Z_Move: 2)
(Tool: 3 -> Z_Move: 2)

(Z Toolchange: 15 mm)
(X,Y Toolchange: 0.0000, 0.0000 mm)
(Z Start: None mm)
(Z End: 0.5 mm)
(X,Y End: None mm)
(Steps per circle: 64)
(Preprocessor Excellon: default)

(X range:    3.5400 ...   52.8000  mm)
(Y range:    1.8900 ...  158.2000  mm)

(Spindle Speed: 0 RPM)
G21
G90
G94

G01 F50.00

M5
G00 Z15.0000
T2
G00 X0.0000 Y0.0000                
M6
(MSG, Change to Tool Dia = 0.8000 ||| Total drills for tool T2 = 152)
M0
G00 Z15.0000

G01 F50.00
M03
G00 X22.9470 Y138.5450
G01 Z-1.7000
G01 Z0
G00 Z2.0000
G00 X25.4870 Y138.5450
G01 Z-1.7000
G01 Z0
G00 Z2.0000
G00 X29.5200 Y138.2900
G01 Z-1.7000
G01 Z0
G00 Z2.0000
G00 X32.0600 Y138.2900
G01 Z-1.7000
G01 Z0
G00 Z2.0000
G00 X31.9800 Y151.0900
G01 Z-1.7000
G01 Z0
G00 Z2.0000
G00 X34.5200 Y151.0900
G01 Z-1.7000
G01 Z0
G00 Z2.0000
G00 X37.0600 Y151.0900
G01 Z-1.7000
G01 Z0
G00 Z2.0000
G00 X39.6000 Y151.0900
G01 Z-1.7000
G01 Z0
G00 Z2.0000
G00 X42.1400 Y151.0900
G01 Z-1.7000
G01 Z0
G00 Z2.0000
G00 X44.6800 Y151.0900
G01 Z-1.7000
G01 Z0
G00 Z2.0000
G00 X47.2200 Y151.0900
G01 Z-1.7000
G01 Z0
G00 Z2.0000
G00 X47.2200 Y153.6300
G01 Z-1.7000
G01 Z0
G00 Z2.0000
G00 X44.6800 Y153.6300
G01 Z-1.7000
G01 Z0
G00 Z2.0000
G00 X42.1400 Y153.6300
G01 Z-1.7000
G01 Z0
G00 Z2.0000
G00 X39.6000 Y153.6300
G01 Z-1.7000
G01 Z0
G00 Z2.0000
G00 X37.0600 Y153.6300
G01 Z-1.7000
G01 Z0
G00 Z2.0000
G00 X34.5200 Y153.6300
G01 Z-1.7000
G01 Z0
G00 Z2.0000
G00 X31.9800 Y153.6300
G01 Z-1.7000
G01 Z0
G00 Z2.0000
G00 X29.4400 Y153.6300
G01 Z-1.7000
G01 Z0
G00 Z2.0000
G00 X29.4400 Y151.0900
G01 Z-1.7000
G01 Z0
G00 Z2.0000
G00 X26.9000 Y151.0900
G01 Z-1.7000
G01 Z0
G00 Z2.0000
G00 X26.9000 Y153.6300
G01 Z-1.7000
G01 Z0
G00 Z2.0000
G00 X24.3600 Y153.6300
G01 Z-1.7000
G01 Z0
G00 Z2.0000
G00 X24.3600 Y151.0900
G01 Z-1.7000
G01 Z0
G00 Z2.0000
G00 X21.8200 Y151.0900
G01 Z-1.7000
G01 Z0
G00 Z2.0000
G00 X21.8200 Y153.6300
G01 Z-1.7000
G01 Z0
G00 Z2.0000
G00 X19.2800 Y153.6300
G01 Z-1.7000
G01 Z0
G00 Z2.0000
G00 X19.2800 Y151.0900
G01 Z-1.7000
G01 Z0
G00 Z2.0000
G00 X16.7400 Y151.0900
G01 Z-1.7000
G01 Z0
G00 Z2.0000
G00 X16.7400 Y153.6300
G01 Z-1.7000
G01 Z0
G00 Z2.0000
G00 X14.2000 Y153.6300
G01 Z-1.7000
G01 Z0
G00 Z2.0000
G00 X14.2000 Y151.0900
G01 Z-1.7000
G01 Z0
G00 Z2.0000
G00 X11.6600 Y151.0900
G01 Z-1.7000
G01 Z0
G00 Z2.0000
G00 X9.1200 Y151.0900
G01 Z-1.7000
G01 Z0
G00 Z2.0000
G00 X6.5800 Y151.0900
G01 Z-1.7000
G01 Z0
G00 Z2.0000
G00 X4.0400 Y151.0900
G01 Z-1.7000
G01 Z0
G00 Z2.0000
G00 X4.0400 Y153.6300
G01 Z-1.7000
G01 Z0
G00 Z2.0000
G00 X6.5800 Y153.6300
G01 Z-1.7000
G01 Z0
G00 Z2.0000
G00 X9.1200 Y153.6300
G01 Z-1.7000
G01 Z0
G00 Z2.0000
G00 X11.6600 Y153.6300
G01 Z-1.7000
G01 Z0
G00 Z2.0000
G00 X11.6300 Y157.7000
G01 Z-1.7000
G01 Z0
G00 Z2.0000
G00 X14.1700 Y157.7000
G01 Z-1.7000
G01 Z0
G00 Z2.0000
G00 X16.7100 Y157.7000
G01 Z-1.7000
G01 Z0
G00 Z2.0000
G00 X19.2500 Y157.7000
G01 Z-1.7000
G01 Z0
G00 Z2.0000
G00 X29.4200 Y157.6900
G01 Z-1.7000
G01 Z0
G00 Z2.0000
G00 X31.9600 Y157.6900
G01 Z-1.7000
G01 Z0
G00 Z2.0000
G00 X34.5000 Y157.6900
G01 Z-1.7000
G01 Z0
G00 Z2.0000
G00 X37.0400 Y157.6900
G01 Z-1.7000
G01 Z0
G00 Z2.0000
G00 X39.5800 Y157.6900
G01 Z-1.7000
G01 Z0
G00 Z2.0000
G00 X42.1200 Y157.6900
G01 Z-1.7000
G01 Z0
G00 Z2.0000
G00 X44.6600 Y157.6900
G01 Z-1.7000
G01 Z0
G00 Z2.0000
G00 X47.2000 Y157.6900
G01 Z-1.7000
G01 Z0
G00 Z2.0000
G00 X49.7400 Y157.6900
G01 Z-1.7000
G01 Z0
G00 Z2.0000
G00 X52.2800 Y157.6900
G01 Z-1.7000
G01 Z0
G00 Z2.0000
G00 X49.7600 Y153.6300
G01 Z-1.7000
G01 Z0
G00 Z2.0000
G00 X52.3000 Y153.6300
G01 Z-1.7000
G01 Z0
G00 Z2.0000
G00 X52.3000 Y151.0900
G01 Z-1.7000
G01 Z0
G00 Z2.0000
G00 X49.7600 Y151.0900
G01 Z-1.7000
G01 Z0
G00 Z2.0000
G00 X50.3700 Y132.9800
G01 Z-1.7000
G01 Z0
G00 Z2.0000
G00 X50.3700 Y130.4400
G01 Z-1.7000
G01 Z0
G00 Z2.0000
G00 X50.3700 Y127.9000
G01 Z-1.7000
G01 Z0
G00 Z2.0000
G00 X50.3700 Y112.9800
G01 Z-1.7000
G01 Z0
G00 Z2.0000
G00 X50.3700 Y110.4400
G01 Z-1.7000
G01 Z0
G00 Z2.0000
G00 X50.3700 Y107.9000
G01 Z-1.7000
G01 Z0
G00 Z2.0000
G00 X50.3700 Y92.9800
G01 Z-1.7000
G01 Z0
G00 Z2.0000
G00 X50.3700 Y90.4400
G01 Z-1.7000
G01 Z0
G00 Z2.0000
G00 X50.3700 Y87.9000
G01 Z-1.7000
G01 Z0
G00 Z2.0000
G00 X50.3700 Y72.9800
G01 Z-1.7000
G01 Z0
G00 Z2.0000
G00 X50.3700 Y70.4400
G01 Z-1.7000
G01 Z0
G00 Z2.0000
G00 X50.3700 Y67.9000
G01 Z-1.7000
G01 Z0
G00 Z2.0000
G00 X50.3700 Y52.9800
G01 Z-1.7000
G01 Z0
G00 Z2.0000
G00 X50.3700 Y50.4400
G01 Z-1.7000
G01 Z0
G00 Z2.0000
G00 X50.3700 Y47.9000
G01 Z-1.7000
G01 Z0
G00 Z2.0000
G00 X50.3700 Y32.9800
G01 Z-1.7000
G01 Z0
G00 Z2.0000
G00 X50.3700 Y30.4400
G01 Z-1.7000
G01 Z0
G00 Z2.0000
G00 X50.3700 Y27.9000
G01 Z-1.7000
G01 Z0
G00 Z2.0000
G00 X50.3700 Y12.9800
G01 Z-1.7000
G01 Z0
G00 Z2.0000
G00 X50.3700 Y10.4400
G01 Z-1.7000
G01 Z0
G00 Z2.0000
G00 X50.3700 Y7.9000
G01 Z-1.7000
G01 Z0
G00 Z2.0000
G00 X32.0600 Y2.2900
G01 Z-1.7000
G01 Z0
G00 Z2.0000
G00 X29.5200 Y2.2900
G01 Z-1.7000
G01 Z0
G00 Z2.0000
G00 X25.4870 Y2.5450
G01 Z-1.7000
G01 Z0
G00 Z2.0000
G00 X22.9470 Y2.5450
G01 Z-1.7000
G01 Z0
G00 Z2.0000
G00 X4.4870 Y8.0450
G01 Z-1.7000
G01 Z0
G00 Z2.0000
G00 X4.4870 Y10.5850
G01 Z-1.7000
G01 Z0
G00 Z2.0000
G00 X4.4870 Y13.1250
G01 Z-1.7000
G01 Z0
G00 Z2.0000
G00 X22.9470 Y18.5450
G01 Z-1.7000
G01 Z0
G00 Z2.0000
G00 X25.4870 Y18.5450
G01 Z-1.7000
G01 Z0
G00 Z2.0000
G00 X22.9470 Y22.5450
G01 Z-1.7000
G01 Z0
G00 Z2.0000
G00 X25.4870 Y22.5450
G01 Z-1.7000
G01 Z0
G00 Z2.0000
G00 X29.5200 Y18.2900
G01 Z-1.7000
G01 Z0
G00 Z2.0000
G00 X32.0600 Y18.2900
G01 Z-1.7000
G01 Z0
G00 Z2.0000
G00 X32.0600 Y22.2900
G01 Z-1.7000
G01 Z0
G00 Z2.0000
G00 X29.5200 Y22.2900
G01 Z-1.7000
G01 Z0
G00 Z2.0000
G00 X32.0600 Y38.2900
G01 Z-1.7000
G01 Z0
G00 Z2.0000
G00 X29.5200 Y38.2900
G01 Z-1.7000
G01 Z0
G00 Z2.0000
G00 X32.0600 Y42.2900
G01 Z-1.7000
G01 Z0
G00 Z2.0000
G00 X29.5200 Y42.2900
G01 Z-1.7000
G01 Z0
G00 Z2.0000
G00 X25.4870 Y42.5450
G01 Z-1.7000
G01 Z0
G00 Z2.0000
G00 X22.9470 Y42.5450
G01 Z-1.7000
G01 Z0
G00 Z2.0000
G00 X25.4870 Y38.5450
G01 Z-1.7000
G01 Z0
G00 Z2.0000
G00 X22.9470 Y38.5450
G01 Z-1.7000
G01 Z0
G00 Z2.0000
G00 X4.4870 Y28.0450
G01 Z-1.7000
G01 Z0
G00 Z2.0000
G00 X4.4870 Y30.5850
G01 Z-1.7000
G01 Z0
G00 Z2.0000
G00 X4.4870 Y33.1250
G01 Z-1.7000
G01 Z0
G00 Z2.0000
G00 X4.4870 Y48.0450
G01 Z-1.7000
G01 Z0
G00 Z2.0000
G00 X4.4870 Y50.5850
G01 Z-1.7000
G01 Z0
G00 Z2.0000
G00 X4.4870 Y53.1250
G01 Z-1.7000
G01 Z0
G00 Z2.0000
G00 X4.4870 Y68.0450
G01 Z-1.7000
G01 Z0
G00 Z2.0000
G00 X4.4870 Y70.5850
G01 Z-1.7000
G01 Z0
G00 Z2.0000
G00 X4.4870 Y73.1250
G01 Z-1.7000
G01 Z0
G00 Z2.0000
G00 X22.9470 Y58.5450
G01 Z-1.7000
G01 Z0
G00 Z2.0000
G00 X25.4870 Y58.5450
G01 Z-1.7000
G01 Z0
G00 Z2.0000
G00 X29.5200 Y58.2900
G01 Z-1.7000
G01 Z0
G00 Z2.0000
G00 X32.0600 Y58.2900
G01 Z-1.7000
G01 Z0
G00 Z2.0000
G00 X32.0600 Y62.2900
G01 Z-1.7000
G01 Z0
G00 Z2.0000
G00 X29.5200 Y62.2900
G01 Z-1.7000
G01 Z0
G00 Z2.0000
G00 X25.4870 Y62.5450
G01 Z-1.7000
G01 Z0
G00 Z2.0000
G00 X22.9470 Y62.5450
G01 Z-1.7000
G01 Z0
G00 Z2.0000
G00 X22.9470 Y78.5450
G01 Z-1.7000
G01 Z0
G00 Z2.0000
G00 X25.4870 Y78.5450
G01 Z-1.7000
G01 Z0
G00 Z2.0000
G00 X22.9470 Y82.5450
G01 Z-1.7000
G01 Z0
G00 Z2.0000
G00 X25.4870 Y82.5450
G01 Z-1.7000
G01 Z0
G00 Z2.0000
G00 X29.5200 Y78.2900
G01 Z-1.7000
G01 Z0
G00 Z2.0000
G00 X32.0600 Y78.2900
G01 Z-1.7000
G01 Z0
G00 Z2.0000
G00 X29.5200 Y82.2900
G01 Z-1.7000
G01 Z0
G00 Z2.0000
G00 X32.0600 Y82.2900
G01 Z-1.7000
G01 Z0
G00 Z2.0000
G00 X32.0600 Y98.2900
G01 Z-1.7000
G01 Z0
G00 Z2.0000
G00 X29.5200 Y98.2900
G01 Z-1.7000
G01 Z0
G00 Z2.0000
G00 X32.0600 Y102.2900
G01 Z-1.7000
G01 Z0
G00 Z2.0000
G00 X29.5200 Y102.2900
G01 Z-1.7000
G01 Z0
G00 Z2.0000
G00 X25.4870 Y102.5450
G01 Z-1.7000
G01 Z0
G00 Z2.0000
G00 X22.9470 Y102.5450
G01 Z-1.7000
G01 Z0
G00 Z2.0000
G00 X25.4870 Y98.5450
G01 Z-1.7000
G01 Z0
G00 Z2.0000
G00 X22.9470 Y98.5450
G01 Z-1.7000
G01 Z0
G00 Z2.0000
G00 X4.4870 Y88.0450
G01 Z-1.7000
G01 Z0
G00 Z2.0000
G00 X4.4870 Y90.5850
G01 Z-1.7000
G01 Z0
G00 Z2.0000
G00 X4.4870 Y93.1250
G01 Z-1.7000
G01 Z0
G00 Z2.0000
G00 X4.4870 Y108.0450
G01 Z-1.7000
G01 Z0
G00 Z2.0000
G00 X4.4870 Y110.5850
G01 Z-1.7000
G01 Z0
G00 Z2.0000
G00 X4.4870 Y113.1250
G01 Z-1.7000
G01 Z0
G00 Z2.0000
G00 X4.4870 Y128.0450
G01 Z-1.7000
G01 Z0
G00 Z2.0000
G00 X4.4870 Y130.5850
G01 Z-1.7000
G01 Z0
G00 Z2.0000
G00 X4.4870 Y133.1250
G01 Z-1.7000
G01 Z0
G00 Z2.0000
G00 X22.9470 Y118.5450
G01 Z-1.7000
G01 Z0
G00 Z2.0000
G00 X25.4870 Y118.5450
G01 Z-1.7000
G01 Z0
G00 Z2.0000
G00 X29.5200 Y118.2900
G01 Z-1.7000
G01 Z0
G00 Z2.0000
G00 X32.0600 Y118.2900
G01 Z-1.7000
G01 Z0
G00 Z2.0000
G00 X32.0600 Y122.2900
G01 Z-1.7000
G01 Z0
G00 Z2.0000
G00 X29.5200 Y122.2900
G01 Z-1.7000
G01 Z0
G00 Z2.0000
G00 X25.4870 Y122.5450
G01 Z-1.7000
G01 Z0
G00 Z2.0000
G00 X22.9470 Y122.5450
G01 Z-1.7000
G01 Z0
G00 Z2.0000
M05
G00 Z0.50


