(G-CODE GENERATED BY FLATCAM v8.994 - www.flatcam.org - Version Date: 2020/11/7)

(Name: Beecounter-User_3.gbr_iso_combined_cutout_cnc)
(Type: G-code from Geometry)
(Units: MM)

(Created on Monday, 16 December 2024 at 14:09)

(This preprocessor is the default preprocessor used by FlatCAM.)
(It is made to work with MACH3 compatible motion controllers.)

(TOOL DIAMETER: 0.6 mm)
(Feedrate_XY: 120.0 mm/min)
(Feedrate_Z: 60.0 mm/min)
(Feedrate rapids 1500.0 mm/min)

(Z_Cut: -1.8 mm)
(DepthPerCut: 0.4 mm <=>5 passes)
(Z_Move: 2.0 mm)
(Z Start: None mm)
(Z End: 15.0 mm)
(X,Y End: None mm)
(Steps per circle: 64)
(Preprocessor Geometry: default)

(X range:   23.3300 ...   36.5300  mm)
(Y range:    3.1000 ...  143.1550  mm)

(Spindle Speed: 0.0 RPM)
G21
G90
G94

G01 F120.00

M5
G00 Z15.0000
G00 X0.0000 Y0.0000
T1
M6    
(MSG, Change to Tool Dia = 0.6000)
M0
G00 Z15.0000

M03
G01 F120.00
G00 X23.3300 Y7.8000
G01 F60.00
G01 Z-0.4000
G01 F120.00
G01 X23.3300 Y3.2000
G01 X23.3306 Y3.1890
G01 X23.3324 Y3.1781
G01 X23.3343 Y3.1710
G01 X23.3367 Y3.1640
G01 X23.3407 Y3.1550
G01 X23.3462 Y3.1455
G01 X23.3527 Y3.1365
G01 X23.3593 Y3.1293
G01 X23.3675 Y3.1219
G01 X23.3744 Y3.1168
G01 X23.3828 Y3.1118
G01 X23.3917 Y3.1076
G01 X23.3986 Y3.1051
G01 X23.4117 Y3.1017
G01 X23.4202 Y3.1005
G01 X23.4300 Y3.1000
G01 X29.4800 Y3.1000
G00 X29.4800 Y3.1000
G01 F60.00
G01 Z-0.8000
G01 F120.00
G01 X23.4300 Y3.1000
G01 X23.4202 Y3.1005
G01 X23.4117 Y3.1017
G01 X23.3986 Y3.1051
G01 X23.3917 Y3.1076
G01 X23.3828 Y3.1118
G01 X23.3744 Y3.1168
G01 X23.3675 Y3.1219
G01 X23.3593 Y3.1293
G01 X23.3527 Y3.1365
G01 X23.3462 Y3.1455
G01 X23.3407 Y3.1550
G01 X23.3367 Y3.1640
G01 X23.3343 Y3.1710
G01 X23.3324 Y3.1781
G01 X23.3306 Y3.1890
G01 X23.3300 Y3.2000
G01 X23.3300 Y7.8000
G00 X23.3300 Y7.8000
G01 F60.00
G01 Z-1.2000
G01 F120.00
G01 X23.3300 Y3.2000
G01 X23.3306 Y3.1890
G01 X23.3324 Y3.1781
G01 X23.3343 Y3.1710
G01 X23.3367 Y3.1640
G01 X23.3407 Y3.1550
G01 X23.3462 Y3.1455
G01 X23.3527 Y3.1365
G01 X23.3593 Y3.1293
G01 X23.3675 Y3.1219
G01 X23.3744 Y3.1168
G01 X23.3828 Y3.1118
G01 X23.3917 Y3.1076
G01 X23.3986 Y3.1051
G01 X23.4117 Y3.1017
G01 X23.4202 Y3.1005
G01 X23.4300 Y3.1000
G01 X29.4800 Y3.1000
G00 X29.4800 Y3.1000
G01 F60.00
G01 Z-1.6000
G01 F120.00
G01 X23.4300 Y3.1000
G01 X23.4202 Y3.1005
G01 X23.4117 Y3.1017
G01 X23.3986 Y3.1051
G01 X23.3917 Y3.1076
G01 X23.3828 Y3.1118
G01 X23.3744 Y3.1168
G01 X23.3675 Y3.1219
G01 X23.3593 Y3.1293
G01 X23.3527 Y3.1365
G01 X23.3462 Y3.1455
G01 X23.3407 Y3.1550
G01 X23.3367 Y3.1640
G01 X23.3343 Y3.1710
G01 X23.3324 Y3.1781
G01 X23.3306 Y3.1890
G01 X23.3300 Y3.2000
G01 X23.3300 Y7.8000
G00 X23.3300 Y7.8000
G01 F60.00
G01 Z-1.8000
G01 F120.00
G01 X23.3300 Y3.2000
G01 X23.3306 Y3.1890
G01 X23.3324 Y3.1781
G01 X23.3343 Y3.1710
G01 X23.3367 Y3.1640
G01 X23.3407 Y3.1550
G01 X23.3462 Y3.1455
G01 X23.3527 Y3.1365
G01 X23.3593 Y3.1293
G01 X23.3675 Y3.1219
G01 X23.3744 Y3.1168
G01 X23.3828 Y3.1118
G01 X23.3917 Y3.1076
G01 X23.3986 Y3.1051
G01 X23.4117 Y3.1017
G01 X23.4202 Y3.1005
G01 X23.4300 Y3.1000
G01 X29.4800 Y3.1000
G00 Z2.0000
G00 X30.5800 Y3.1000
G01 F60.00
G01 Z-0.4000
G01 F120.00
G01 X36.4312 Y3.1000
G01 X36.4398 Y3.1005
G01 X36.4495 Y3.1019
G01 X36.4590 Y3.1043
G01 X36.4683 Y3.1076
G01 X36.4772 Y3.1118
G01 X36.4856 Y3.1168
G01 X36.4935 Y3.1227
G01 X36.5007 Y3.1293
G01 X36.5073 Y3.1365
G01 X36.5132 Y3.1444
G01 X36.5182 Y3.1528
G01 X36.5224 Y3.1617
G01 X36.5257 Y3.1710
G01 X36.5281 Y3.1805
G01 X36.5295 Y3.1902
G01 X36.5300 Y3.2000
G01 X36.5300 Y7.8000
G01 X36.5294 Y7.8110
G01 X36.5276 Y7.8219
G01 X36.5249 Y7.8314
G01 X36.5224 Y7.8383
G01 X36.5193 Y7.8450
G01 X36.5138 Y7.8545
G01 X36.5073 Y7.8635
G01 X36.5007 Y7.8707
G01 X36.4925 Y7.8781
G01 X36.4856 Y7.8832
G01 X36.4772 Y7.8882
G01 X36.4683 Y7.8924
G01 X36.4614 Y7.8949
G01 X36.4483 Y7.8983
G01 X36.4398 Y7.8995
G01 X36.4300 Y7.9000
G01 X30.5800 Y7.9000
G00 X30.5800 Y7.9000
G01 F60.00
G01 Z-0.8000
G01 F120.00
G01 X36.4300 Y7.9000
G01 X36.4398 Y7.8995
G01 X36.4483 Y7.8983
G01 X36.4614 Y7.8949
G01 X36.4683 Y7.8924
G01 X36.4772 Y7.8882
G01 X36.4856 Y7.8832
G01 X36.4925 Y7.8781
G01 X36.5007 Y7.8707
G01 X36.5073 Y7.8635
G01 X36.5138 Y7.8545
G01 X36.5193 Y7.8450
G01 X36.5224 Y7.8383
G01 X36.5249 Y7.8314
G01 X36.5276 Y7.8219
G01 X36.5294 Y7.8110
G01 X36.5300 Y7.8000
G01 X36.5300 Y3.2000
G01 X36.5295 Y3.1902
G01 X36.5281 Y3.1805
G01 X36.5257 Y3.1710
G01 X36.5224 Y3.1617
G01 X36.5182 Y3.1528
G01 X36.5132 Y3.1444
G01 X36.5073 Y3.1365
G01 X36.5007 Y3.1293
G01 X36.4935 Y3.1227
G01 X36.4856 Y3.1168
G01 X36.4772 Y3.1118
G01 X36.4683 Y3.1076
G01 X36.4590 Y3.1043
G01 X36.4495 Y3.1019
G01 X36.4398 Y3.1005
G01 X36.4312 Y3.1000
G01 X30.5800 Y3.1000
G00 X30.5800 Y3.1000
G01 F60.00
G01 Z-1.2000
G01 F120.00
G01 X36.4312 Y3.1000
G01 X36.4398 Y3.1005
G01 X36.4495 Y3.1019
G01 X36.4590 Y3.1043
G01 X36.4683 Y3.1076
G01 X36.4772 Y3.1118
G01 X36.4856 Y3.1168
G01 X36.4935 Y3.1227
G01 X36.5007 Y3.1293
G01 X36.5073 Y3.1365
G01 X36.5132 Y3.1444
G01 X36.5182 Y3.1528
G01 X36.5224 Y3.1617
G01 X36.5257 Y3.1710
G01 X36.5281 Y3.1805
G01 X36.5295 Y3.1902
G01 X36.5300 Y3.2000
G01 X36.5300 Y7.8000
G01 X36.5294 Y7.8110
G01 X36.5276 Y7.8219
G01 X36.5249 Y7.8314
G01 X36.5224 Y7.8383
G01 X36.5193 Y7.8450
G01 X36.5138 Y7.8545
G01 X36.5073 Y7.8635
G01 X36.5007 Y7.8707
G01 X36.4925 Y7.8781
G01 X36.4856 Y7.8832
G01 X36.4772 Y7.8882
G01 X36.4683 Y7.8924
G01 X36.4614 Y7.8949
G01 X36.4483 Y7.8983
G01 X36.4398 Y7.8995
G01 X36.4300 Y7.9000
G01 X30.5800 Y7.9000
G00 X30.5800 Y7.9000
G01 F60.00
G01 Z-1.6000
G01 F120.00
G01 X36.4300 Y7.9000
G01 X36.4398 Y7.8995
G01 X36.4483 Y7.8983
G01 X36.4614 Y7.8949
G01 X36.4683 Y7.8924
G01 X36.4772 Y7.8882
G01 X36.4856 Y7.8832
G01 X36.4925 Y7.8781
G01 X36.5007 Y7.8707
G01 X36.5073 Y7.8635
G01 X36.5138 Y7.8545
G01 X36.5193 Y7.8450
G01 X36.5224 Y7.8383
G01 X36.5249 Y7.8314
G01 X36.5276 Y7.8219
G01 X36.5294 Y7.8110
G01 X36.5300 Y7.8000
G01 X36.5300 Y3.2000
G01 X36.5295 Y3.1902
G01 X36.5281 Y3.1805
G01 X36.5257 Y3.1710
G01 X36.5224 Y3.1617
G01 X36.5182 Y3.1528
G01 X36.5132 Y3.1444
G01 X36.5073 Y3.1365
G01 X36.5007 Y3.1293
G01 X36.4935 Y3.1227
G01 X36.4856 Y3.1168
G01 X36.4772 Y3.1118
G01 X36.4683 Y3.1076
G01 X36.4590 Y3.1043
G01 X36.4495 Y3.1019
G01 X36.4398 Y3.1005
G01 X36.4312 Y3.1000
G01 X30.5800 Y3.1000
G00 X30.5800 Y3.1000
G01 F60.00
G01 Z-1.8000
G01 F120.00
G01 X36.4312 Y3.1000
G01 X36.4398 Y3.1005
G01 X36.4495 Y3.1019
G01 X36.4590 Y3.1043
G01 X36.4683 Y3.1076
G01 X36.4772 Y3.1118
G01 X36.4856 Y3.1168
G01 X36.4935 Y3.1227
G01 X36.5007 Y3.1293
G01 X36.5073 Y3.1365
G01 X36.5132 Y3.1444
G01 X36.5182 Y3.1528
G01 X36.5224 Y3.1617
G01 X36.5257 Y3.1710
G01 X36.5281 Y3.1805
G01 X36.5295 Y3.1902
G01 X36.5300 Y3.2000
G01 X36.5300 Y7.8000
G01 X36.5294 Y7.8110
G01 X36.5276 Y7.8219
G01 X36.5249 Y7.8314
G01 X36.5224 Y7.8383
G01 X36.5193 Y7.8450
G01 X36.5138 Y7.8545
G01 X36.5073 Y7.8635
G01 X36.5007 Y7.8707
G01 X36.4925 Y7.8781
G01 X36.4856 Y7.8832
G01 X36.4772 Y7.8882
G01 X36.4683 Y7.8924
G01 X36.4614 Y7.8949
G01 X36.4483 Y7.8983
G01 X36.4398 Y7.8995
G01 X36.4300 Y7.9000
G01 X30.5800 Y7.9000
G00 Z2.0000
G00 X29.4800 Y7.9000
G01 F60.00
G01 Z-0.4000
G01 F120.00
G01 X23.4288 Y7.9000
G01 X23.4202 Y7.8995
G01 X23.4105 Y7.8981
G01 X23.4010 Y7.8957
G01 X23.3917 Y7.8924
G01 X23.3828 Y7.8882
G01 X23.3744 Y7.8832
G01 X23.3665 Y7.8773
G01 X23.3593 Y7.8707
G01 X23.3527 Y7.8635
G01 X23.3468 Y7.8556
G01 X23.3418 Y7.8472
G01 X23.3376 Y7.8383
G01 X23.3343 Y7.8290
G01 X23.3319 Y7.8195
G01 X23.3305 Y7.8098
G01 X23.3300 Y7.8000
G00 X23.3300 Y7.8000
G01 F60.00
G01 Z-0.8000
G01 F120.00
G01 X23.3305 Y7.8098
G01 X23.3319 Y7.8195
G01 X23.3343 Y7.8290
G01 X23.3376 Y7.8383
G01 X23.3418 Y7.8472
G01 X23.3468 Y7.8556
G01 X23.3527 Y7.8635
G01 X23.3593 Y7.8707
G01 X23.3665 Y7.8773
G01 X23.3744 Y7.8832
G01 X23.3828 Y7.8882
G01 X23.3917 Y7.8924
G01 X23.4010 Y7.8957
G01 X23.4105 Y7.8981
G01 X23.4202 Y7.8995
G01 X23.4288 Y7.9000
G01 X29.4800 Y7.9000
G00 X29.4800 Y7.9000
G01 F60.00
G01 Z-1.2000
G01 F120.00
G01 X23.4288 Y7.9000
G01 X23.4202 Y7.8995
G01 X23.4105 Y7.8981
G01 X23.4010 Y7.8957
G01 X23.3917 Y7.8924
G01 X23.3828 Y7.8882
G01 X23.3744 Y7.8832
G01 X23.3665 Y7.8773
G01 X23.3593 Y7.8707
G01 X23.3527 Y7.8635
G01 X23.3468 Y7.8556
G01 X23.3418 Y7.8472
G01 X23.3376 Y7.8383
G01 X23.3343 Y7.8290
G01 X23.3319 Y7.8195
G01 X23.3305 Y7.8098
G01 X23.3300 Y7.8000
G00 X23.3300 Y7.8000
G01 F60.00
G01 Z-1.6000
G01 F120.00
G01 X23.3305 Y7.8098
G01 X23.3319 Y7.8195
G01 X23.3343 Y7.8290
G01 X23.3376 Y7.8383
G01 X23.3418 Y7.8472
G01 X23.3468 Y7.8556
G01 X23.3527 Y7.8635
G01 X23.3593 Y7.8707
G01 X23.3665 Y7.8773
G01 X23.3744 Y7.8832
G01 X23.3828 Y7.8882
G01 X23.3917 Y7.8924
G01 X23.4010 Y7.8957
G01 X23.4105 Y7.8981
G01 X23.4202 Y7.8995
G01 X23.4288 Y7.9000
G01 X29.4800 Y7.9000
G00 X29.4800 Y7.9000
G01 F60.00
G01 Z-1.8000
G01 F120.00
G01 X23.4288 Y7.9000
G01 X23.4202 Y7.8995
G01 X23.4105 Y7.8981
G01 X23.4010 Y7.8957
G01 X23.3917 Y7.8924
G01 X23.3828 Y7.8882
G01 X23.3744 Y7.8832
G01 X23.3665 Y7.8773
G01 X23.3593 Y7.8707
G01 X23.3527 Y7.8635
G01 X23.3468 Y7.8556
G01 X23.3418 Y7.8472
G01 X23.3376 Y7.8383
G01 X23.3343 Y7.8290
G01 X23.3319 Y7.8195
G01 X23.3305 Y7.8098
G01 X23.3300 Y7.8000
G00 Z2.0000
G00 X29.4800 Y18.1500
G01 F60.00
G01 Z-0.4000
G01 F120.00
G01 X23.4300 Y18.1500
G01 X23.4190 Y18.1506
G01 X23.4081 Y18.1524
G01 X23.4010 Y18.1543
G01 X23.3940 Y18.1567
G01 X23.3828 Y18.1618
G01 X23.3724 Y18.1682
G01 X23.3665 Y18.1727
G01 X23.3610 Y18.1776
G01 X23.3527 Y18.1865
G01 X23.3462 Y18.1955
G01 X23.3418 Y18.2028
G01 X23.3386 Y18.2095
G01 X23.3343 Y18.2210
G01 X23.3319 Y18.2305
G01 X23.3308 Y18.2378
G01 X23.3300 Y18.2500
G01 X23.3300 Y27.8900
G00 X23.3300 Y27.8900
G01 F60.00
G01 Z-0.8000
G01 F120.00
G01 X23.3300 Y18.2500
G01 X23.3308 Y18.2378
G01 X23.3319 Y18.2305
G01 X23.3343 Y18.2210
G01 X23.3386 Y18.2095
G01 X23.3418 Y18.2028
G01 X23.3462 Y18.1955
G01 X23.3527 Y18.1865
G01 X23.3610 Y18.1776
G01 X23.3665 Y18.1727
G01 X23.3724 Y18.1682
G01 X23.3828 Y18.1618
G01 X23.3940 Y18.1567
G01 X23.4010 Y18.1543
G01 X23.4081 Y18.1524
G01 X23.4190 Y18.1506
G01 X23.4300 Y18.1500
G01 X29.4800 Y18.1500
G00 X29.4800 Y18.1500
G01 F60.00
G01 Z-1.2000
G01 F120.00
G01 X23.4300 Y18.1500
G01 X23.4190 Y18.1506
G01 X23.4081 Y18.1524
G01 X23.4010 Y18.1543
G01 X23.3940 Y18.1567
G01 X23.3828 Y18.1618
G01 X23.3724 Y18.1682
G01 X23.3665 Y18.1727
G01 X23.3610 Y18.1776
G01 X23.3527 Y18.1865
G01 X23.3462 Y18.1955
G01 X23.3418 Y18.2028
G01 X23.3386 Y18.2095
G01 X23.3343 Y18.2210
G01 X23.3319 Y18.2305
G01 X23.3308 Y18.2378
G01 X23.3300 Y18.2500
G01 X23.3300 Y27.8900
G00 X23.3300 Y27.8900
G01 F60.00
G01 Z-1.6000
G01 F120.00
G01 X23.3300 Y18.2500
G01 X23.3308 Y18.2378
G01 X23.3319 Y18.2305
G01 X23.3343 Y18.2210
G01 X23.3386 Y18.2095
G01 X23.3418 Y18.2028
G01 X23.3462 Y18.1955
G01 X23.3527 Y18.1865
G01 X23.3610 Y18.1776
G01 X23.3665 Y18.1727
G01 X23.3724 Y18.1682
G01 X23.3828 Y18.1618
G01 X23.3940 Y18.1567
G01 X23.4010 Y18.1543
G01 X23.4081 Y18.1524
G01 X23.4190 Y18.1506
G01 X23.4300 Y18.1500
G01 X29.4800 Y18.1500
G00 X29.4800 Y18.1500
G01 F60.00
G01 Z-1.8000
G01 F120.00
G01 X23.4300 Y18.1500
G01 X23.4190 Y18.1506
G01 X23.4081 Y18.1524
G01 X23.4010 Y18.1543
G01 X23.3940 Y18.1567
G01 X23.3828 Y18.1618
G01 X23.3724 Y18.1682
G01 X23.3665 Y18.1727
G01 X23.3610 Y18.1776
G01 X23.3527 Y18.1865
G01 X23.3462 Y18.1955
G01 X23.3418 Y18.2028
G01 X23.3386 Y18.2095
G01 X23.3343 Y18.2210
G01 X23.3319 Y18.2305
G01 X23.3308 Y18.2378
G01 X23.3300 Y18.2500
G01 X23.3300 Y27.8900
G00 Z2.0000
G00 X30.5800 Y18.1500
G01 F60.00
G01 Z-0.4000
G01 F120.00
G01 X36.4312 Y18.1500
G01 X36.4398 Y18.1505
G01 X36.4495 Y18.1519
G01 X36.4590 Y18.1543
G01 X36.4683 Y18.1576
G01 X36.4772 Y18.1618
G01 X36.4856 Y18.1668
G01 X36.4935 Y18.1727
G01 X36.5007 Y18.1793
G01 X36.5073 Y18.1865
G01 X36.5132 Y18.1944
G01 X36.5182 Y18.2028
G01 X36.5224 Y18.2117
G01 X36.5257 Y18.2210
G01 X36.5281 Y18.2305
G01 X36.5295 Y18.2402
G01 X36.5300 Y18.2500
G01 X36.5300 Y27.8900
G01 X36.5292 Y27.9022
G01 X36.5281 Y27.9095
G01 X36.5257 Y27.9190
G01 X36.5214 Y27.9305
G01 X36.5182 Y27.9372
G01 X36.5145 Y27.9435
G01 X36.5073 Y27.9535
G01 X36.4998 Y27.9616
G01 X36.4915 Y27.9688
G01 X36.4856 Y27.9732
G01 X36.4782 Y27.9776
G01 X36.4683 Y27.9824
G01 X36.4567 Y27.9864
G01 X36.4495 Y27.9881
G01 X36.4422 Y27.9892
G01 X36.4300 Y27.9900
G01 X30.5800 Y27.9900
G00 X30.5800 Y27.9900
G01 F60.00
G01 Z-0.8000
G01 F120.00
G01 X36.4300 Y27.9900
G01 X36.4422 Y27.9892
G01 X36.4495 Y27.9881
G01 X36.4567 Y27.9864
G01 X36.4683 Y27.9824
G01 X36.4782 Y27.9776
G01 X36.4856 Y27.9732
G01 X36.4915 Y27.9688
G01 X36.4998 Y27.9616
G01 X36.5073 Y27.9535
G01 X36.5145 Y27.9435
G01 X36.5182 Y27.9372
G01 X36.5214 Y27.9305
G01 X36.5257 Y27.9190
G01 X36.5281 Y27.9095
G01 X36.5292 Y27.9022
G01 X36.5300 Y27.8900
G01 X36.5300 Y18.2500
G01 X36.5295 Y18.2402
G01 X36.5281 Y18.2305
G01 X36.5257 Y18.2210
G01 X36.5224 Y18.2117
G01 X36.5182 Y18.2028
G01 X36.5132 Y18.1944
G01 X36.5073 Y18.1865
G01 X36.5007 Y18.1793
G01 X36.4935 Y18.1727
G01 X36.4856 Y18.1668
G01 X36.4772 Y18.1618
G01 X36.4683 Y18.1576
G01 X36.4590 Y18.1543
G01 X36.4495 Y18.1519
G01 X36.4398 Y18.1505
G01 X36.4312 Y18.1500
G01 X30.5800 Y18.1500
G00 X30.5800 Y18.1500
G01 F60.00
G01 Z-1.2000
G01 F120.00
G01 X36.4312 Y18.1500
G01 X36.4398 Y18.1505
G01 X36.4495 Y18.1519
G01 X36.4590 Y18.1543
G01 X36.4683 Y18.1576
G01 X36.4772 Y18.1618
G01 X36.4856 Y18.1668
G01 X36.4935 Y18.1727
G01 X36.5007 Y18.1793
G01 X36.5073 Y18.1865
G01 X36.5132 Y18.1944
G01 X36.5182 Y18.2028
G01 X36.5224 Y18.2117
G01 X36.5257 Y18.2210
G01 X36.5281 Y18.2305
G01 X36.5295 Y18.2402
G01 X36.5300 Y18.2500
G01 X36.5300 Y27.8900
G01 X36.5292 Y27.9022
G01 X36.5281 Y27.9095
G01 X36.5257 Y27.9190
G01 X36.5214 Y27.9305
G01 X36.5182 Y27.9372
G01 X36.5145 Y27.9435
G01 X36.5073 Y27.9535
G01 X36.4998 Y27.9616
G01 X36.4915 Y27.9688
G01 X36.4856 Y27.9732
G01 X36.4782 Y27.9776
G01 X36.4683 Y27.9824
G01 X36.4567 Y27.9864
G01 X36.4495 Y27.9881
G01 X36.4422 Y27.9892
G01 X36.4300 Y27.9900
G01 X30.5800 Y27.9900
G00 X30.5800 Y27.9900
G01 F60.00
G01 Z-1.6000
G01 F120.00
G01 X36.4300 Y27.9900
G01 X36.4422 Y27.9892
G01 X36.4495 Y27.9881
G01 X36.4567 Y27.9864
G01 X36.4683 Y27.9824
G01 X36.4782 Y27.9776
G01 X36.4856 Y27.9732
G01 X36.4915 Y27.9688
G01 X36.4998 Y27.9616
G01 X36.5073 Y27.9535
G01 X36.5145 Y27.9435
G01 X36.5182 Y27.9372
G01 X36.5214 Y27.9305
G01 X36.5257 Y27.9190
G01 X36.5281 Y27.9095
G01 X36.5292 Y27.9022
G01 X36.5300 Y27.8900
G01 X36.5300 Y18.2500
G01 X36.5295 Y18.2402
G01 X36.5281 Y18.2305
G01 X36.5257 Y18.2210
G01 X36.5224 Y18.2117
G01 X36.5182 Y18.2028
G01 X36.5132 Y18.1944
G01 X36.5073 Y18.1865
G01 X36.5007 Y18.1793
G01 X36.4935 Y18.1727
G01 X36.4856 Y18.1668
G01 X36.4772 Y18.1618
G01 X36.4683 Y18.1576
G01 X36.4590 Y18.1543
G01 X36.4495 Y18.1519
G01 X36.4398 Y18.1505
G01 X36.4312 Y18.1500
G01 X30.5800 Y18.1500
G00 X30.5800 Y18.1500
G01 F60.00
G01 Z-1.8000
G01 F120.00
G01 X36.4312 Y18.1500
G01 X36.4398 Y18.1505
G01 X36.4495 Y18.1519
G01 X36.4590 Y18.1543
G01 X36.4683 Y18.1576
G01 X36.4772 Y18.1618
G01 X36.4856 Y18.1668
G01 X36.4935 Y18.1727
G01 X36.5007 Y18.1793
G01 X36.5073 Y18.1865
G01 X36.5132 Y18.1944
G01 X36.5182 Y18.2028
G01 X36.5224 Y18.2117
G01 X36.5257 Y18.2210
G01 X36.5281 Y18.2305
G01 X36.5295 Y18.2402
G01 X36.5300 Y18.2500
G01 X36.5300 Y27.8900
G01 X36.5292 Y27.9022
G01 X36.5281 Y27.9095
G01 X36.5257 Y27.9190
G01 X36.5214 Y27.9305
G01 X36.5182 Y27.9372
G01 X36.5145 Y27.9435
G01 X36.5073 Y27.9535
G01 X36.4998 Y27.9616
G01 X36.4915 Y27.9688
G01 X36.4856 Y27.9732
G01 X36.4782 Y27.9776
G01 X36.4683 Y27.9824
G01 X36.4567 Y27.9864
G01 X36.4495 Y27.9881
G01 X36.4422 Y27.9892
G01 X36.4300 Y27.9900
G01 X30.5800 Y27.9900
G00 Z2.0000
G00 X29.4800 Y27.9900
G01 F60.00
G01 Z-0.4000
G01 F120.00
G01 X23.4288 Y27.9900
G01 X23.4202 Y27.9895
G01 X23.4105 Y27.9881
G01 X23.4010 Y27.9857
G01 X23.3917 Y27.9824
G01 X23.3828 Y27.9782
G01 X23.3744 Y27.9732
G01 X23.3665 Y27.9673
G01 X23.3593 Y27.9607
G01 X23.3527 Y27.9535
G01 X23.3468 Y27.9456
G01 X23.3418 Y27.9372
G01 X23.3376 Y27.9283
G01 X23.3343 Y27.9190
G01 X23.3319 Y27.9095
G01 X23.3305 Y27.8998
G01 X23.3300 Y27.8900
G00 X23.3300 Y27.8900
G01 F60.00
G01 Z-0.8000
G01 F120.00
G01 X23.3305 Y27.8998
G01 X23.3319 Y27.9095
G01 X23.3343 Y27.9190
G01 X23.3376 Y27.9283
G01 X23.3418 Y27.9372
G01 X23.3468 Y27.9456
G01 X23.3527 Y27.9535
G01 X23.3593 Y27.9607
G01 X23.3665 Y27.9673
G01 X23.3744 Y27.9732
G01 X23.3828 Y27.9782
G01 X23.3917 Y27.9824
G01 X23.4010 Y27.9857
G01 X23.4105 Y27.9881
G01 X23.4202 Y27.9895
G01 X23.4288 Y27.9900
G01 X29.4800 Y27.9900
G00 X29.4800 Y27.9900
G01 F60.00
G01 Z-1.2000
G01 F120.00
G01 X23.4288 Y27.9900
G01 X23.4202 Y27.9895
G01 X23.4105 Y27.9881
G01 X23.4010 Y27.9857
G01 X23.3917 Y27.9824
G01 X23.3828 Y27.9782
G01 X23.3744 Y27.9732
G01 X23.3665 Y27.9673
G01 X23.3593 Y27.9607
G01 X23.3527 Y27.9535
G01 X23.3468 Y27.9456
G01 X23.3418 Y27.9372
G01 X23.3376 Y27.9283
G01 X23.3343 Y27.9190
G01 X23.3319 Y27.9095
G01 X23.3305 Y27.8998
G01 X23.3300 Y27.8900
G00 X23.3300 Y27.8900
G01 F60.00
G01 Z-1.6000
G01 F120.00
G01 X23.3305 Y27.8998
G01 X23.3319 Y27.9095
G01 X23.3343 Y27.9190
G01 X23.3376 Y27.9283
G01 X23.3418 Y27.9372
G01 X23.3468 Y27.9456
G01 X23.3527 Y27.9535
G01 X23.3593 Y27.9607
G01 X23.3665 Y27.9673
G01 X23.3744 Y27.9732
G01 X23.3828 Y27.9782
G01 X23.3917 Y27.9824
G01 X23.4010 Y27.9857
G01 X23.4105 Y27.9881
G01 X23.4202 Y27.9895
G01 X23.4288 Y27.9900
G01 X29.4800 Y27.9900
G00 X29.4800 Y27.9900
G01 F60.00
G01 Z-1.8000
G01 F120.00
G01 X23.4288 Y27.9900
G01 X23.4202 Y27.9895
G01 X23.4105 Y27.9881
G01 X23.4010 Y27.9857
G01 X23.3917 Y27.9824
G01 X23.3828 Y27.9782
G01 X23.3744 Y27.9732
G01 X23.3665 Y27.9673
G01 X23.3593 Y27.9607
G01 X23.3527 Y27.9535
G01 X23.3468 Y27.9456
G01 X23.3418 Y27.9372
G01 X23.3376 Y27.9283
G01 X23.3343 Y27.9190
G01 X23.3319 Y27.9095
G01 X23.3305 Y27.8998
G01 X23.3300 Y27.8900
G00 Z2.0000
G00 X29.4800 Y38.2100
G01 F60.00
G01 Z-0.4000
G01 F120.00
G01 X23.4300 Y38.2100
G01 X23.4190 Y38.2106
G01 X23.4081 Y38.2124
G01 X23.4010 Y38.2143
G01 X23.3940 Y38.2167
G01 X23.3828 Y38.2218
G01 X23.3724 Y38.2282
G01 X23.3665 Y38.2327
G01 X23.3610 Y38.2376
G01 X23.3527 Y38.2465
G01 X23.3462 Y38.2555
G01 X23.3418 Y38.2628
G01 X23.3386 Y38.2695
G01 X23.3343 Y38.2810
G01 X23.3319 Y38.2905
G01 X23.3308 Y38.2978
G01 X23.3300 Y38.3100
G01 X23.3300 Y47.9500
G00 X23.3300 Y47.9500
G01 F60.00
G01 Z-0.8000
G01 F120.00
G01 X23.3300 Y38.3100
G01 X23.3308 Y38.2978
G01 X23.3319 Y38.2905
G01 X23.3343 Y38.2810
G01 X23.3386 Y38.2695
G01 X23.3418 Y38.2628
G01 X23.3462 Y38.2555
G01 X23.3527 Y38.2465
G01 X23.3610 Y38.2376
G01 X23.3665 Y38.2327
G01 X23.3724 Y38.2282
G01 X23.3828 Y38.2218
G01 X23.3940 Y38.2167
G01 X23.4010 Y38.2143
G01 X23.4081 Y38.2124
G01 X23.4190 Y38.2106
G01 X23.4300 Y38.2100
G01 X29.4800 Y38.2100
G00 X29.4800 Y38.2100
G01 F60.00
G01 Z-1.2000
G01 F120.00
G01 X23.4300 Y38.2100
G01 X23.4190 Y38.2106
G01 X23.4081 Y38.2124
G01 X23.4010 Y38.2143
G01 X23.3940 Y38.2167
G01 X23.3828 Y38.2218
G01 X23.3724 Y38.2282
G01 X23.3665 Y38.2327
G01 X23.3610 Y38.2376
G01 X23.3527 Y38.2465
G01 X23.3462 Y38.2555
G01 X23.3418 Y38.2628
G01 X23.3386 Y38.2695
G01 X23.3343 Y38.2810
G01 X23.3319 Y38.2905
G01 X23.3308 Y38.2978
G01 X23.3300 Y38.3100
G01 X23.3300 Y47.9500
G00 X23.3300 Y47.9500
G01 F60.00
G01 Z-1.6000
G01 F120.00
G01 X23.3300 Y38.3100
G01 X23.3308 Y38.2978
G01 X23.3319 Y38.2905
G01 X23.3343 Y38.2810
G01 X23.3386 Y38.2695
G01 X23.3418 Y38.2628
G01 X23.3462 Y38.2555
G01 X23.3527 Y38.2465
G01 X23.3610 Y38.2376
G01 X23.3665 Y38.2327
G01 X23.3724 Y38.2282
G01 X23.3828 Y38.2218
G01 X23.3940 Y38.2167
G01 X23.4010 Y38.2143
G01 X23.4081 Y38.2124
G01 X23.4190 Y38.2106
G01 X23.4300 Y38.2100
G01 X29.4800 Y38.2100
G00 X29.4800 Y38.2100
G01 F60.00
G01 Z-1.8000
G01 F120.00
G01 X23.4300 Y38.2100
G01 X23.4190 Y38.2106
G01 X23.4081 Y38.2124
G01 X23.4010 Y38.2143
G01 X23.3940 Y38.2167
G01 X23.3828 Y38.2218
G01 X23.3724 Y38.2282
G01 X23.3665 Y38.2327
G01 X23.3610 Y38.2376
G01 X23.3527 Y38.2465
G01 X23.3462 Y38.2555
G01 X23.3418 Y38.2628
G01 X23.3386 Y38.2695
G01 X23.3343 Y38.2810
G01 X23.3319 Y38.2905
G01 X23.3308 Y38.2978
G01 X23.3300 Y38.3100
G01 X23.3300 Y47.9500
G00 Z2.0000
G00 X30.5800 Y38.2100
G01 F60.00
G01 Z-0.4000
G01 F120.00
G01 X36.4312 Y38.2100
G01 X36.4398 Y38.2105
G01 X36.4495 Y38.2119
G01 X36.4590 Y38.2143
G01 X36.4683 Y38.2176
G01 X36.4772 Y38.2218
G01 X36.4856 Y38.2268
G01 X36.4935 Y38.2327
G01 X36.5007 Y38.2393
G01 X36.5073 Y38.2465
G01 X36.5132 Y38.2544
G01 X36.5182 Y38.2628
G01 X36.5224 Y38.2717
G01 X36.5257 Y38.2810
G01 X36.5281 Y38.2905
G01 X36.5295 Y38.3002
G01 X36.5300 Y38.3100
G01 X36.5300 Y47.9500
G01 X36.5292 Y47.9622
G01 X36.5281 Y47.9695
G01 X36.5257 Y47.9790
G01 X36.5214 Y47.9905
G01 X36.5182 Y47.9972
G01 X36.5145 Y48.0035
G01 X36.5073 Y48.0135
G01 X36.4998 Y48.0216
G01 X36.4915 Y48.0288
G01 X36.4856 Y48.0332
G01 X36.4782 Y48.0376
G01 X36.4683 Y48.0424
G01 X36.4567 Y48.0464
G01 X36.4495 Y48.0481
G01 X36.4422 Y48.0492
G01 X36.4300 Y48.0500
G01 X30.5800 Y48.0500
G00 X30.5800 Y48.0500
G01 F60.00
G01 Z-0.8000
G01 F120.00
G01 X36.4300 Y48.0500
G01 X36.4422 Y48.0492
G01 X36.4495 Y48.0481
G01 X36.4567 Y48.0464
G01 X36.4683 Y48.0424
G01 X36.4782 Y48.0376
G01 X36.4856 Y48.0332
G01 X36.4915 Y48.0288
G01 X36.4998 Y48.0216
G01 X36.5073 Y48.0135
G01 X36.5145 Y48.0035
G01 X36.5182 Y47.9972
G01 X36.5214 Y47.9905
G01 X36.5257 Y47.9790
G01 X36.5281 Y47.9695
G01 X36.5292 Y47.9622
G01 X36.5300 Y47.9500
G01 X36.5300 Y38.3100
G01 X36.5295 Y38.3002
G01 X36.5281 Y38.2905
G01 X36.5257 Y38.2810
G01 X36.5224 Y38.2717
G01 X36.5182 Y38.2628
G01 X36.5132 Y38.2544
G01 X36.5073 Y38.2465
G01 X36.5007 Y38.2393
G01 X36.4935 Y38.2327
G01 X36.4856 Y38.2268
G01 X36.4772 Y38.2218
G01 X36.4683 Y38.2176
G01 X36.4590 Y38.2143
G01 X36.4495 Y38.2119
G01 X36.4398 Y38.2105
G01 X36.4312 Y38.2100
G01 X30.5800 Y38.2100
G00 X30.5800 Y38.2100
G01 F60.00
G01 Z-1.2000
G01 F120.00
G01 X36.4312 Y38.2100
G01 X36.4398 Y38.2105
G01 X36.4495 Y38.2119
G01 X36.4590 Y38.2143
G01 X36.4683 Y38.2176
G01 X36.4772 Y38.2218
G01 X36.4856 Y38.2268
G01 X36.4935 Y38.2327
G01 X36.5007 Y38.2393
G01 X36.5073 Y38.2465
G01 X36.5132 Y38.2544
G01 X36.5182 Y38.2628
G01 X36.5224 Y38.2717
G01 X36.5257 Y38.2810
G01 X36.5281 Y38.2905
G01 X36.5295 Y38.3002
G01 X36.5300 Y38.3100
G01 X36.5300 Y47.9500
G01 X36.5292 Y47.9622
G01 X36.5281 Y47.9695
G01 X36.5257 Y47.9790
G01 X36.5214 Y47.9905
G01 X36.5182 Y47.9972
G01 X36.5145 Y48.0035
G01 X36.5073 Y48.0135
G01 X36.4998 Y48.0216
G01 X36.4915 Y48.0288
G01 X36.4856 Y48.0332
G01 X36.4782 Y48.0376
G01 X36.4683 Y48.0424
G01 X36.4567 Y48.0464
G01 X36.4495 Y48.0481
G01 X36.4422 Y48.0492
G01 X36.4300 Y48.0500
G01 X30.5800 Y48.0500
G00 X30.5800 Y48.0500
G01 F60.00
G01 Z-1.6000
G01 F120.00
G01 X36.4300 Y48.0500
G01 X36.4422 Y48.0492
G01 X36.4495 Y48.0481
G01 X36.4567 Y48.0464
G01 X36.4683 Y48.0424
G01 X36.4782 Y48.0376
G01 X36.4856 Y48.0332
G01 X36.4915 Y48.0288
G01 X36.4998 Y48.0216
G01 X36.5073 Y48.0135
G01 X36.5145 Y48.0035
G01 X36.5182 Y47.9972
G01 X36.5214 Y47.9905
G01 X36.5257 Y47.9790
G01 X36.5281 Y47.9695
G01 X36.5292 Y47.9622
G01 X36.5300 Y47.9500
G01 X36.5300 Y38.3100
G01 X36.5295 Y38.3002
G01 X36.5281 Y38.2905
G01 X36.5257 Y38.2810
G01 X36.5224 Y38.2717
G01 X36.5182 Y38.2628
G01 X36.5132 Y38.2544
G01 X36.5073 Y38.2465
G01 X36.5007 Y38.2393
G01 X36.4935 Y38.2327
G01 X36.4856 Y38.2268
G01 X36.4772 Y38.2218
G01 X36.4683 Y38.2176
G01 X36.4590 Y38.2143
G01 X36.4495 Y38.2119
G01 X36.4398 Y38.2105
G01 X36.4312 Y38.2100
G01 X30.5800 Y38.2100
G00 X30.5800 Y38.2100
G01 F60.00
G01 Z-1.8000
G01 F120.00
G01 X36.4312 Y38.2100
G01 X36.4398 Y38.2105
G01 X36.4495 Y38.2119
G01 X36.4590 Y38.2143
G01 X36.4683 Y38.2176
G01 X36.4772 Y38.2218
G01 X36.4856 Y38.2268
G01 X36.4935 Y38.2327
G01 X36.5007 Y38.2393
G01 X36.5073 Y38.2465
G01 X36.5132 Y38.2544
G01 X36.5182 Y38.2628
G01 X36.5224 Y38.2717
G01 X36.5257 Y38.2810
G01 X36.5281 Y38.2905
G01 X36.5295 Y38.3002
G01 X36.5300 Y38.3100
G01 X36.5300 Y47.9500
G01 X36.5292 Y47.9622
G01 X36.5281 Y47.9695
G01 X36.5257 Y47.9790
G01 X36.5214 Y47.9905
G01 X36.5182 Y47.9972
G01 X36.5145 Y48.0035
G01 X36.5073 Y48.0135
G01 X36.4998 Y48.0216
G01 X36.4915 Y48.0288
G01 X36.4856 Y48.0332
G01 X36.4782 Y48.0376
G01 X36.4683 Y48.0424
G01 X36.4567 Y48.0464
G01 X36.4495 Y48.0481
G01 X36.4422 Y48.0492
G01 X36.4300 Y48.0500
G01 X30.5800 Y48.0500
G00 Z2.0000
G00 X29.4800 Y48.0500
G01 F60.00
G01 Z-0.4000
G01 F120.00
G01 X23.4288 Y48.0500
G01 X23.4202 Y48.0495
G01 X23.4105 Y48.0481
G01 X23.4010 Y48.0457
G01 X23.3917 Y48.0424
G01 X23.3828 Y48.0382
G01 X23.3744 Y48.0332
G01 X23.3665 Y48.0273
G01 X23.3593 Y48.0207
G01 X23.3527 Y48.0135
G01 X23.3468 Y48.0056
G01 X23.3418 Y47.9972
G01 X23.3376 Y47.9883
G01 X23.3343 Y47.9790
G01 X23.3319 Y47.9695
G01 X23.3305 Y47.9598
G01 X23.3300 Y47.9500
G00 X23.3300 Y47.9500
G01 F60.00
G01 Z-0.8000
G01 F120.00
G01 X23.3305 Y47.9598
G01 X23.3319 Y47.9695
G01 X23.3343 Y47.9790
G01 X23.3376 Y47.9883
G01 X23.3418 Y47.9972
G01 X23.3468 Y48.0056
G01 X23.3527 Y48.0135
G01 X23.3593 Y48.0207
G01 X23.3665 Y48.0273
G01 X23.3744 Y48.0332
G01 X23.3828 Y48.0382
G01 X23.3917 Y48.0424
G01 X23.4010 Y48.0457
G01 X23.4105 Y48.0481
G01 X23.4202 Y48.0495
G01 X23.4288 Y48.0500
G01 X29.4800 Y48.0500
G00 X29.4800 Y48.0500
G01 F60.00
G01 Z-1.2000
G01 F120.00
G01 X23.4288 Y48.0500
G01 X23.4202 Y48.0495
G01 X23.4105 Y48.0481
G01 X23.4010 Y48.0457
G01 X23.3917 Y48.0424
G01 X23.3828 Y48.0382
G01 X23.3744 Y48.0332
G01 X23.3665 Y48.0273
G01 X23.3593 Y48.0207
G01 X23.3527 Y48.0135
G01 X23.3468 Y48.0056
G01 X23.3418 Y47.9972
G01 X23.3376 Y47.9883
G01 X23.3343 Y47.9790
G01 X23.3319 Y47.9695
G01 X23.3305 Y47.9598
G01 X23.3300 Y47.9500
G00 X23.3300 Y47.9500
G01 F60.00
G01 Z-1.6000
G01 F120.00
G01 X23.3305 Y47.9598
G01 X23.3319 Y47.9695
G01 X23.3343 Y47.9790
G01 X23.3376 Y47.9883
G01 X23.3418 Y47.9972
G01 X23.3468 Y48.0056
G01 X23.3527 Y48.0135
G01 X23.3593 Y48.0207
G01 X23.3665 Y48.0273
G01 X23.3744 Y48.0332
G01 X23.3828 Y48.0382
G01 X23.3917 Y48.0424
G01 X23.4010 Y48.0457
G01 X23.4105 Y48.0481
G01 X23.4202 Y48.0495
G01 X23.4288 Y48.0500
G01 X29.4800 Y48.0500
G00 X29.4800 Y48.0500
G01 F60.00
G01 Z-1.8000
G01 F120.00
G01 X23.4288 Y48.0500
G01 X23.4202 Y48.0495
G01 X23.4105 Y48.0481
G01 X23.4010 Y48.0457
G01 X23.3917 Y48.0424
G01 X23.3828 Y48.0382
G01 X23.3744 Y48.0332
G01 X23.3665 Y48.0273
G01 X23.3593 Y48.0207
G01 X23.3527 Y48.0135
G01 X23.3468 Y48.0056
G01 X23.3418 Y47.9972
G01 X23.3376 Y47.9883
G01 X23.3343 Y47.9790
G01 X23.3319 Y47.9695
G01 X23.3305 Y47.9598
G01 X23.3300 Y47.9500
G00 Z2.0000
G00 X29.4800 Y58.0500
G01 F60.00
G01 Z-0.4000
G01 F120.00
G01 X23.4300 Y58.0500
G01 X23.4190 Y58.0506
G01 X23.4081 Y58.0524
G01 X23.4010 Y58.0543
G01 X23.3940 Y58.0567
G01 X23.3828 Y58.0618
G01 X23.3724 Y58.0682
G01 X23.3665 Y58.0727
G01 X23.3610 Y58.0776
G01 X23.3527 Y58.0865
G01 X23.3462 Y58.0955
G01 X23.3418 Y58.1028
G01 X23.3386 Y58.1095
G01 X23.3343 Y58.1210
G01 X23.3319 Y58.1305
G01 X23.3308 Y58.1378
G01 X23.3300 Y58.1500
G01 X23.3300 Y67.7900
G00 X23.3300 Y67.7900
G01 F60.00
G01 Z-0.8000
G01 F120.00
G01 X23.3300 Y58.1500
G01 X23.3308 Y58.1378
G01 X23.3319 Y58.1305
G01 X23.3343 Y58.1210
G01 X23.3386 Y58.1095
G01 X23.3418 Y58.1028
G01 X23.3462 Y58.0955
G01 X23.3527 Y58.0865
G01 X23.3610 Y58.0776
G01 X23.3665 Y58.0727
G01 X23.3724 Y58.0682
G01 X23.3828 Y58.0618
G01 X23.3940 Y58.0567
G01 X23.4010 Y58.0543
G01 X23.4081 Y58.0524
G01 X23.4190 Y58.0506
G01 X23.4300 Y58.0500
G01 X29.4800 Y58.0500
G00 X29.4800 Y58.0500
G01 F60.00
G01 Z-1.2000
G01 F120.00
G01 X23.4300 Y58.0500
G01 X23.4190 Y58.0506
G01 X23.4081 Y58.0524
G01 X23.4010 Y58.0543
G01 X23.3940 Y58.0567
G01 X23.3828 Y58.0618
G01 X23.3724 Y58.0682
G01 X23.3665 Y58.0727
G01 X23.3610 Y58.0776
G01 X23.3527 Y58.0865
G01 X23.3462 Y58.0955
G01 X23.3418 Y58.1028
G01 X23.3386 Y58.1095
G01 X23.3343 Y58.1210
G01 X23.3319 Y58.1305
G01 X23.3308 Y58.1378
G01 X23.3300 Y58.1500
G01 X23.3300 Y67.7900
G00 X23.3300 Y67.7900
G01 F60.00
G01 Z-1.6000
G01 F120.00
G01 X23.3300 Y58.1500
G01 X23.3308 Y58.1378
G01 X23.3319 Y58.1305
G01 X23.3343 Y58.1210
G01 X23.3386 Y58.1095
G01 X23.3418 Y58.1028
G01 X23.3462 Y58.0955
G01 X23.3527 Y58.0865
G01 X23.3610 Y58.0776
G01 X23.3665 Y58.0727
G01 X23.3724 Y58.0682
G01 X23.3828 Y58.0618
G01 X23.3940 Y58.0567
G01 X23.4010 Y58.0543
G01 X23.4081 Y58.0524
G01 X23.4190 Y58.0506
G01 X23.4300 Y58.0500
G01 X29.4800 Y58.0500
G00 X29.4800 Y58.0500
G01 F60.00
G01 Z-1.8000
G01 F120.00
G01 X23.4300 Y58.0500
G01 X23.4190 Y58.0506
G01 X23.4081 Y58.0524
G01 X23.4010 Y58.0543
G01 X23.3940 Y58.0567
G01 X23.3828 Y58.0618
G01 X23.3724 Y58.0682
G01 X23.3665 Y58.0727
G01 X23.3610 Y58.0776
G01 X23.3527 Y58.0865
G01 X23.3462 Y58.0955
G01 X23.3418 Y58.1028
G01 X23.3386 Y58.1095
G01 X23.3343 Y58.1210
G01 X23.3319 Y58.1305
G01 X23.3308 Y58.1378
G01 X23.3300 Y58.1500
G01 X23.3300 Y67.7900
G00 Z2.0000
G00 X30.5800 Y58.0500
G01 F60.00
G01 Z-0.4000
G01 F120.00
G01 X36.4312 Y58.0500
G01 X36.4398 Y58.0505
G01 X36.4495 Y58.0519
G01 X36.4590 Y58.0543
G01 X36.4683 Y58.0576
G01 X36.4772 Y58.0618
G01 X36.4856 Y58.0668
G01 X36.4935 Y58.0727
G01 X36.5007 Y58.0793
G01 X36.5073 Y58.0865
G01 X36.5132 Y58.0944
G01 X36.5182 Y58.1028
G01 X36.5224 Y58.1117
G01 X36.5257 Y58.1210
G01 X36.5281 Y58.1305
G01 X36.5295 Y58.1402
G01 X36.5300 Y58.1500
G01 X36.5300 Y67.7900
G01 X36.5292 Y67.8022
G01 X36.5281 Y67.8095
G01 X36.5257 Y67.8190
G01 X36.5214 Y67.8305
G01 X36.5182 Y67.8372
G01 X36.5145 Y67.8435
G01 X36.5073 Y67.8535
G01 X36.4998 Y67.8616
G01 X36.4915 Y67.8688
G01 X36.4856 Y67.8732
G01 X36.4782 Y67.8776
G01 X36.4683 Y67.8824
G01 X36.4567 Y67.8864
G01 X36.4495 Y67.8881
G01 X36.4422 Y67.8892
G01 X36.4300 Y67.8900
G01 X30.5800 Y67.8900
G00 X30.5800 Y67.8900
G01 F60.00
G01 Z-0.8000
G01 F120.00
G01 X36.4300 Y67.8900
G01 X36.4422 Y67.8892
G01 X36.4495 Y67.8881
G01 X36.4567 Y67.8864
G01 X36.4683 Y67.8824
G01 X36.4782 Y67.8776
G01 X36.4856 Y67.8732
G01 X36.4915 Y67.8688
G01 X36.4998 Y67.8616
G01 X36.5073 Y67.8535
G01 X36.5145 Y67.8435
G01 X36.5182 Y67.8372
G01 X36.5214 Y67.8305
G01 X36.5257 Y67.8190
G01 X36.5281 Y67.8095
G01 X36.5292 Y67.8022
G01 X36.5300 Y67.7900
G01 X36.5300 Y58.1500
G01 X36.5295 Y58.1402
G01 X36.5281 Y58.1305
G01 X36.5257 Y58.1210
G01 X36.5224 Y58.1117
G01 X36.5182 Y58.1028
G01 X36.5132 Y58.0944
G01 X36.5073 Y58.0865
G01 X36.5007 Y58.0793
G01 X36.4935 Y58.0727
G01 X36.4856 Y58.0668
G01 X36.4772 Y58.0618
G01 X36.4683 Y58.0576
G01 X36.4590 Y58.0543
G01 X36.4495 Y58.0519
G01 X36.4398 Y58.0505
G01 X36.4312 Y58.0500
G01 X30.5800 Y58.0500
G00 X30.5800 Y58.0500
G01 F60.00
G01 Z-1.2000
G01 F120.00
G01 X36.4312 Y58.0500
G01 X36.4398 Y58.0505
G01 X36.4495 Y58.0519
G01 X36.4590 Y58.0543
G01 X36.4683 Y58.0576
G01 X36.4772 Y58.0618
G01 X36.4856 Y58.0668
G01 X36.4935 Y58.0727
G01 X36.5007 Y58.0793
G01 X36.5073 Y58.0865
G01 X36.5132 Y58.0944
G01 X36.5182 Y58.1028
G01 X36.5224 Y58.1117
G01 X36.5257 Y58.1210
G01 X36.5281 Y58.1305
G01 X36.5295 Y58.1402
G01 X36.5300 Y58.1500
G01 X36.5300 Y67.7900
G01 X36.5292 Y67.8022
G01 X36.5281 Y67.8095
G01 X36.5257 Y67.8190
G01 X36.5214 Y67.8305
G01 X36.5182 Y67.8372
G01 X36.5145 Y67.8435
G01 X36.5073 Y67.8535
G01 X36.4998 Y67.8616
G01 X36.4915 Y67.8688
G01 X36.4856 Y67.8732
G01 X36.4782 Y67.8776
G01 X36.4683 Y67.8824
G01 X36.4567 Y67.8864
G01 X36.4495 Y67.8881
G01 X36.4422 Y67.8892
G01 X36.4300 Y67.8900
G01 X30.5800 Y67.8900
G00 X30.5800 Y67.8900
G01 F60.00
G01 Z-1.6000
G01 F120.00
G01 X36.4300 Y67.8900
G01 X36.4422 Y67.8892
G01 X36.4495 Y67.8881
G01 X36.4567 Y67.8864
G01 X36.4683 Y67.8824
G01 X36.4782 Y67.8776
G01 X36.4856 Y67.8732
G01 X36.4915 Y67.8688
G01 X36.4998 Y67.8616
G01 X36.5073 Y67.8535
G01 X36.5145 Y67.8435
G01 X36.5182 Y67.8372
G01 X36.5214 Y67.8305
G01 X36.5257 Y67.8190
G01 X36.5281 Y67.8095
G01 X36.5292 Y67.8022
G01 X36.5300 Y67.7900
G01 X36.5300 Y58.1500
G01 X36.5295 Y58.1402
G01 X36.5281 Y58.1305
G01 X36.5257 Y58.1210
G01 X36.5224 Y58.1117
G01 X36.5182 Y58.1028
G01 X36.5132 Y58.0944
G01 X36.5073 Y58.0865
G01 X36.5007 Y58.0793
G01 X36.4935 Y58.0727
G01 X36.4856 Y58.0668
G01 X36.4772 Y58.0618
G01 X36.4683 Y58.0576
G01 X36.4590 Y58.0543
G01 X36.4495 Y58.0519
G01 X36.4398 Y58.0505
G01 X36.4312 Y58.0500
G01 X30.5800 Y58.0500
G00 X30.5800 Y58.0500
G01 F60.00
G01 Z-1.8000
G01 F120.00
G01 X36.4312 Y58.0500
G01 X36.4398 Y58.0505
G01 X36.4495 Y58.0519
G01 X36.4590 Y58.0543
G01 X36.4683 Y58.0576
G01 X36.4772 Y58.0618
G01 X36.4856 Y58.0668
G01 X36.4935 Y58.0727
G01 X36.5007 Y58.0793
G01 X36.5073 Y58.0865
G01 X36.5132 Y58.0944
G01 X36.5182 Y58.1028
G01 X36.5224 Y58.1117
G01 X36.5257 Y58.1210
G01 X36.5281 Y58.1305
G01 X36.5295 Y58.1402
G01 X36.5300 Y58.1500
G01 X36.5300 Y67.7900
G01 X36.5292 Y67.8022
G01 X36.5281 Y67.8095
G01 X36.5257 Y67.8190
G01 X36.5214 Y67.8305
G01 X36.5182 Y67.8372
G01 X36.5145 Y67.8435
G01 X36.5073 Y67.8535
G01 X36.4998 Y67.8616
G01 X36.4915 Y67.8688
G01 X36.4856 Y67.8732
G01 X36.4782 Y67.8776
G01 X36.4683 Y67.8824
G01 X36.4567 Y67.8864
G01 X36.4495 Y67.8881
G01 X36.4422 Y67.8892
G01 X36.4300 Y67.8900
G01 X30.5800 Y67.8900
G00 Z2.0000
G00 X29.4800 Y67.8900
G01 F60.00
G01 Z-0.4000
G01 F120.00
G01 X23.4288 Y67.8900
G01 X23.4202 Y67.8895
G01 X23.4105 Y67.8881
G01 X23.4010 Y67.8857
G01 X23.3917 Y67.8824
G01 X23.3828 Y67.8782
G01 X23.3744 Y67.8732
G01 X23.3665 Y67.8673
G01 X23.3593 Y67.8607
G01 X23.3527 Y67.8535
G01 X23.3468 Y67.8456
G01 X23.3418 Y67.8372
G01 X23.3376 Y67.8283
G01 X23.3343 Y67.8190
G01 X23.3319 Y67.8095
G01 X23.3305 Y67.7998
G01 X23.3300 Y67.7900
G00 X23.3300 Y67.7900
G01 F60.00
G01 Z-0.8000
G01 F120.00
G01 X23.3305 Y67.7998
G01 X23.3319 Y67.8095
G01 X23.3343 Y67.8190
G01 X23.3376 Y67.8283
G01 X23.3418 Y67.8372
G01 X23.3468 Y67.8456
G01 X23.3527 Y67.8535
G01 X23.3593 Y67.8607
G01 X23.3665 Y67.8673
G01 X23.3744 Y67.8732
G01 X23.3828 Y67.8782
G01 X23.3917 Y67.8824
G01 X23.4010 Y67.8857
G01 X23.4105 Y67.8881
G01 X23.4202 Y67.8895
G01 X23.4288 Y67.8900
G01 X29.4800 Y67.8900
G00 X29.4800 Y67.8900
G01 F60.00
G01 Z-1.2000
G01 F120.00
G01 X23.4288 Y67.8900
G01 X23.4202 Y67.8895
G01 X23.4105 Y67.8881
G01 X23.4010 Y67.8857
G01 X23.3917 Y67.8824
G01 X23.3828 Y67.8782
G01 X23.3744 Y67.8732
G01 X23.3665 Y67.8673
G01 X23.3593 Y67.8607
G01 X23.3527 Y67.8535
G01 X23.3468 Y67.8456
G01 X23.3418 Y67.8372
G01 X23.3376 Y67.8283
G01 X23.3343 Y67.8190
G01 X23.3319 Y67.8095
G01 X23.3305 Y67.7998
G01 X23.3300 Y67.7900
G00 X23.3300 Y67.7900
G01 F60.00
G01 Z-1.6000
G01 F120.00
G01 X23.3305 Y67.7998
G01 X23.3319 Y67.8095
G01 X23.3343 Y67.8190
G01 X23.3376 Y67.8283
G01 X23.3418 Y67.8372
G01 X23.3468 Y67.8456
G01 X23.3527 Y67.8535
G01 X23.3593 Y67.8607
G01 X23.3665 Y67.8673
G01 X23.3744 Y67.8732
G01 X23.3828 Y67.8782
G01 X23.3917 Y67.8824
G01 X23.4010 Y67.8857
G01 X23.4105 Y67.8881
G01 X23.4202 Y67.8895
G01 X23.4288 Y67.8900
G01 X29.4800 Y67.8900
G00 X29.4800 Y67.8900
G01 F60.00
G01 Z-1.8000
G01 F120.00
G01 X23.4288 Y67.8900
G01 X23.4202 Y67.8895
G01 X23.4105 Y67.8881
G01 X23.4010 Y67.8857
G01 X23.3917 Y67.8824
G01 X23.3828 Y67.8782
G01 X23.3744 Y67.8732
G01 X23.3665 Y67.8673
G01 X23.3593 Y67.8607
G01 X23.3527 Y67.8535
G01 X23.3468 Y67.8456
G01 X23.3418 Y67.8372
G01 X23.3376 Y67.8283
G01 X23.3343 Y67.8190
G01 X23.3319 Y67.8095
G01 X23.3305 Y67.7998
G01 X23.3300 Y67.7900
G00 Z2.0000
G00 X29.4800 Y78.1000
G01 F60.00
G01 Z-0.4000
G01 F120.00
G01 X23.4300 Y78.1000
G01 X23.4190 Y78.1006
G01 X23.4081 Y78.1024
G01 X23.4010 Y78.1043
G01 X23.3940 Y78.1067
G01 X23.3828 Y78.1118
G01 X23.3724 Y78.1182
G01 X23.3665 Y78.1227
G01 X23.3610 Y78.1276
G01 X23.3527 Y78.1365
G01 X23.3462 Y78.1455
G01 X23.3418 Y78.1528
G01 X23.3386 Y78.1595
G01 X23.3343 Y78.1710
G01 X23.3319 Y78.1805
G01 X23.3308 Y78.1878
G01 X23.3300 Y78.2000
G01 X23.3300 Y87.8400
G00 X23.3300 Y87.8400
G01 F60.00
G01 Z-0.8000
G01 F120.00
G01 X23.3300 Y78.2000
G01 X23.3308 Y78.1878
G01 X23.3319 Y78.1805
G01 X23.3343 Y78.1710
G01 X23.3386 Y78.1595
G01 X23.3418 Y78.1528
G01 X23.3462 Y78.1455
G01 X23.3527 Y78.1365
G01 X23.3610 Y78.1276
G01 X23.3665 Y78.1227
G01 X23.3724 Y78.1182
G01 X23.3828 Y78.1118
G01 X23.3940 Y78.1067
G01 X23.4010 Y78.1043
G01 X23.4081 Y78.1024
G01 X23.4190 Y78.1006
G01 X23.4300 Y78.1000
G01 X29.4800 Y78.1000
G00 X29.4800 Y78.1000
G01 F60.00
G01 Z-1.2000
G01 F120.00
G01 X23.4300 Y78.1000
G01 X23.4190 Y78.1006
G01 X23.4081 Y78.1024
G01 X23.4010 Y78.1043
G01 X23.3940 Y78.1067
G01 X23.3828 Y78.1118
G01 X23.3724 Y78.1182
G01 X23.3665 Y78.1227
G01 X23.3610 Y78.1276
G01 X23.3527 Y78.1365
G01 X23.3462 Y78.1455
G01 X23.3418 Y78.1528
G01 X23.3386 Y78.1595
G01 X23.3343 Y78.1710
G01 X23.3319 Y78.1805
G01 X23.3308 Y78.1878
G01 X23.3300 Y78.2000
G01 X23.3300 Y87.8400
G00 X23.3300 Y87.8400
G01 F60.00
G01 Z-1.6000
G01 F120.00
G01 X23.3300 Y78.2000
G01 X23.3308 Y78.1878
G01 X23.3319 Y78.1805
G01 X23.3343 Y78.1710
G01 X23.3386 Y78.1595
G01 X23.3418 Y78.1528
G01 X23.3462 Y78.1455
G01 X23.3527 Y78.1365
G01 X23.3610 Y78.1276
G01 X23.3665 Y78.1227
G01 X23.3724 Y78.1182
G01 X23.3828 Y78.1118
G01 X23.3940 Y78.1067
G01 X23.4010 Y78.1043
G01 X23.4081 Y78.1024
G01 X23.4190 Y78.1006
G01 X23.4300 Y78.1000
G01 X29.4800 Y78.1000
G00 X29.4800 Y78.1000
G01 F60.00
G01 Z-1.8000
G01 F120.00
G01 X23.4300 Y78.1000
G01 X23.4190 Y78.1006
G01 X23.4081 Y78.1024
G01 X23.4010 Y78.1043
G01 X23.3940 Y78.1067
G01 X23.3828 Y78.1118
G01 X23.3724 Y78.1182
G01 X23.3665 Y78.1227
G01 X23.3610 Y78.1276
G01 X23.3527 Y78.1365
G01 X23.3462 Y78.1455
G01 X23.3418 Y78.1528
G01 X23.3386 Y78.1595
G01 X23.3343 Y78.1710
G01 X23.3319 Y78.1805
G01 X23.3308 Y78.1878
G01 X23.3300 Y78.2000
G01 X23.3300 Y87.8400
G00 Z2.0000
G00 X30.5800 Y78.1000
G01 F60.00
G01 Z-0.4000
G01 F120.00
G01 X36.4312 Y78.1000
G01 X36.4398 Y78.1005
G01 X36.4495 Y78.1019
G01 X36.4590 Y78.1043
G01 X36.4683 Y78.1076
G01 X36.4772 Y78.1118
G01 X36.4856 Y78.1168
G01 X36.4935 Y78.1227
G01 X36.5007 Y78.1293
G01 X36.5073 Y78.1365
G01 X36.5132 Y78.1444
G01 X36.5182 Y78.1528
G01 X36.5224 Y78.1617
G01 X36.5257 Y78.1710
G01 X36.5281 Y78.1805
G01 X36.5295 Y78.1902
G01 X36.5300 Y78.2000
G01 X36.5300 Y87.8400
G01 X36.5292 Y87.8522
G01 X36.5281 Y87.8595
G01 X36.5257 Y87.8690
G01 X36.5214 Y87.8805
G01 X36.5182 Y87.8872
G01 X36.5145 Y87.8935
G01 X36.5073 Y87.9035
G01 X36.4998 Y87.9116
G01 X36.4935 Y87.9173
G01 X36.4876 Y87.9218
G01 X36.4782 Y87.9276
G01 X36.4683 Y87.9324
G01 X36.4567 Y87.9364
G01 X36.4495 Y87.9381
G01 X36.4422 Y87.9392
G01 X36.4300 Y87.9400
G01 X30.5800 Y87.9400
G00 X30.5800 Y87.9400
G01 F60.00
G01 Z-0.8000
G01 F120.00
G01 X36.4300 Y87.9400
G01 X36.4422 Y87.9392
G01 X36.4495 Y87.9381
G01 X36.4567 Y87.9364
G01 X36.4683 Y87.9324
G01 X36.4782 Y87.9276
G01 X36.4876 Y87.9218
G01 X36.4935 Y87.9173
G01 X36.4998 Y87.9116
G01 X36.5073 Y87.9035
G01 X36.5145 Y87.8935
G01 X36.5182 Y87.8872
G01 X36.5214 Y87.8805
G01 X36.5257 Y87.8690
G01 X36.5281 Y87.8595
G01 X36.5292 Y87.8522
G01 X36.5300 Y87.8400
G01 X36.5300 Y78.2000
G01 X36.5295 Y78.1902
G01 X36.5281 Y78.1805
G01 X36.5257 Y78.1710
G01 X36.5224 Y78.1617
G01 X36.5182 Y78.1528
G01 X36.5132 Y78.1444
G01 X36.5073 Y78.1365
G01 X36.5007 Y78.1293
G01 X36.4935 Y78.1227
G01 X36.4856 Y78.1168
G01 X36.4772 Y78.1118
G01 X36.4683 Y78.1076
G01 X36.4590 Y78.1043
G01 X36.4495 Y78.1019
G01 X36.4398 Y78.1005
G01 X36.4312 Y78.1000
G01 X30.5800 Y78.1000
G00 X30.5800 Y78.1000
G01 F60.00
G01 Z-1.2000
G01 F120.00
G01 X36.4312 Y78.1000
G01 X36.4398 Y78.1005
G01 X36.4495 Y78.1019
G01 X36.4590 Y78.1043
G01 X36.4683 Y78.1076
G01 X36.4772 Y78.1118
G01 X36.4856 Y78.1168
G01 X36.4935 Y78.1227
G01 X36.5007 Y78.1293
G01 X36.5073 Y78.1365
G01 X36.5132 Y78.1444
G01 X36.5182 Y78.1528
G01 X36.5224 Y78.1617
G01 X36.5257 Y78.1710
G01 X36.5281 Y78.1805
G01 X36.5295 Y78.1902
G01 X36.5300 Y78.2000
G01 X36.5300 Y87.8400
G01 X36.5292 Y87.8522
G01 X36.5281 Y87.8595
G01 X36.5257 Y87.8690
G01 X36.5214 Y87.8805
G01 X36.5182 Y87.8872
G01 X36.5145 Y87.8935
G01 X36.5073 Y87.9035
G01 X36.4998 Y87.9116
G01 X36.4935 Y87.9173
G01 X36.4876 Y87.9218
G01 X36.4782 Y87.9276
G01 X36.4683 Y87.9324
G01 X36.4567 Y87.9364
G01 X36.4495 Y87.9381
G01 X36.4422 Y87.9392
G01 X36.4300 Y87.9400
G01 X30.5800 Y87.9400
G00 X30.5800 Y87.9400
G01 F60.00
G01 Z-1.6000
G01 F120.00
G01 X36.4300 Y87.9400
G01 X36.4422 Y87.9392
G01 X36.4495 Y87.9381
G01 X36.4567 Y87.9364
G01 X36.4683 Y87.9324
G01 X36.4782 Y87.9276
G01 X36.4876 Y87.9218
G01 X36.4935 Y87.9173
G01 X36.4998 Y87.9116
G01 X36.5073 Y87.9035
G01 X36.5145 Y87.8935
G01 X36.5182 Y87.8872
G01 X36.5214 Y87.8805
G01 X36.5257 Y87.8690
G01 X36.5281 Y87.8595
G01 X36.5292 Y87.8522
G01 X36.5300 Y87.8400
G01 X36.5300 Y78.2000
G01 X36.5295 Y78.1902
G01 X36.5281 Y78.1805
G01 X36.5257 Y78.1710
G01 X36.5224 Y78.1617
G01 X36.5182 Y78.1528
G01 X36.5132 Y78.1444
G01 X36.5073 Y78.1365
G01 X36.5007 Y78.1293
G01 X36.4935 Y78.1227
G01 X36.4856 Y78.1168
G01 X36.4772 Y78.1118
G01 X36.4683 Y78.1076
G01 X36.4590 Y78.1043
G01 X36.4495 Y78.1019
G01 X36.4398 Y78.1005
G01 X36.4312 Y78.1000
G01 X30.5800 Y78.1000
G00 X30.5800 Y78.1000
G01 F60.00
G01 Z-1.8000
G01 F120.00
G01 X36.4312 Y78.1000
G01 X36.4398 Y78.1005
G01 X36.4495 Y78.1019
G01 X36.4590 Y78.1043
G01 X36.4683 Y78.1076
G01 X36.4772 Y78.1118
G01 X36.4856 Y78.1168
G01 X36.4935 Y78.1227
G01 X36.5007 Y78.1293
G01 X36.5073 Y78.1365
G01 X36.5132 Y78.1444
G01 X36.5182 Y78.1528
G01 X36.5224 Y78.1617
G01 X36.5257 Y78.1710
G01 X36.5281 Y78.1805
G01 X36.5295 Y78.1902
G01 X36.5300 Y78.2000
G01 X36.5300 Y87.8400
G01 X36.5292 Y87.8522
G01 X36.5281 Y87.8595
G01 X36.5257 Y87.8690
G01 X36.5214 Y87.8805
G01 X36.5182 Y87.8872
G01 X36.5145 Y87.8935
G01 X36.5073 Y87.9035
G01 X36.4998 Y87.9116
G01 X36.4935 Y87.9173
G01 X36.4876 Y87.9218
G01 X36.4782 Y87.9276
G01 X36.4683 Y87.9324
G01 X36.4567 Y87.9364
G01 X36.4495 Y87.9381
G01 X36.4422 Y87.9392
G01 X36.4300 Y87.9400
G01 X30.5800 Y87.9400
G00 Z2.0000
G00 X29.4800 Y87.9400
G01 F60.00
G01 Z-0.4000
G01 F120.00
G01 X23.4288 Y87.9400
G01 X23.4202 Y87.9395
G01 X23.4105 Y87.9381
G01 X23.4010 Y87.9357
G01 X23.3917 Y87.9324
G01 X23.3828 Y87.9282
G01 X23.3744 Y87.9232
G01 X23.3665 Y87.9173
G01 X23.3593 Y87.9107
G01 X23.3527 Y87.9035
G01 X23.3468 Y87.8956
G01 X23.3418 Y87.8872
G01 X23.3376 Y87.8783
G01 X23.3343 Y87.8690
G01 X23.3319 Y87.8595
G01 X23.3305 Y87.8498
G01 X23.3300 Y87.8400
G00 X23.3300 Y87.8400
G01 F60.00
G01 Z-0.8000
G01 F120.00
G01 X23.3305 Y87.8498
G01 X23.3319 Y87.8595
G01 X23.3343 Y87.8690
G01 X23.3376 Y87.8783
G01 X23.3418 Y87.8872
G01 X23.3468 Y87.8956
G01 X23.3527 Y87.9035
G01 X23.3593 Y87.9107
G01 X23.3665 Y87.9173
G01 X23.3744 Y87.9232
G01 X23.3828 Y87.9282
G01 X23.3917 Y87.9324
G01 X23.4010 Y87.9357
G01 X23.4105 Y87.9381
G01 X23.4202 Y87.9395
G01 X23.4288 Y87.9400
G01 X29.4800 Y87.9400
G00 X29.4800 Y87.9400
G01 F60.00
G01 Z-1.2000
G01 F120.00
G01 X23.4288 Y87.9400
G01 X23.4202 Y87.9395
G01 X23.4105 Y87.9381
G01 X23.4010 Y87.9357
G01 X23.3917 Y87.9324
G01 X23.3828 Y87.9282
G01 X23.3744 Y87.9232
G01 X23.3665 Y87.9173
G01 X23.3593 Y87.9107
G01 X23.3527 Y87.9035
G01 X23.3468 Y87.8956
G01 X23.3418 Y87.8872
G01 X23.3376 Y87.8783
G01 X23.3343 Y87.8690
G01 X23.3319 Y87.8595
G01 X23.3305 Y87.8498
G01 X23.3300 Y87.8400
G00 X23.3300 Y87.8400
G01 F60.00
G01 Z-1.6000
G01 F120.00
G01 X23.3305 Y87.8498
G01 X23.3319 Y87.8595
G01 X23.3343 Y87.8690
G01 X23.3376 Y87.8783
G01 X23.3418 Y87.8872
G01 X23.3468 Y87.8956
G01 X23.3527 Y87.9035
G01 X23.3593 Y87.9107
G01 X23.3665 Y87.9173
G01 X23.3744 Y87.9232
G01 X23.3828 Y87.9282
G01 X23.3917 Y87.9324
G01 X23.4010 Y87.9357
G01 X23.4105 Y87.9381
G01 X23.4202 Y87.9395
G01 X23.4288 Y87.9400
G01 X29.4800 Y87.9400
G00 X29.4800 Y87.9400
G01 F60.00
G01 Z-1.8000
G01 F120.00
G01 X23.4288 Y87.9400
G01 X23.4202 Y87.9395
G01 X23.4105 Y87.9381
G01 X23.4010 Y87.9357
G01 X23.3917 Y87.9324
G01 X23.3828 Y87.9282
G01 X23.3744 Y87.9232
G01 X23.3665 Y87.9173
G01 X23.3593 Y87.9107
G01 X23.3527 Y87.9035
G01 X23.3468 Y87.8956
G01 X23.3418 Y87.8872
G01 X23.3376 Y87.8783
G01 X23.3343 Y87.8690
G01 X23.3319 Y87.8595
G01 X23.3305 Y87.8498
G01 X23.3300 Y87.8400
G00 Z2.0000
G00 X29.4800 Y98.1000
G01 F60.00
G01 Z-0.4000
G01 F120.00
G01 X23.4300 Y98.1000
G01 X23.4190 Y98.1006
G01 X23.4081 Y98.1024
G01 X23.4010 Y98.1043
G01 X23.3940 Y98.1067
G01 X23.3828 Y98.1118
G01 X23.3724 Y98.1182
G01 X23.3665 Y98.1227
G01 X23.3610 Y98.1276
G01 X23.3527 Y98.1365
G01 X23.3462 Y98.1455
G01 X23.3418 Y98.1528
G01 X23.3386 Y98.1595
G01 X23.3343 Y98.1710
G01 X23.3319 Y98.1805
G01 X23.3308 Y98.1878
G01 X23.3300 Y98.2000
G01 X23.3300 Y107.8400
G00 X23.3300 Y107.8400
G01 F60.00
G01 Z-0.8000
G01 F120.00
G01 X23.3300 Y98.2000
G01 X23.3308 Y98.1878
G01 X23.3319 Y98.1805
G01 X23.3343 Y98.1710
G01 X23.3386 Y98.1595
G01 X23.3418 Y98.1528
G01 X23.3462 Y98.1455
G01 X23.3527 Y98.1365
G01 X23.3610 Y98.1276
G01 X23.3665 Y98.1227
G01 X23.3724 Y98.1182
G01 X23.3828 Y98.1118
G01 X23.3940 Y98.1067
G01 X23.4010 Y98.1043
G01 X23.4081 Y98.1024
G01 X23.4190 Y98.1006
G01 X23.4300 Y98.1000
G01 X29.4800 Y98.1000
G00 X29.4800 Y98.1000
G01 F60.00
G01 Z-1.2000
G01 F120.00
G01 X23.4300 Y98.1000
G01 X23.4190 Y98.1006
G01 X23.4081 Y98.1024
G01 X23.4010 Y98.1043
G01 X23.3940 Y98.1067
G01 X23.3828 Y98.1118
G01 X23.3724 Y98.1182
G01 X23.3665 Y98.1227
G01 X23.3610 Y98.1276
G01 X23.3527 Y98.1365
G01 X23.3462 Y98.1455
G01 X23.3418 Y98.1528
G01 X23.3386 Y98.1595
G01 X23.3343 Y98.1710
G01 X23.3319 Y98.1805
G01 X23.3308 Y98.1878
G01 X23.3300 Y98.2000
G01 X23.3300 Y107.8400
G00 X23.3300 Y107.8400
G01 F60.00
G01 Z-1.6000
G01 F120.00
G01 X23.3300 Y98.2000
G01 X23.3308 Y98.1878
G01 X23.3319 Y98.1805
G01 X23.3343 Y98.1710
G01 X23.3386 Y98.1595
G01 X23.3418 Y98.1528
G01 X23.3462 Y98.1455
G01 X23.3527 Y98.1365
G01 X23.3610 Y98.1276
G01 X23.3665 Y98.1227
G01 X23.3724 Y98.1182
G01 X23.3828 Y98.1118
G01 X23.3940 Y98.1067
G01 X23.4010 Y98.1043
G01 X23.4081 Y98.1024
G01 X23.4190 Y98.1006
G01 X23.4300 Y98.1000
G01 X29.4800 Y98.1000
G00 X29.4800 Y98.1000
G01 F60.00
G01 Z-1.8000
G01 F120.00
G01 X23.4300 Y98.1000
G01 X23.4190 Y98.1006
G01 X23.4081 Y98.1024
G01 X23.4010 Y98.1043
G01 X23.3940 Y98.1067
G01 X23.3828 Y98.1118
G01 X23.3724 Y98.1182
G01 X23.3665 Y98.1227
G01 X23.3610 Y98.1276
G01 X23.3527 Y98.1365
G01 X23.3462 Y98.1455
G01 X23.3418 Y98.1528
G01 X23.3386 Y98.1595
G01 X23.3343 Y98.1710
G01 X23.3319 Y98.1805
G01 X23.3308 Y98.1878
G01 X23.3300 Y98.2000
G01 X23.3300 Y107.8400
G00 Z2.0000
G00 X30.5800 Y98.1000
G01 F60.00
G01 Z-0.4000
G01 F120.00
G01 X36.4312 Y98.1000
G01 X36.4398 Y98.1005
G01 X36.4495 Y98.1019
G01 X36.4590 Y98.1043
G01 X36.4683 Y98.1076
G01 X36.4772 Y98.1118
G01 X36.4856 Y98.1168
G01 X36.4935 Y98.1227
G01 X36.5007 Y98.1293
G01 X36.5073 Y98.1365
G01 X36.5132 Y98.1444
G01 X36.5182 Y98.1528
G01 X36.5224 Y98.1617
G01 X36.5257 Y98.1710
G01 X36.5281 Y98.1805
G01 X36.5295 Y98.1902
G01 X36.5300 Y98.2000
G01 X36.5300 Y107.8400
G01 X36.5292 Y107.8522
G01 X36.5281 Y107.8595
G01 X36.5257 Y107.8690
G01 X36.5214 Y107.8805
G01 X36.5182 Y107.8872
G01 X36.5145 Y107.8935
G01 X36.5073 Y107.9035
G01 X36.4998 Y107.9116
G01 X36.4935 Y107.9173
G01 X36.4876 Y107.9218
G01 X36.4782 Y107.9276
G01 X36.4683 Y107.9324
G01 X36.4567 Y107.9364
G01 X36.4495 Y107.9381
G01 X36.4422 Y107.9392
G01 X36.4300 Y107.9400
G01 X30.5800 Y107.9400
G00 X30.5800 Y107.9400
G01 F60.00
G01 Z-0.8000
G01 F120.00
G01 X36.4300 Y107.9400
G01 X36.4422 Y107.9392
G01 X36.4495 Y107.9381
G01 X36.4567 Y107.9364
G01 X36.4683 Y107.9324
G01 X36.4782 Y107.9276
G01 X36.4876 Y107.9218
G01 X36.4935 Y107.9173
G01 X36.4998 Y107.9116
G01 X36.5073 Y107.9035
G01 X36.5145 Y107.8935
G01 X36.5182 Y107.8872
G01 X36.5214 Y107.8805
G01 X36.5257 Y107.8690
G01 X36.5281 Y107.8595
G01 X36.5292 Y107.8522
G01 X36.5300 Y107.8400
G01 X36.5300 Y98.2000
G01 X36.5295 Y98.1902
G01 X36.5281 Y98.1805
G01 X36.5257 Y98.1710
G01 X36.5224 Y98.1617
G01 X36.5182 Y98.1528
G01 X36.5132 Y98.1444
G01 X36.5073 Y98.1365
G01 X36.5007 Y98.1293
G01 X36.4935 Y98.1227
G01 X36.4856 Y98.1168
G01 X36.4772 Y98.1118
G01 X36.4683 Y98.1076
G01 X36.4590 Y98.1043
G01 X36.4495 Y98.1019
G01 X36.4398 Y98.1005
G01 X36.4312 Y98.1000
G01 X30.5800 Y98.1000
G00 X30.5800 Y98.1000
G01 F60.00
G01 Z-1.2000
G01 F120.00
G01 X36.4312 Y98.1000
G01 X36.4398 Y98.1005
G01 X36.4495 Y98.1019
G01 X36.4590 Y98.1043
G01 X36.4683 Y98.1076
G01 X36.4772 Y98.1118
G01 X36.4856 Y98.1168
G01 X36.4935 Y98.1227
G01 X36.5007 Y98.1293
G01 X36.5073 Y98.1365
G01 X36.5132 Y98.1444
G01 X36.5182 Y98.1528
G01 X36.5224 Y98.1617
G01 X36.5257 Y98.1710
G01 X36.5281 Y98.1805
G01 X36.5295 Y98.1902
G01 X36.5300 Y98.2000
G01 X36.5300 Y107.8400
G01 X36.5292 Y107.8522
G01 X36.5281 Y107.8595
G01 X36.5257 Y107.8690
G01 X36.5214 Y107.8805
G01 X36.5182 Y107.8872
G01 X36.5145 Y107.8935
G01 X36.5073 Y107.9035
G01 X36.4998 Y107.9116
G01 X36.4935 Y107.9173
G01 X36.4876 Y107.9218
G01 X36.4782 Y107.9276
G01 X36.4683 Y107.9324
G01 X36.4567 Y107.9364
G01 X36.4495 Y107.9381
G01 X36.4422 Y107.9392
G01 X36.4300 Y107.9400
G01 X30.5800 Y107.9400
G00 X30.5800 Y107.9400
G01 F60.00
G01 Z-1.6000
G01 F120.00
G01 X36.4300 Y107.9400
G01 X36.4422 Y107.9392
G01 X36.4495 Y107.9381
G01 X36.4567 Y107.9364
G01 X36.4683 Y107.9324
G01 X36.4782 Y107.9276
G01 X36.4876 Y107.9218
G01 X36.4935 Y107.9173
G01 X36.4998 Y107.9116
G01 X36.5073 Y107.9035
G01 X36.5145 Y107.8935
G01 X36.5182 Y107.8872
G01 X36.5214 Y107.8805
G01 X36.5257 Y107.8690
G01 X36.5281 Y107.8595
G01 X36.5292 Y107.8522
G01 X36.5300 Y107.8400
G01 X36.5300 Y98.2000
G01 X36.5295 Y98.1902
G01 X36.5281 Y98.1805
G01 X36.5257 Y98.1710
G01 X36.5224 Y98.1617
G01 X36.5182 Y98.1528
G01 X36.5132 Y98.1444
G01 X36.5073 Y98.1365
G01 X36.5007 Y98.1293
G01 X36.4935 Y98.1227
G01 X36.4856 Y98.1168
G01 X36.4772 Y98.1118
G01 X36.4683 Y98.1076
G01 X36.4590 Y98.1043
G01 X36.4495 Y98.1019
G01 X36.4398 Y98.1005
G01 X36.4312 Y98.1000
G01 X30.5800 Y98.1000
G00 X30.5800 Y98.1000
G01 F60.00
G01 Z-1.8000
G01 F120.00
G01 X36.4312 Y98.1000
G01 X36.4398 Y98.1005
G01 X36.4495 Y98.1019
G01 X36.4590 Y98.1043
G01 X36.4683 Y98.1076
G01 X36.4772 Y98.1118
G01 X36.4856 Y98.1168
G01 X36.4935 Y98.1227
G01 X36.5007 Y98.1293
G01 X36.5073 Y98.1365
G01 X36.5132 Y98.1444
G01 X36.5182 Y98.1528
G01 X36.5224 Y98.1617
G01 X36.5257 Y98.1710
G01 X36.5281 Y98.1805
G01 X36.5295 Y98.1902
G01 X36.5300 Y98.2000
G01 X36.5300 Y107.8400
G01 X36.5292 Y107.8522
G01 X36.5281 Y107.8595
G01 X36.5257 Y107.8690
G01 X36.5214 Y107.8805
G01 X36.5182 Y107.8872
G01 X36.5145 Y107.8935
G01 X36.5073 Y107.9035
G01 X36.4998 Y107.9116
G01 X36.4935 Y107.9173
G01 X36.4876 Y107.9218
G01 X36.4782 Y107.9276
G01 X36.4683 Y107.9324
G01 X36.4567 Y107.9364
G01 X36.4495 Y107.9381
G01 X36.4422 Y107.9392
G01 X36.4300 Y107.9400
G01 X30.5800 Y107.9400
G00 Z2.0000
G00 X29.4800 Y107.9400
G01 F60.00
G01 Z-0.4000
G01 F120.00
G01 X23.4288 Y107.9400
G01 X23.4202 Y107.9395
G01 X23.4105 Y107.9381
G01 X23.4010 Y107.9357
G01 X23.3917 Y107.9324
G01 X23.3828 Y107.9282
G01 X23.3744 Y107.9232
G01 X23.3665 Y107.9173
G01 X23.3593 Y107.9107
G01 X23.3527 Y107.9035
G01 X23.3468 Y107.8956
G01 X23.3418 Y107.8872
G01 X23.3376 Y107.8783
G01 X23.3343 Y107.8690
G01 X23.3319 Y107.8595
G01 X23.3305 Y107.8498
G01 X23.3300 Y107.8400
G00 X23.3300 Y107.8400
G01 F60.00
G01 Z-0.8000
G01 F120.00
G01 X23.3305 Y107.8498
G01 X23.3319 Y107.8595
G01 X23.3343 Y107.8690
G01 X23.3376 Y107.8783
G01 X23.3418 Y107.8872
G01 X23.3468 Y107.8956
G01 X23.3527 Y107.9035
G01 X23.3593 Y107.9107
G01 X23.3665 Y107.9173
G01 X23.3744 Y107.9232
G01 X23.3828 Y107.9282
G01 X23.3917 Y107.9324
G01 X23.4010 Y107.9357
G01 X23.4105 Y107.9381
G01 X23.4202 Y107.9395
G01 X23.4288 Y107.9400
G01 X29.4800 Y107.9400
G00 X29.4800 Y107.9400
G01 F60.00
G01 Z-1.2000
G01 F120.00
G01 X23.4288 Y107.9400
G01 X23.4202 Y107.9395
G01 X23.4105 Y107.9381
G01 X23.4010 Y107.9357
G01 X23.3917 Y107.9324
G01 X23.3828 Y107.9282
G01 X23.3744 Y107.9232
G01 X23.3665 Y107.9173
G01 X23.3593 Y107.9107
G01 X23.3527 Y107.9035
G01 X23.3468 Y107.8956
G01 X23.3418 Y107.8872
G01 X23.3376 Y107.8783
G01 X23.3343 Y107.8690
G01 X23.3319 Y107.8595
G01 X23.3305 Y107.8498
G01 X23.3300 Y107.8400
G00 X23.3300 Y107.8400
G01 F60.00
G01 Z-1.6000
G01 F120.00
G01 X23.3305 Y107.8498
G01 X23.3319 Y107.8595
G01 X23.3343 Y107.8690
G01 X23.3376 Y107.8783
G01 X23.3418 Y107.8872
G01 X23.3468 Y107.8956
G01 X23.3527 Y107.9035
G01 X23.3593 Y107.9107
G01 X23.3665 Y107.9173
G01 X23.3744 Y107.9232
G01 X23.3828 Y107.9282
G01 X23.3917 Y107.9324
G01 X23.4010 Y107.9357
G01 X23.4105 Y107.9381
G01 X23.4202 Y107.9395
G01 X23.4288 Y107.9400
G01 X29.4800 Y107.9400
G00 X29.4800 Y107.9400
G01 F60.00
G01 Z-1.8000
G01 F120.00
G01 X23.4288 Y107.9400
G01 X23.4202 Y107.9395
G01 X23.4105 Y107.9381
G01 X23.4010 Y107.9357
G01 X23.3917 Y107.9324
G01 X23.3828 Y107.9282
G01 X23.3744 Y107.9232
G01 X23.3665 Y107.9173
G01 X23.3593 Y107.9107
G01 X23.3527 Y107.9035
G01 X23.3468 Y107.8956
G01 X23.3418 Y107.8872
G01 X23.3376 Y107.8783
G01 X23.3343 Y107.8690
G01 X23.3319 Y107.8595
G01 X23.3305 Y107.8498
G01 X23.3300 Y107.8400
G00 Z2.0000
G00 X29.4800 Y118.1700
G01 F60.00
G01 Z-0.4000
G01 F120.00
G01 X23.4300 Y118.1700
G01 X23.4190 Y118.1706
G01 X23.4081 Y118.1724
G01 X23.4010 Y118.1743
G01 X23.3940 Y118.1767
G01 X23.3828 Y118.1818
G01 X23.3724 Y118.1882
G01 X23.3665 Y118.1927
G01 X23.3610 Y118.1976
G01 X23.3527 Y118.2065
G01 X23.3462 Y118.2155
G01 X23.3418 Y118.2228
G01 X23.3386 Y118.2295
G01 X23.3343 Y118.2410
G01 X23.3319 Y118.2505
G01 X23.3308 Y118.2578
G01 X23.3300 Y118.2700
G01 X23.3300 Y127.9100
G00 X23.3300 Y127.9100
G01 F60.00
G01 Z-0.8000
G01 F120.00
G01 X23.3300 Y118.2700
G01 X23.3308 Y118.2578
G01 X23.3319 Y118.2505
G01 X23.3343 Y118.2410
G01 X23.3386 Y118.2295
G01 X23.3418 Y118.2228
G01 X23.3462 Y118.2155
G01 X23.3527 Y118.2065
G01 X23.3610 Y118.1976
G01 X23.3665 Y118.1927
G01 X23.3724 Y118.1882
G01 X23.3828 Y118.1818
G01 X23.3940 Y118.1767
G01 X23.4010 Y118.1743
G01 X23.4081 Y118.1724
G01 X23.4190 Y118.1706
G01 X23.4300 Y118.1700
G01 X29.4800 Y118.1700
G00 X29.4800 Y118.1700
G01 F60.00
G01 Z-1.2000
G01 F120.00
G01 X23.4300 Y118.1700
G01 X23.4190 Y118.1706
G01 X23.4081 Y118.1724
G01 X23.4010 Y118.1743
G01 X23.3940 Y118.1767
G01 X23.3828 Y118.1818
G01 X23.3724 Y118.1882
G01 X23.3665 Y118.1927
G01 X23.3610 Y118.1976
G01 X23.3527 Y118.2065
G01 X23.3462 Y118.2155
G01 X23.3418 Y118.2228
G01 X23.3386 Y118.2295
G01 X23.3343 Y118.2410
G01 X23.3319 Y118.2505
G01 X23.3308 Y118.2578
G01 X23.3300 Y118.2700
G01 X23.3300 Y127.9100
G00 X23.3300 Y127.9100
G01 F60.00
G01 Z-1.6000
G01 F120.00
G01 X23.3300 Y118.2700
G01 X23.3308 Y118.2578
G01 X23.3319 Y118.2505
G01 X23.3343 Y118.2410
G01 X23.3386 Y118.2295
G01 X23.3418 Y118.2228
G01 X23.3462 Y118.2155
G01 X23.3527 Y118.2065
G01 X23.3610 Y118.1976
G01 X23.3665 Y118.1927
G01 X23.3724 Y118.1882
G01 X23.3828 Y118.1818
G01 X23.3940 Y118.1767
G01 X23.4010 Y118.1743
G01 X23.4081 Y118.1724
G01 X23.4190 Y118.1706
G01 X23.4300 Y118.1700
G01 X29.4800 Y118.1700
G00 X29.4800 Y118.1700
G01 F60.00
G01 Z-1.8000
G01 F120.00
G01 X23.4300 Y118.1700
G01 X23.4190 Y118.1706
G01 X23.4081 Y118.1724
G01 X23.4010 Y118.1743
G01 X23.3940 Y118.1767
G01 X23.3828 Y118.1818
G01 X23.3724 Y118.1882
G01 X23.3665 Y118.1927
G01 X23.3610 Y118.1976
G01 X23.3527 Y118.2065
G01 X23.3462 Y118.2155
G01 X23.3418 Y118.2228
G01 X23.3386 Y118.2295
G01 X23.3343 Y118.2410
G01 X23.3319 Y118.2505
G01 X23.3308 Y118.2578
G01 X23.3300 Y118.2700
G01 X23.3300 Y127.9100
G00 Z2.0000
G00 X30.5800 Y118.1700
G01 F60.00
G01 Z-0.4000
G01 F120.00
G01 X36.4312 Y118.1700
G01 X36.4398 Y118.1705
G01 X36.4495 Y118.1719
G01 X36.4590 Y118.1743
G01 X36.4683 Y118.1776
G01 X36.4772 Y118.1818
G01 X36.4856 Y118.1868
G01 X36.4935 Y118.1927
G01 X36.5007 Y118.1993
G01 X36.5073 Y118.2065
G01 X36.5132 Y118.2144
G01 X36.5182 Y118.2228
G01 X36.5224 Y118.2317
G01 X36.5257 Y118.2410
G01 X36.5281 Y118.2505
G01 X36.5295 Y118.2602
G01 X36.5300 Y118.2700
G01 X36.5300 Y127.9100
G01 X36.5292 Y127.9222
G01 X36.5281 Y127.9295
G01 X36.5257 Y127.9390
G01 X36.5214 Y127.9505
G01 X36.5182 Y127.9572
G01 X36.5145 Y127.9635
G01 X36.5073 Y127.9735
G01 X36.4998 Y127.9816
G01 X36.4935 Y127.9873
G01 X36.4876 Y127.9918
G01 X36.4782 Y127.9976
G01 X36.4683 Y128.0024
G01 X36.4567 Y128.0064
G01 X36.4495 Y128.0081
G01 X36.4422 Y128.0092
G01 X36.4300 Y128.0100
G01 X30.5800 Y128.0100
G00 X30.5800 Y128.0100
G01 F60.00
G01 Z-0.8000
G01 F120.00
G01 X36.4300 Y128.0100
G01 X36.4422 Y128.0092
G01 X36.4495 Y128.0081
G01 X36.4567 Y128.0064
G01 X36.4683 Y128.0024
G01 X36.4782 Y127.9976
G01 X36.4876 Y127.9918
G01 X36.4935 Y127.9873
G01 X36.4998 Y127.9816
G01 X36.5073 Y127.9735
G01 X36.5145 Y127.9635
G01 X36.5182 Y127.9572
G01 X36.5214 Y127.9505
G01 X36.5257 Y127.9390
G01 X36.5281 Y127.9295
G01 X36.5292 Y127.9222
G01 X36.5300 Y127.9100
G01 X36.5300 Y118.2700
G01 X36.5295 Y118.2602
G01 X36.5281 Y118.2505
G01 X36.5257 Y118.2410
G01 X36.5224 Y118.2317
G01 X36.5182 Y118.2228
G01 X36.5132 Y118.2144
G01 X36.5073 Y118.2065
G01 X36.5007 Y118.1993
G01 X36.4935 Y118.1927
G01 X36.4856 Y118.1868
G01 X36.4772 Y118.1818
G01 X36.4683 Y118.1776
G01 X36.4590 Y118.1743
G01 X36.4495 Y118.1719
G01 X36.4398 Y118.1705
G01 X36.4312 Y118.1700
G01 X30.5800 Y118.1700
G00 X30.5800 Y118.1700
G01 F60.00
G01 Z-1.2000
G01 F120.00
G01 X36.4312 Y118.1700
G01 X36.4398 Y118.1705
G01 X36.4495 Y118.1719
G01 X36.4590 Y118.1743
G01 X36.4683 Y118.1776
G01 X36.4772 Y118.1818
G01 X36.4856 Y118.1868
G01 X36.4935 Y118.1927
G01 X36.5007 Y118.1993
G01 X36.5073 Y118.2065
G01 X36.5132 Y118.2144
G01 X36.5182 Y118.2228
G01 X36.5224 Y118.2317
G01 X36.5257 Y118.2410
G01 X36.5281 Y118.2505
G01 X36.5295 Y118.2602
G01 X36.5300 Y118.2700
G01 X36.5300 Y127.9100
G01 X36.5292 Y127.9222
G01 X36.5281 Y127.9295
G01 X36.5257 Y127.9390
G01 X36.5214 Y127.9505
G01 X36.5182 Y127.9572
G01 X36.5145 Y127.9635
G01 X36.5073 Y127.9735
G01 X36.4998 Y127.9816
G01 X36.4935 Y127.9873
G01 X36.4876 Y127.9918
G01 X36.4782 Y127.9976
G01 X36.4683 Y128.0024
G01 X36.4567 Y128.0064
G01 X36.4495 Y128.0081
G01 X36.4422 Y128.0092
G01 X36.4300 Y128.0100
G01 X30.5800 Y128.0100
G00 X30.5800 Y128.0100
G01 F60.00
G01 Z-1.6000
G01 F120.00
G01 X36.4300 Y128.0100
G01 X36.4422 Y128.0092
G01 X36.4495 Y128.0081
G01 X36.4567 Y128.0064
G01 X36.4683 Y128.0024
G01 X36.4782 Y127.9976
G01 X36.4876 Y127.9918
G01 X36.4935 Y127.9873
G01 X36.4998 Y127.9816
G01 X36.5073 Y127.9735
G01 X36.5145 Y127.9635
G01 X36.5182 Y127.9572
G01 X36.5214 Y127.9505
G01 X36.5257 Y127.9390
G01 X36.5281 Y127.9295
G01 X36.5292 Y127.9222
G01 X36.5300 Y127.9100
G01 X36.5300 Y118.2700
G01 X36.5295 Y118.2602
G01 X36.5281 Y118.2505
G01 X36.5257 Y118.2410
G01 X36.5224 Y118.2317
G01 X36.5182 Y118.2228
G01 X36.5132 Y118.2144
G01 X36.5073 Y118.2065
G01 X36.5007 Y118.1993
G01 X36.4935 Y118.1927
G01 X36.4856 Y118.1868
G01 X36.4772 Y118.1818
G01 X36.4683 Y118.1776
G01 X36.4590 Y118.1743
G01 X36.4495 Y118.1719
G01 X36.4398 Y118.1705
G01 X36.4312 Y118.1700
G01 X30.5800 Y118.1700
G00 X30.5800 Y118.1700
G01 F60.00
G01 Z-1.8000
G01 F120.00
G01 X36.4312 Y118.1700
G01 X36.4398 Y118.1705
G01 X36.4495 Y118.1719
G01 X36.4590 Y118.1743
G01 X36.4683 Y118.1776
G01 X36.4772 Y118.1818
G01 X36.4856 Y118.1868
G01 X36.4935 Y118.1927
G01 X36.5007 Y118.1993
G01 X36.5073 Y118.2065
G01 X36.5132 Y118.2144
G01 X36.5182 Y118.2228
G01 X36.5224 Y118.2317
G01 X36.5257 Y118.2410
G01 X36.5281 Y118.2505
G01 X36.5295 Y118.2602
G01 X36.5300 Y118.2700
G01 X36.5300 Y127.9100
G01 X36.5292 Y127.9222
G01 X36.5281 Y127.9295
G01 X36.5257 Y127.9390
G01 X36.5214 Y127.9505
G01 X36.5182 Y127.9572
G01 X36.5145 Y127.9635
G01 X36.5073 Y127.9735
G01 X36.4998 Y127.9816
G01 X36.4935 Y127.9873
G01 X36.4876 Y127.9918
G01 X36.4782 Y127.9976
G01 X36.4683 Y128.0024
G01 X36.4567 Y128.0064
G01 X36.4495 Y128.0081
G01 X36.4422 Y128.0092
G01 X36.4300 Y128.0100
G01 X30.5800 Y128.0100
G00 Z2.0000
G00 X29.4800 Y128.0100
G01 F60.00
G01 Z-0.4000
G01 F120.00
G01 X23.4288 Y128.0100
G01 X23.4202 Y128.0095
G01 X23.4105 Y128.0081
G01 X23.4010 Y128.0057
G01 X23.3917 Y128.0024
G01 X23.3828 Y127.9982
G01 X23.3744 Y127.9932
G01 X23.3665 Y127.9873
G01 X23.3593 Y127.9807
G01 X23.3527 Y127.9735
G01 X23.3468 Y127.9656
G01 X23.3418 Y127.9572
G01 X23.3376 Y127.9483
G01 X23.3343 Y127.9390
G01 X23.3319 Y127.9295
G01 X23.3305 Y127.9198
G01 X23.3300 Y127.9100
G00 X23.3300 Y127.9100
G01 F60.00
G01 Z-0.8000
G01 F120.00
G01 X23.3305 Y127.9198
G01 X23.3319 Y127.9295
G01 X23.3343 Y127.9390
G01 X23.3376 Y127.9483
G01 X23.3418 Y127.9572
G01 X23.3468 Y127.9656
G01 X23.3527 Y127.9735
G01 X23.3593 Y127.9807
G01 X23.3665 Y127.9873
G01 X23.3744 Y127.9932
G01 X23.3828 Y127.9982
G01 X23.3917 Y128.0024
G01 X23.4010 Y128.0057
G01 X23.4105 Y128.0081
G01 X23.4202 Y128.0095
G01 X23.4288 Y128.0100
G01 X29.4800 Y128.0100
G00 X29.4800 Y128.0100
G01 F60.00
G01 Z-1.2000
G01 F120.00
G01 X23.4288 Y128.0100
G01 X23.4202 Y128.0095
G01 X23.4105 Y128.0081
G01 X23.4010 Y128.0057
G01 X23.3917 Y128.0024
G01 X23.3828 Y127.9982
G01 X23.3744 Y127.9932
G01 X23.3665 Y127.9873
G01 X23.3593 Y127.9807
G01 X23.3527 Y127.9735
G01 X23.3468 Y127.9656
G01 X23.3418 Y127.9572
G01 X23.3376 Y127.9483
G01 X23.3343 Y127.9390
G01 X23.3319 Y127.9295
G01 X23.3305 Y127.9198
G01 X23.3300 Y127.9100
G00 X23.3300 Y127.9100
G01 F60.00
G01 Z-1.6000
G01 F120.00
G01 X23.3305 Y127.9198
G01 X23.3319 Y127.9295
G01 X23.3343 Y127.9390
G01 X23.3376 Y127.9483
G01 X23.3418 Y127.9572
G01 X23.3468 Y127.9656
G01 X23.3527 Y127.9735
G01 X23.3593 Y127.9807
G01 X23.3665 Y127.9873
G01 X23.3744 Y127.9932
G01 X23.3828 Y127.9982
G01 X23.3917 Y128.0024
G01 X23.4010 Y128.0057
G01 X23.4105 Y128.0081
G01 X23.4202 Y128.0095
G01 X23.4288 Y128.0100
G01 X29.4800 Y128.0100
G00 X29.4800 Y128.0100
G01 F60.00
G01 Z-1.8000
G01 F120.00
G01 X23.4288 Y128.0100
G01 X23.4202 Y128.0095
G01 X23.4105 Y128.0081
G01 X23.4010 Y128.0057
G01 X23.3917 Y128.0024
G01 X23.3828 Y127.9982
G01 X23.3744 Y127.9932
G01 X23.3665 Y127.9873
G01 X23.3593 Y127.9807
G01 X23.3527 Y127.9735
G01 X23.3468 Y127.9656
G01 X23.3418 Y127.9572
G01 X23.3376 Y127.9483
G01 X23.3343 Y127.9390
G01 X23.3319 Y127.9295
G01 X23.3305 Y127.9198
G01 X23.3300 Y127.9100
G00 Z2.0000
G00 X29.4800 Y138.1450
G01 F60.00
G01 Z-0.4000
G01 F120.00
G01 X23.4300 Y138.1450
G01 X23.4202 Y138.1455
G01 X23.4117 Y138.1467
G01 X23.3986 Y138.1501
G01 X23.3917 Y138.1526
G01 X23.3828 Y138.1568
G01 X23.3744 Y138.1618
G01 X23.3675 Y138.1669
G01 X23.3593 Y138.1743
G01 X23.3527 Y138.1815
G01 X23.3462 Y138.1905
G01 X23.3407 Y138.2000
G01 X23.3376 Y138.2067
G01 X23.3351 Y138.2136
G01 X23.3324 Y138.2231
G01 X23.3306 Y138.2340
G01 X23.3300 Y138.2450
G01 X23.3300 Y143.0550
G00 X23.3300 Y143.0550
G01 F60.00
G01 Z-0.8000
G01 F120.00
G01 X23.3300 Y138.2450
G01 X23.3306 Y138.2340
G01 X23.3324 Y138.2231
G01 X23.3351 Y138.2136
G01 X23.3376 Y138.2067
G01 X23.3407 Y138.2000
G01 X23.3462 Y138.1905
G01 X23.3527 Y138.1815
G01 X23.3593 Y138.1743
G01 X23.3675 Y138.1669
G01 X23.3744 Y138.1618
G01 X23.3828 Y138.1568
G01 X23.3917 Y138.1526
G01 X23.3986 Y138.1501
G01 X23.4117 Y138.1467
G01 X23.4202 Y138.1455
G01 X23.4300 Y138.1450
G01 X29.4800 Y138.1450
G00 X29.4800 Y138.1450
G01 F60.00
G01 Z-1.2000
G01 F120.00
G01 X23.4300 Y138.1450
G01 X23.4202 Y138.1455
G01 X23.4117 Y138.1467
G01 X23.3986 Y138.1501
G01 X23.3917 Y138.1526
G01 X23.3828 Y138.1568
G01 X23.3744 Y138.1618
G01 X23.3675 Y138.1669
G01 X23.3593 Y138.1743
G01 X23.3527 Y138.1815
G01 X23.3462 Y138.1905
G01 X23.3407 Y138.2000
G01 X23.3376 Y138.2067
G01 X23.3351 Y138.2136
G01 X23.3324 Y138.2231
G01 X23.3306 Y138.2340
G01 X23.3300 Y138.2450
G01 X23.3300 Y143.0550
G00 X23.3300 Y143.0550
G01 F60.00
G01 Z-1.6000
G01 F120.00
G01 X23.3300 Y138.2450
G01 X23.3306 Y138.2340
G01 X23.3324 Y138.2231
G01 X23.3351 Y138.2136
G01 X23.3376 Y138.2067
G01 X23.3407 Y138.2000
G01 X23.3462 Y138.1905
G01 X23.3527 Y138.1815
G01 X23.3593 Y138.1743
G01 X23.3675 Y138.1669
G01 X23.3744 Y138.1618
G01 X23.3828 Y138.1568
G01 X23.3917 Y138.1526
G01 X23.3986 Y138.1501
G01 X23.4117 Y138.1467
G01 X23.4202 Y138.1455
G01 X23.4300 Y138.1450
G01 X29.4800 Y138.1450
G00 X29.4800 Y138.1450
G01 F60.00
G01 Z-1.8000
G01 F120.00
G01 X23.4300 Y138.1450
G01 X23.4202 Y138.1455
G01 X23.4117 Y138.1467
G01 X23.3986 Y138.1501
G01 X23.3917 Y138.1526
G01 X23.3828 Y138.1568
G01 X23.3744 Y138.1618
G01 X23.3675 Y138.1669
G01 X23.3593 Y138.1743
G01 X23.3527 Y138.1815
G01 X23.3462 Y138.1905
G01 X23.3407 Y138.2000
G01 X23.3376 Y138.2067
G01 X23.3351 Y138.2136
G01 X23.3324 Y138.2231
G01 X23.3306 Y138.2340
G01 X23.3300 Y138.2450
G01 X23.3300 Y143.0550
G00 Z2.0000
G00 X30.5800 Y138.1450
G01 F60.00
G01 Z-0.4000
G01 F120.00
G01 X36.4312 Y138.1450
G01 X36.4398 Y138.1455
G01 X36.4495 Y138.1469
G01 X36.4590 Y138.1493
G01 X36.4683 Y138.1526
G01 X36.4772 Y138.1568
G01 X36.4856 Y138.1618
G01 X36.4935 Y138.1677
G01 X36.5007 Y138.1743
G01 X36.5073 Y138.1815
G01 X36.5132 Y138.1894
G01 X36.5182 Y138.1978
G01 X36.5224 Y138.2067
G01 X36.5257 Y138.2160
G01 X36.5281 Y138.2255
G01 X36.5295 Y138.2352
G01 X36.5300 Y138.2450
G01 X36.5300 Y143.0550
G01 X36.5295 Y143.0648
G01 X36.5278 Y143.0757
G01 X36.5253 Y143.0852
G01 X36.5214 Y143.0955
G01 X36.5170 Y143.1043
G01 X36.5132 Y143.1106
G01 X36.5088 Y143.1165
G01 X36.5016 Y143.1248
G01 X36.4935 Y143.1323
G01 X36.4856 Y143.1382
G01 X36.4772 Y143.1432
G01 X36.4683 Y143.1474
G01 X36.4614 Y143.1499
G01 X36.4483 Y143.1533
G01 X36.4398 Y143.1545
G01 X36.4300 Y143.1550
G01 X30.5800 Y143.1550
G00 X30.5800 Y143.1550
G01 F60.00
G01 Z-0.8000
G01 F120.00
G01 X36.4300 Y143.1550
G01 X36.4398 Y143.1545
G01 X36.4483 Y143.1533
G01 X36.4614 Y143.1499
G01 X36.4683 Y143.1474
G01 X36.4772 Y143.1432
G01 X36.4856 Y143.1382
G01 X36.4935 Y143.1323
G01 X36.5016 Y143.1248
G01 X36.5088 Y143.1165
G01 X36.5132 Y143.1106
G01 X36.5170 Y143.1043
G01 X36.5214 Y143.0955
G01 X36.5253 Y143.0852
G01 X36.5278 Y143.0757
G01 X36.5295 Y143.0648
G01 X36.5300 Y143.0550
G01 X36.5300 Y138.2450
G01 X36.5295 Y138.2352
G01 X36.5281 Y138.2255
G01 X36.5257 Y138.2160
G01 X36.5224 Y138.2067
G01 X36.5182 Y138.1978
G01 X36.5132 Y138.1894
G01 X36.5073 Y138.1815
G01 X36.5007 Y138.1743
G01 X36.4935 Y138.1677
G01 X36.4856 Y138.1618
G01 X36.4772 Y138.1568
G01 X36.4683 Y138.1526
G01 X36.4590 Y138.1493
G01 X36.4495 Y138.1469
G01 X36.4398 Y138.1455
G01 X36.4312 Y138.1450
G01 X30.5800 Y138.1450
G00 X30.5800 Y138.1450
G01 F60.00
G01 Z-1.2000
G01 F120.00
G01 X36.4312 Y138.1450
G01 X36.4398 Y138.1455
G01 X36.4495 Y138.1469
G01 X36.4590 Y138.1493
G01 X36.4683 Y138.1526
G01 X36.4772 Y138.1568
G01 X36.4856 Y138.1618
G01 X36.4935 Y138.1677
G01 X36.5007 Y138.1743
G01 X36.5073 Y138.1815
G01 X36.5132 Y138.1894
G01 X36.5182 Y138.1978
G01 X36.5224 Y138.2067
G01 X36.5257 Y138.2160
G01 X36.5281 Y138.2255
G01 X36.5295 Y138.2352
G01 X36.5300 Y138.2450
G01 X36.5300 Y143.0550
G01 X36.5295 Y143.0648
G01 X36.5278 Y143.0757
G01 X36.5253 Y143.0852
G01 X36.5214 Y143.0955
G01 X36.5170 Y143.1043
G01 X36.5132 Y143.1106
G01 X36.5088 Y143.1165
G01 X36.5016 Y143.1248
G01 X36.4935 Y143.1323
G01 X36.4856 Y143.1382
G01 X36.4772 Y143.1432
G01 X36.4683 Y143.1474
G01 X36.4614 Y143.1499
G01 X36.4483 Y143.1533
G01 X36.4398 Y143.1545
G01 X36.4300 Y143.1550
G01 X30.5800 Y143.1550
G00 X30.5800 Y143.1550
G01 F60.00
G01 Z-1.6000
G01 F120.00
G01 X36.4300 Y143.1550
G01 X36.4398 Y143.1545
G01 X36.4483 Y143.1533
G01 X36.4614 Y143.1499
G01 X36.4683 Y143.1474
G01 X36.4772 Y143.1432
G01 X36.4856 Y143.1382
G01 X36.4935 Y143.1323
G01 X36.5016 Y143.1248
G01 X36.5088 Y143.1165
G01 X36.5132 Y143.1106
G01 X36.5170 Y143.1043
G01 X36.5214 Y143.0955
G01 X36.5253 Y143.0852
G01 X36.5278 Y143.0757
G01 X36.5295 Y143.0648
G01 X36.5300 Y143.0550
G01 X36.5300 Y138.2450
G01 X36.5295 Y138.2352
G01 X36.5281 Y138.2255
G01 X36.5257 Y138.2160
G01 X36.5224 Y138.2067
G01 X36.5182 Y138.1978
G01 X36.5132 Y138.1894
G01 X36.5073 Y138.1815
G01 X36.5007 Y138.1743
G01 X36.4935 Y138.1677
G01 X36.4856 Y138.1618
G01 X36.4772 Y138.1568
G01 X36.4683 Y138.1526
G01 X36.4590 Y138.1493
G01 X36.4495 Y138.1469
G01 X36.4398 Y138.1455
G01 X36.4312 Y138.1450
G01 X30.5800 Y138.1450
G00 X30.5800 Y138.1450
G01 F60.00
G01 Z-1.8000
G01 F120.00
G01 X36.4312 Y138.1450
G01 X36.4398 Y138.1455
G01 X36.4495 Y138.1469
G01 X36.4590 Y138.1493
G01 X36.4683 Y138.1526
G01 X36.4772 Y138.1568
G01 X36.4856 Y138.1618
G01 X36.4935 Y138.1677
G01 X36.5007 Y138.1743
G01 X36.5073 Y138.1815
G01 X36.5132 Y138.1894
G01 X36.5182 Y138.1978
G01 X36.5224 Y138.2067
G01 X36.5257 Y138.2160
G01 X36.5281 Y138.2255
G01 X36.5295 Y138.2352
G01 X36.5300 Y138.2450
G01 X36.5300 Y143.0550
G01 X36.5295 Y143.0648
G01 X36.5278 Y143.0757
G01 X36.5253 Y143.0852
G01 X36.5214 Y143.0955
G01 X36.5170 Y143.1043
G01 X36.5132 Y143.1106
G01 X36.5088 Y143.1165
G01 X36.5016 Y143.1248
G01 X36.4935 Y143.1323
G01 X36.4856 Y143.1382
G01 X36.4772 Y143.1432
G01 X36.4683 Y143.1474
G01 X36.4614 Y143.1499
G01 X36.4483 Y143.1533
G01 X36.4398 Y143.1545
G01 X36.4300 Y143.1550
G01 X30.5800 Y143.1550
G00 Z2.0000
G00 X29.4800 Y143.1550
G01 F60.00
G01 Z-0.4000
G01 F120.00
G01 X23.4288 Y143.1550
G01 X23.4202 Y143.1545
G01 X23.4105 Y143.1531
G01 X23.4010 Y143.1507
G01 X23.3917 Y143.1474
G01 X23.3828 Y143.1432
G01 X23.3744 Y143.1382
G01 X23.3665 Y143.1323
G01 X23.3593 Y143.1257
G01 X23.3527 Y143.1185
G01 X23.3468 Y143.1106
G01 X23.3418 Y143.1022
G01 X23.3376 Y143.0933
G01 X23.3343 Y143.0840
G01 X23.3319 Y143.0745
G01 X23.3305 Y143.0648
G01 X23.3300 Y143.0550
G00 X23.3300 Y143.0550
G01 F60.00
G01 Z-0.8000
G01 F120.00
G01 X23.3305 Y143.0648
G01 X23.3319 Y143.0745
G01 X23.3343 Y143.0840
G01 X23.3376 Y143.0933
G01 X23.3418 Y143.1022
G01 X23.3468 Y143.1106
G01 X23.3527 Y143.1185
G01 X23.3593 Y143.1257
G01 X23.3665 Y143.1323
G01 X23.3744 Y143.1382
G01 X23.3828 Y143.1432
G01 X23.3917 Y143.1474
G01 X23.4010 Y143.1507
G01 X23.4105 Y143.1531
G01 X23.4202 Y143.1545
G01 X23.4288 Y143.1550
G01 X29.4800 Y143.1550
G00 X29.4800 Y143.1550
G01 F60.00
G01 Z-1.2000
G01 F120.00
G01 X23.4288 Y143.1550
G01 X23.4202 Y143.1545
G01 X23.4105 Y143.1531
G01 X23.4010 Y143.1507
G01 X23.3917 Y143.1474
G01 X23.3828 Y143.1432
G01 X23.3744 Y143.1382
G01 X23.3665 Y143.1323
G01 X23.3593 Y143.1257
G01 X23.3527 Y143.1185
G01 X23.3468 Y143.1106
G01 X23.3418 Y143.1022
G01 X23.3376 Y143.0933
G01 X23.3343 Y143.0840
G01 X23.3319 Y143.0745
G01 X23.3305 Y143.0648
G01 X23.3300 Y143.0550
G00 X23.3300 Y143.0550
G01 F60.00
G01 Z-1.6000
G01 F120.00
G01 X23.3305 Y143.0648
G01 X23.3319 Y143.0745
G01 X23.3343 Y143.0840
G01 X23.3376 Y143.0933
G01 X23.3418 Y143.1022
G01 X23.3468 Y143.1106
G01 X23.3527 Y143.1185
G01 X23.3593 Y143.1257
G01 X23.3665 Y143.1323
G01 X23.3744 Y143.1382
G01 X23.3828 Y143.1432
G01 X23.3917 Y143.1474
G01 X23.4010 Y143.1507
G01 X23.4105 Y143.1531
G01 X23.4202 Y143.1545
G01 X23.4288 Y143.1550
G01 X29.4800 Y143.1550
G00 X29.4800 Y143.1550
G01 F60.00
G01 Z-1.8000
G01 F120.00
G01 X23.4288 Y143.1550
G01 X23.4202 Y143.1545
G01 X23.4105 Y143.1531
G01 X23.4010 Y143.1507
G01 X23.3917 Y143.1474
G01 X23.3828 Y143.1432
G01 X23.3744 Y143.1382
G01 X23.3665 Y143.1323
G01 X23.3593 Y143.1257
G01 X23.3527 Y143.1185
G01 X23.3468 Y143.1106
G01 X23.3418 Y143.1022
G01 X23.3376 Y143.0933
G01 X23.3343 Y143.0840
G01 X23.3319 Y143.0745
G01 X23.3305 Y143.0648
G01 X23.3300 Y143.0550
G00 Z2.0000
M05
G00 Z2.0000
G00 Z15.00


