(G-CODE GENERATED BY FLATCAM v8.994 - www.flatcam.org - Version Date: 2020/11/7)

(Name: Beecounter-B_Cu.gbr_iso_combined_cnc)
(Type: G-code from Geometry)
(Units: MM)

(Created on Saturday, 30 November 2024 at 20:08)

(This preprocessor is the default preprocessor used by FlatCAM.)
(It is made to work with MACH3 compatible motion controllers.)

(TOOL DIAMETER: 0.3 mm)
(Feedrate_XY: 120.0 mm/min)
(Feedrate_Z: 60.0 mm/min)
(Feedrate rapids 1500.0 mm/min)

(Z_Cut: -0.12 mm)
(Z_Move: 2.0 mm)
(Z Start: None mm)
(Z End: 15.0 mm)
(X,Y End: None mm)
(Steps per circle: 64)
(Preprocessor Geometry: default)

(X range:    0.2919 ...   58.6990  mm)
(Y range:    0.3427 ...  159.6100  mm)

(Spindle Speed: 0.0 RPM)
G21
G90
G94

G01 F120.00

M5
G00 Z15.0000
G00 X0.0000 Y0.0000
T1
M6    
(MSG, Change to Tool Dia = 0.3000)
M0
G00 Z15.0000

M03
G01 F120.00
G00 X8.2740 Y5.0613
G01 F60.00
G01 Z-0.1200
G01 F120.00
G01 X8.2740 Y4.8487
G01 X8.2407 Y4.6388
G01 X8.1750 Y4.4366
G01 X8.0785 Y4.2472
G01 X7.9536 Y4.0752
G01 X7.8033 Y3.9249
G01 X7.6313 Y3.7999
G01 X7.4419 Y3.7034
G01 X7.2397 Y3.6378
G01 X7.0298 Y3.6045
G01 X6.8172 Y3.6045
G01 X6.6072 Y3.6378
G01 X6.4051 Y3.7034
G01 X6.2157 Y3.7999
G01 X6.0437 Y3.9249
G01 X5.8934 Y4.0752
G01 X5.7684 Y4.2472
G01 X5.6719 Y4.4366
G01 X5.6062 Y4.6388
G01 X5.5730 Y4.8487
G01 X5.5730 Y5.0613
G01 X5.6062 Y5.2712
G01 X5.6719 Y5.4734
G01 X5.7684 Y5.6628
G01 X5.8934 Y5.8348
G01 X6.0437 Y5.9851
G01 X6.2157 Y6.1101
G01 X6.4051 Y6.2066
G01 X6.6072 Y6.2722
G01 X6.8172 Y6.3055
G01 X7.0298 Y6.3055
G01 X7.2397 Y6.2722
G01 X7.4419 Y6.2066
G01 X7.6313 Y6.1101
G01 X7.8033 Y5.9851
G01 X7.9536 Y5.8348
G01 X8.0785 Y5.6628
G01 X8.1750 Y5.4734
G01 X8.2407 Y5.2712
G01 X8.2740 Y5.0613
G00 Z2.0000
G00 X6.1410 Y8.9941
G01 F60.00
G01 Z-0.1200
G01 F120.00
G01 X6.1410 Y8.7748
G01 X6.1290 Y8.7781
G01 X5.9387 Y8.8668
G01 X5.7667 Y8.9872
G01 X5.6182 Y9.1357
G01 X5.4978 Y9.3077
G01 X5.4548 Y9.3998
G01 X5.6821 Y9.3998
G01 X5.7056 Y9.3606
G01 X5.7116 Y9.3514
G01 X5.7634 Y9.2814
G01 X5.7703 Y9.2728
G01 X5.8339 Y9.2029
G01 X5.9038 Y9.1394
G01 X5.9124 Y9.1325
G01 X5.9794 Y9.0828
G01 X5.9916 Y9.0746
G01 X6.0696 Y9.0281
G01 X6.1410 Y8.9941
G00 Z2.0000
G00 X7.6729 Y9.4980
G01 F60.00
G01 Z-0.1200
G01 F120.00
G01 X7.5842 Y9.3077
G01 X7.4637 Y9.1357
G01 X7.3153 Y8.9872
G01 X7.1433 Y8.8668
G01 X6.9530 Y8.7781
G01 X6.9410 Y8.7748
G01 X6.9410 Y8.9941
G01 X7.0124 Y9.0281
G01 X7.0965 Y9.0785
G01 X7.1754 Y9.1370
G01 X7.2481 Y9.2029
G01 X7.3140 Y9.2756
G01 X7.3724 Y9.3544
G01 X7.4229 Y9.4386
G01 X7.4569 Y9.5100
G01 X7.6761 Y9.5100
G01 X7.6729 Y9.4980
G00 Z2.0000
G00 X7.3910 Y13.9900
G01 F60.00
G01 Z-0.1200
G01 F120.00
G01 X5.6873 Y13.9900
G01 X5.6799 Y13.9904
G01 X5.6690 Y13.9916
G01 X5.6545 Y13.9945
G01 X5.6404 Y13.9988
G01 X5.6268 Y14.0044
G01 X5.6139 Y14.0113
G01 X5.6016 Y14.0195
G01 X5.5902 Y14.0289
G01 X5.5798 Y14.0393
G01 X5.5705 Y14.0506
G01 X5.5642 Y14.0598
G01 X5.5570 Y14.0726
G01 X5.5524 Y14.0826
G01 X5.5474 Y14.0965
G01 X5.5438 Y14.1107
G01 X5.5417 Y14.1253
G01 X5.5410 Y14.1363
G01 X5.5410 Y15.8400
G01 X5.5417 Y15.8547
G01 X5.5438 Y15.8693
G01 X5.5455 Y15.8764
G01 X5.5485 Y15.8871
G01 X5.5538 Y15.9008
G01 X5.5570 Y15.9074
G01 X5.5623 Y15.9171
G01 X5.5705 Y15.9294
G01 X5.5798 Y15.9407
G01 X5.5902 Y15.9511
G01 X5.5987 Y15.9583
G01 X5.6107 Y15.9667
G01 X5.6235 Y15.9740
G01 X5.6336 Y15.9786
G01 X5.6474 Y15.9835
G01 X5.6617 Y15.9871
G01 X5.6763 Y15.9893
G01 X5.6873 Y15.9900
G01 X7.3910 Y15.9900
G01 X7.4057 Y15.9893
G01 X7.4202 Y15.9871
G01 X7.4345 Y15.9835
G01 X7.4415 Y15.9812
G01 X7.4518 Y15.9771
G01 X7.4649 Y15.9705
G01 X7.4773 Y15.9626
G01 X7.4889 Y15.9536
G01 X7.4970 Y15.9461
G01 X7.5021 Y15.9407
G01 X7.5114 Y15.9294
G01 X7.5177 Y15.9202
G01 X7.5250 Y15.9074
G01 X7.5295 Y15.8974
G01 X7.5345 Y15.8835
G01 X7.5381 Y15.8693
G01 X7.5402 Y15.8547
G01 X7.5409 Y15.8437
G01 X7.5408 Y14.1326
G01 X7.5393 Y14.1180
G01 X7.5365 Y14.1036
G01 X7.5322 Y14.0895
G01 X7.5281 Y14.0792
G01 X7.5215 Y14.0661
G01 X7.5136 Y14.0536
G01 X7.5045 Y14.0420
G01 X7.4944 Y14.0314
G01 X7.4833 Y14.0217
G01 X7.4712 Y14.0133
G01 X7.4584 Y14.0060
G01 X7.4484 Y14.0014
G01 X7.4345 Y13.9965
G01 X7.4202 Y13.9929
G01 X7.4057 Y13.9907
G01 X7.3910 Y13.9900
G00 Z2.0000
G00 X8.2740 Y20.0613
G01 F60.00
G01 Z-0.1200
G01 F120.00
G01 X8.2740 Y19.8487
G01 X8.2407 Y19.6388
G01 X8.1750 Y19.4366
G01 X8.0785 Y19.2472
G01 X7.9536 Y19.0752
G01 X7.8033 Y18.9249
G01 X7.6313 Y18.7999
G01 X7.4419 Y18.7034
G01 X7.2397 Y18.6378
G01 X7.0298 Y18.6045
G01 X6.8172 Y18.6045
G01 X6.6072 Y18.6378
G01 X6.4051 Y18.7034
G01 X6.2157 Y18.7999
G01 X6.0437 Y18.9249
G01 X5.8934 Y19.0752
G01 X5.7684 Y19.2472
G01 X5.6719 Y19.4366
G01 X5.6062 Y19.6388
G01 X5.5730 Y19.8487
G01 X5.5730 Y20.0613
G01 X5.6062 Y20.2712
G01 X5.6719 Y20.4734
G01 X5.7684 Y20.6628
G01 X5.8934 Y20.8348
G01 X6.0437 Y20.9851
G01 X6.2157 Y21.1101
G01 X6.4051 Y21.2066
G01 X6.6072 Y21.2722
G01 X6.8172 Y21.3055
G01 X7.0298 Y21.3055
G01 X7.2397 Y21.2722
G01 X7.4419 Y21.2066
G01 X7.6313 Y21.1101
G01 X7.8033 Y20.9851
G01 X7.9536 Y20.8348
G01 X8.0785 Y20.6628
G01 X8.1750 Y20.4734
G01 X8.2407 Y20.2712
G01 X8.2740 Y20.0613
G00 Z2.0000
G00 X8.2740 Y25.0613
G01 F60.00
G01 Z-0.1200
G01 F120.00
G01 X8.2740 Y24.8487
G01 X8.2407 Y24.6388
G01 X8.1750 Y24.4366
G01 X8.0785 Y24.2472
G01 X7.9536 Y24.0752
G01 X7.8033 Y23.9249
G01 X7.6313 Y23.7999
G01 X7.4419 Y23.7034
G01 X7.2397 Y23.6378
G01 X7.0298 Y23.6045
G01 X6.8172 Y23.6045
G01 X6.6072 Y23.6378
G01 X6.4051 Y23.7034
G01 X6.2157 Y23.7999
G01 X6.0437 Y23.9249
G01 X5.8934 Y24.0752
G01 X5.7684 Y24.2472
G01 X5.6719 Y24.4366
G01 X5.6062 Y24.6388
G01 X5.5730 Y24.8487
G01 X5.5730 Y25.0613
G01 X5.6062 Y25.2712
G01 X5.6719 Y25.4734
G01 X5.7684 Y25.6628
G01 X5.8934 Y25.8348
G01 X6.0437 Y25.9851
G01 X6.2157 Y26.1101
G01 X6.4051 Y26.2066
G01 X6.6072 Y26.2722
G01 X6.8172 Y26.3055
G01 X7.0298 Y26.3055
G01 X7.2397 Y26.2722
G01 X7.4419 Y26.2066
G01 X7.6313 Y26.1101
G01 X7.8033 Y25.9851
G01 X7.9536 Y25.8348
G01 X8.0785 Y25.6628
G01 X8.1750 Y25.4734
G01 X8.2407 Y25.2712
G01 X8.2740 Y25.0613
G00 Z2.0000
G00 X6.1410 Y28.9941
G01 F60.00
G01 Z-0.1200
G01 F120.00
G01 X6.1410 Y28.7748
G01 X6.1290 Y28.7781
G01 X5.9387 Y28.8668
G01 X5.7667 Y28.9872
G01 X5.6182 Y29.1357
G01 X5.4978 Y29.3077
G01 X5.4781 Y29.3498
G01 X5.7127 Y29.3498
G01 X5.7680 Y29.2756
G01 X5.8288 Y29.2082
G01 X5.8392 Y29.1978
G01 X5.9066 Y29.1370
G01 X5.9794 Y29.0828
G01 X5.9916 Y29.0746
G01 X6.0696 Y29.0281
G01 X6.1410 Y28.9941
G00 Z2.0000
G00 X7.6729 Y29.4980
G01 F60.00
G01 Z-0.1200
G01 F120.00
G01 X7.5842 Y29.3077
G01 X7.4637 Y29.1357
G01 X7.3153 Y28.9872
G01 X7.1433 Y28.8668
G01 X6.9530 Y28.7781
G01 X6.9410 Y28.7748
G01 X6.9410 Y28.9941
G01 X7.0124 Y29.0281
G01 X7.0965 Y29.0785
G01 X7.1754 Y29.1370
G01 X7.2481 Y29.2029
G01 X7.3140 Y29.2756
G01 X7.3724 Y29.3544
G01 X7.4229 Y29.4386
G01 X7.4569 Y29.5100
G01 X7.6761 Y29.5100
G01 X7.6729 Y29.4980
G00 Z2.0000
G00 X7.3910 Y33.9900
G01 F60.00
G01 Z-0.1200
G01 F120.00
G01 X5.6873 Y33.9900
G01 X5.6726 Y33.9911
G01 X5.6581 Y33.9936
G01 X5.6439 Y33.9976
G01 X5.6302 Y34.0029
G01 X5.6235 Y34.0060
G01 X5.6139 Y34.0113
G01 X5.6016 Y34.0195
G01 X5.5902 Y34.0289
G01 X5.5798 Y34.0393
G01 X5.5705 Y34.0506
G01 X5.5642 Y34.0598
G01 X5.5570 Y34.0726
G01 X5.5524 Y34.0826
G01 X5.5474 Y34.0965
G01 X5.5438 Y34.1107
G01 X5.5417 Y34.1253
G01 X5.5410 Y34.1363
G01 X5.5410 Y35.8400
G01 X5.5417 Y35.8547
G01 X5.5438 Y35.8693
G01 X5.5455 Y35.8764
G01 X5.5485 Y35.8871
G01 X5.5538 Y35.9008
G01 X5.5570 Y35.9074
G01 X5.5623 Y35.9171
G01 X5.5705 Y35.9294
G01 X5.5798 Y35.9407
G01 X5.5902 Y35.9511
G01 X5.6016 Y35.9605
G01 X5.6107 Y35.9667
G01 X5.6235 Y35.9740
G01 X5.6336 Y35.9786
G01 X5.6474 Y35.9835
G01 X5.6617 Y35.9871
G01 X5.6763 Y35.9893
G01 X5.6873 Y35.9900
G01 X7.3910 Y35.9900
G01 X7.4057 Y35.9893
G01 X7.4202 Y35.9871
G01 X7.4274 Y35.9855
G01 X7.4380 Y35.9824
G01 X7.4518 Y35.9771
G01 X7.4584 Y35.9740
G01 X7.4681 Y35.9687
G01 X7.4803 Y35.9605
G01 X7.4917 Y35.9511
G01 X7.5021 Y35.9407
G01 X7.5114 Y35.9294
G01 X7.5177 Y35.9202
G01 X7.5250 Y35.9074
G01 X7.5295 Y35.8974
G01 X7.5345 Y35.8835
G01 X7.5381 Y35.8693
G01 X7.5402 Y35.8547
G01 X7.5409 Y35.8437
G01 X7.5408 Y34.1326
G01 X7.5393 Y34.1180
G01 X7.5365 Y34.1036
G01 X7.5322 Y34.0895
G01 X7.5281 Y34.0792
G01 X7.5215 Y34.0661
G01 X7.5136 Y34.0536
G01 X7.5045 Y34.0420
G01 X7.4944 Y34.0314
G01 X7.4833 Y34.0217
G01 X7.4743 Y34.0153
G01 X7.4617 Y34.0077
G01 X7.4484 Y34.0014
G01 X7.4345 Y33.9965
G01 X7.4202 Y33.9929
G01 X7.4057 Y33.9907
G01 X7.3910 Y33.9900
G00 Z2.0000
G00 X8.2740 Y40.0613
G01 F60.00
G01 Z-0.1200
G01 F120.00
G01 X8.2740 Y39.8487
G01 X8.2407 Y39.6388
G01 X8.1750 Y39.4366
G01 X8.0785 Y39.2472
G01 X7.9536 Y39.0752
G01 X7.8033 Y38.9249
G01 X7.6313 Y38.7999
G01 X7.4419 Y38.7034
G01 X7.2397 Y38.6378
G01 X7.0298 Y38.6045
G01 X6.8172 Y38.6045
G01 X6.6072 Y38.6378
G01 X6.4051 Y38.7034
G01 X6.2157 Y38.7999
G01 X6.0437 Y38.9249
G01 X5.8934 Y39.0752
G01 X5.7684 Y39.2472
G01 X5.6719 Y39.4366
G01 X5.6062 Y39.6388
G01 X5.5730 Y39.8487
G01 X5.5730 Y40.0613
G01 X5.6062 Y40.2712
G01 X5.6719 Y40.4734
G01 X5.7684 Y40.6628
G01 X5.8934 Y40.8348
G01 X6.0437 Y40.9851
G01 X6.2157 Y41.1101
G01 X6.4051 Y41.2066
G01 X6.6072 Y41.2722
G01 X6.8172 Y41.3055
G01 X7.0298 Y41.3055
G01 X7.2397 Y41.2722
G01 X7.4419 Y41.2066
G01 X7.6313 Y41.1101
G01 X7.8033 Y40.9851
G01 X7.9536 Y40.8348
G01 X8.0785 Y40.6628
G01 X8.1750 Y40.4734
G01 X8.2407 Y40.2712
G01 X8.2740 Y40.0613
G00 Z2.0000
G00 X8.2740 Y45.0613
G01 F60.00
G01 Z-0.1200
G01 F120.00
G01 X8.2740 Y44.8487
G01 X8.2407 Y44.6388
G01 X8.1750 Y44.4366
G01 X8.0785 Y44.2472
G01 X7.9536 Y44.0752
G01 X7.8033 Y43.9249
G01 X7.6313 Y43.7999
G01 X7.4419 Y43.7034
G01 X7.2397 Y43.6378
G01 X7.0298 Y43.6045
G01 X6.8172 Y43.6045
G01 X6.6072 Y43.6378
G01 X6.4051 Y43.7034
G01 X6.2157 Y43.7999
G01 X6.0437 Y43.9249
G01 X5.8934 Y44.0752
G01 X5.7684 Y44.2472
G01 X5.6719 Y44.4366
G01 X5.6062 Y44.6388
G01 X5.5730 Y44.8487
G01 X5.5730 Y45.0613
G01 X5.6062 Y45.2712
G01 X5.6719 Y45.4734
G01 X5.7684 Y45.6628
G01 X5.8934 Y45.8348
G01 X6.0437 Y45.9851
G01 X6.2157 Y46.1101
G01 X6.4051 Y46.2066
G01 X6.6072 Y46.2722
G01 X6.8172 Y46.3055
G01 X7.0298 Y46.3055
G01 X7.2397 Y46.2722
G01 X7.4419 Y46.2066
G01 X7.6313 Y46.1101
G01 X7.8033 Y45.9851
G01 X7.9536 Y45.8348
G01 X8.0785 Y45.6628
G01 X8.1750 Y45.4734
G01 X8.2407 Y45.2712
G01 X8.2740 Y45.0613
G00 Z2.0000
G00 X6.1410 Y48.9941
G01 F60.00
G01 Z-0.1200
G01 F120.00
G01 X6.1410 Y48.7748
G01 X6.1290 Y48.7781
G01 X5.9387 Y48.8668
G01 X5.7667 Y48.9872
G01 X5.6182 Y49.1357
G01 X5.4978 Y49.3077
G01 X5.4781 Y49.3498
G01 X5.7127 Y49.3498
G01 X5.7680 Y49.2756
G01 X5.8288 Y49.2082
G01 X5.8392 Y49.1978
G01 X5.9066 Y49.1370
G01 X5.9794 Y49.0828
G01 X5.9916 Y49.0746
G01 X6.0696 Y49.0281
G01 X6.1410 Y48.9941
G00 Z2.0000
G00 X7.6729 Y49.4980
G01 F60.00
G01 Z-0.1200
G01 F120.00
G01 X7.5842 Y49.3077
G01 X7.4637 Y49.1357
G01 X7.3153 Y48.9872
G01 X7.1433 Y48.8668
G01 X6.9530 Y48.7781
G01 X6.9410 Y48.7748
G01 X6.9410 Y48.9941
G01 X7.0124 Y49.0281
G01 X7.0965 Y49.0785
G01 X7.1754 Y49.1370
G01 X7.2481 Y49.2029
G01 X7.3140 Y49.2756
G01 X7.3724 Y49.3544
G01 X7.4229 Y49.4386
G01 X7.4569 Y49.5100
G01 X7.6761 Y49.5100
G01 X7.6729 Y49.4980
G00 Z2.0000
G00 X7.3910 Y53.9900
G01 F60.00
G01 Z-0.1200
G01 F120.00
G01 X5.6873 Y53.9900
G01 X5.6726 Y53.9911
G01 X5.6581 Y53.9936
G01 X5.6439 Y53.9976
G01 X5.6302 Y54.0029
G01 X5.6235 Y54.0060
G01 X5.6139 Y54.0113
G01 X5.6016 Y54.0195
G01 X5.5902 Y54.0289
G01 X5.5798 Y54.0393
G01 X5.5705 Y54.0506
G01 X5.5642 Y54.0598
G01 X5.5570 Y54.0726
G01 X5.5524 Y54.0826
G01 X5.5474 Y54.0965
G01 X5.5438 Y54.1107
G01 X5.5417 Y54.1253
G01 X5.5410 Y54.1363
G01 X5.5410 Y55.8400
G01 X5.5417 Y55.8547
G01 X5.5438 Y55.8693
G01 X5.5455 Y55.8764
G01 X5.5485 Y55.8871
G01 X5.5538 Y55.9008
G01 X5.5570 Y55.9074
G01 X5.5623 Y55.9171
G01 X5.5705 Y55.9294
G01 X5.5798 Y55.9407
G01 X5.5902 Y55.9511
G01 X5.6016 Y55.9605
G01 X5.6107 Y55.9667
G01 X5.6235 Y55.9740
G01 X5.6336 Y55.9786
G01 X5.6474 Y55.9835
G01 X5.6617 Y55.9871
G01 X5.6763 Y55.9893
G01 X5.6873 Y55.9900
G01 X7.3910 Y55.9900
G01 X7.4057 Y55.9893
G01 X7.4202 Y55.9871
G01 X7.4274 Y55.9855
G01 X7.4380 Y55.9824
G01 X7.4518 Y55.9771
G01 X7.4584 Y55.9740
G01 X7.4681 Y55.9687
G01 X7.4803 Y55.9605
G01 X7.4917 Y55.9511
G01 X7.5021 Y55.9407
G01 X7.5114 Y55.9294
G01 X7.5177 Y55.9202
G01 X7.5250 Y55.9074
G01 X7.5295 Y55.8974
G01 X7.5345 Y55.8835
G01 X7.5381 Y55.8693
G01 X7.5402 Y55.8547
G01 X7.5409 Y55.8437
G01 X7.5408 Y54.1326
G01 X7.5393 Y54.1180
G01 X7.5365 Y54.1036
G01 X7.5322 Y54.0895
G01 X7.5281 Y54.0792
G01 X7.5215 Y54.0661
G01 X7.5136 Y54.0536
G01 X7.5045 Y54.0420
G01 X7.4944 Y54.0314
G01 X7.4833 Y54.0217
G01 X7.4743 Y54.0153
G01 X7.4617 Y54.0077
G01 X7.4484 Y54.0014
G01 X7.4345 Y53.9965
G01 X7.4202 Y53.9929
G01 X7.4057 Y53.9907
G01 X7.3910 Y53.9900
G00 Z2.0000
G00 X8.2740 Y60.0613
G01 F60.00
G01 Z-0.1200
G01 F120.00
G01 X8.2740 Y59.8487
G01 X8.2407 Y59.6388
G01 X8.1750 Y59.4366
G01 X8.0785 Y59.2472
G01 X7.9536 Y59.0752
G01 X7.8033 Y58.9249
G01 X7.6313 Y58.7999
G01 X7.4419 Y58.7034
G01 X7.2397 Y58.6378
G01 X7.0298 Y58.6045
G01 X6.8172 Y58.6045
G01 X6.6072 Y58.6378
G01 X6.4051 Y58.7034
G01 X6.2157 Y58.7999
G01 X6.0437 Y58.9249
G01 X5.8934 Y59.0752
G01 X5.7684 Y59.2472
G01 X5.6719 Y59.4366
G01 X5.6062 Y59.6388
G01 X5.5730 Y59.8487
G01 X5.5730 Y60.0613
G01 X5.6062 Y60.2712
G01 X5.6719 Y60.4734
G01 X5.7684 Y60.6628
G01 X5.8934 Y60.8348
G01 X6.0437 Y60.9851
G01 X6.2157 Y61.1101
G01 X6.4051 Y61.2066
G01 X6.6072 Y61.2722
G01 X6.8172 Y61.3055
G01 X7.0298 Y61.3055
G01 X7.2397 Y61.2722
G01 X7.4419 Y61.2066
G01 X7.6313 Y61.1101
G01 X7.8033 Y60.9851
G01 X7.9536 Y60.8348
G01 X8.0063 Y60.7623
G01 X8.0785 Y60.6628
G01 X8.1750 Y60.4734
G01 X8.2407 Y60.2712
G01 X8.2740 Y60.0613
G00 Z2.0000
G00 X8.2740 Y65.0613
G01 F60.00
G01 Z-0.1200
G01 F120.00
G01 X8.2740 Y64.8487
G01 X8.2407 Y64.6388
G01 X8.1750 Y64.4366
G01 X8.0785 Y64.2472
G01 X7.9536 Y64.0752
G01 X7.8033 Y63.9249
G01 X7.6313 Y63.7999
G01 X7.4419 Y63.7034
G01 X7.2397 Y63.6378
G01 X7.0298 Y63.6045
G01 X6.8172 Y63.6045
G01 X6.6072 Y63.6378
G01 X6.4051 Y63.7034
G01 X6.2157 Y63.7999
G01 X6.0437 Y63.9249
G01 X5.8934 Y64.0752
G01 X5.7684 Y64.2472
G01 X5.6719 Y64.4366
G01 X5.6062 Y64.6388
G01 X5.5730 Y64.8487
G01 X5.5730 Y65.0613
G01 X5.6062 Y65.2712
G01 X5.6719 Y65.4734
G01 X5.7684 Y65.6628
G01 X5.8934 Y65.8348
G01 X6.0437 Y65.9851
G01 X6.2157 Y66.1101
G01 X6.4051 Y66.2066
G01 X6.6072 Y66.2722
G01 X6.8172 Y66.3055
G01 X7.0298 Y66.3055
G01 X7.2397 Y66.2722
G01 X7.4419 Y66.2066
G01 X7.6313 Y66.1101
G01 X7.8033 Y65.9851
G01 X7.9536 Y65.8348
G01 X8.0785 Y65.6628
G01 X8.1750 Y65.4734
G01 X8.2407 Y65.2712
G01 X8.2740 Y65.0613
G00 Z2.0000
G00 X6.1410 Y68.9941
G01 F60.00
G01 Z-0.1200
G01 F120.00
G01 X6.1410 Y68.7748
G01 X6.1290 Y68.7781
G01 X5.9387 Y68.8668
G01 X5.7667 Y68.9872
G01 X5.6182 Y69.1357
G01 X5.4978 Y69.3077
G01 X5.4781 Y69.3498
G01 X5.7127 Y69.3498
G01 X5.7680 Y69.2756
G01 X5.8288 Y69.2082
G01 X5.8392 Y69.1978
G01 X5.9066 Y69.1370
G01 X5.9794 Y69.0828
G01 X5.9916 Y69.0746
G01 X6.0696 Y69.0281
G01 X6.1410 Y68.9941
G00 Z2.0000
G00 X7.6729 Y69.4980
G01 F60.00
G01 Z-0.1200
G01 F120.00
G01 X7.5842 Y69.3077
G01 X7.4637 Y69.1357
G01 X7.3153 Y68.9872
G01 X7.1433 Y68.8668
G01 X6.9530 Y68.7781
G01 X6.9410 Y68.7748
G01 X6.9410 Y68.9941
G01 X7.0124 Y69.0281
G01 X7.0965 Y69.0785
G01 X7.1754 Y69.1370
G01 X7.2481 Y69.2029
G01 X7.3140 Y69.2756
G01 X7.3724 Y69.3544
G01 X7.4229 Y69.4386
G01 X7.4569 Y69.5100
G01 X7.6761 Y69.5100
G01 X7.6729 Y69.4980
G00 Z2.0000
G00 X7.3910 Y73.9900
G01 F60.00
G01 Z-0.1200
G01 F120.00
G01 X5.6873 Y73.9900
G01 X5.6726 Y73.9911
G01 X5.6581 Y73.9936
G01 X5.6439 Y73.9976
G01 X5.6302 Y74.0029
G01 X5.6235 Y74.0060
G01 X5.6139 Y74.0113
G01 X5.6016 Y74.0195
G01 X5.5902 Y74.0289
G01 X5.5798 Y74.0393
G01 X5.5727 Y74.0477
G01 X5.5642 Y74.0598
G01 X5.5570 Y74.0726
G01 X5.5510 Y74.0860
G01 X5.5464 Y74.1000
G01 X5.5438 Y74.1107
G01 X5.5417 Y74.1253
G01 X5.5410 Y74.1363
G01 X5.5410 Y75.8400
G01 X5.5417 Y75.8547
G01 X5.5438 Y75.8693
G01 X5.5455 Y75.8764
G01 X5.5485 Y75.8871
G01 X5.5538 Y75.9008
G01 X5.5605 Y75.9139
G01 X5.5683 Y75.9264
G01 X5.5727 Y75.9323
G01 X5.5798 Y75.9407
G01 X5.5902 Y75.9511
G01 X5.5987 Y75.9583
G01 X5.6107 Y75.9667
G01 X5.6235 Y75.9740
G01 X5.6336 Y75.9786
G01 X5.6474 Y75.9835
G01 X5.6617 Y75.9871
G01 X5.6763 Y75.9893
G01 X5.6873 Y75.9900
G01 X7.3910 Y75.9900
G01 X7.4057 Y75.9893
G01 X7.4202 Y75.9871
G01 X7.4274 Y75.9855
G01 X7.4380 Y75.9824
G01 X7.4518 Y75.9771
G01 X7.4584 Y75.9740
G01 X7.4681 Y75.9687
G01 X7.4803 Y75.9605
G01 X7.4917 Y75.9511
G01 X7.5021 Y75.9407
G01 X7.5092 Y75.9323
G01 X7.5177 Y75.9202
G01 X7.5250 Y75.9074
G01 X7.5309 Y75.8940
G01 X7.5355 Y75.8800
G01 X7.5381 Y75.8693
G01 X7.5402 Y75.8547
G01 X7.5409 Y75.8437
G01 X7.5408 Y74.1326
G01 X7.5393 Y74.1180
G01 X7.5365 Y74.1036
G01 X7.5334 Y74.0929
G01 X7.5281 Y74.0792
G01 X7.5215 Y74.0661
G01 X7.5136 Y74.0536
G01 X7.5045 Y74.0420
G01 X7.4944 Y74.0314
G01 X7.4833 Y74.0217
G01 X7.4743 Y74.0153
G01 X7.4617 Y74.0077
G01 X7.4484 Y74.0014
G01 X7.4345 Y73.9965
G01 X7.4202 Y73.9929
G01 X7.4057 Y73.9907
G01 X7.3910 Y73.9900
G00 Z2.0000
G00 X8.2740 Y80.0613
G01 F60.00
G01 Z-0.1200
G01 F120.00
G01 X8.2740 Y79.8487
G01 X8.2407 Y79.6388
G01 X8.1750 Y79.4366
G01 X8.0785 Y79.2472
G01 X7.9536 Y79.0752
G01 X7.8033 Y78.9249
G01 X7.6313 Y78.7999
G01 X7.4419 Y78.7034
G01 X7.2397 Y78.6378
G01 X7.0298 Y78.6045
G01 X6.8172 Y78.6045
G01 X6.6072 Y78.6378
G01 X6.4051 Y78.7034
G01 X6.2157 Y78.7999
G01 X6.0437 Y78.9249
G01 X5.8934 Y79.0752
G01 X5.7684 Y79.2472
G01 X5.6719 Y79.4366
G01 X5.6062 Y79.6388
G01 X5.5730 Y79.8487
G01 X5.5730 Y80.0613
G01 X5.6062 Y80.2712
G01 X5.6719 Y80.4734
G01 X5.7684 Y80.6628
G01 X5.8934 Y80.8348
G01 X6.0437 Y80.9851
G01 X6.2157 Y81.1101
G01 X6.4051 Y81.2066
G01 X6.6072 Y81.2722
G01 X6.8172 Y81.3055
G01 X7.0298 Y81.3055
G01 X7.2397 Y81.2722
G01 X7.4419 Y81.2066
G01 X7.6313 Y81.1101
G01 X7.8033 Y80.9851
G01 X7.9536 Y80.8348
G01 X8.0063 Y80.7623
G01 X8.0785 Y80.6628
G01 X8.1750 Y80.4734
G01 X8.2407 Y80.2712
G01 X8.2740 Y80.0613
G00 Z2.0000
G00 X8.2740 Y85.0613
G01 F60.00
G01 Z-0.1200
G01 F120.00
G01 X8.2740 Y84.8487
G01 X8.2407 Y84.6388
G01 X8.1750 Y84.4366
G01 X8.0785 Y84.2472
G01 X7.9536 Y84.0752
G01 X7.8033 Y83.9249
G01 X7.6313 Y83.7999
G01 X7.4419 Y83.7034
G01 X7.2397 Y83.6378
G01 X7.0298 Y83.6045
G01 X6.8172 Y83.6045
G01 X6.6072 Y83.6378
G01 X6.4051 Y83.7034
G01 X6.2157 Y83.7999
G01 X6.0437 Y83.9249
G01 X5.8934 Y84.0752
G01 X5.7684 Y84.2472
G01 X5.6719 Y84.4366
G01 X5.6062 Y84.6388
G01 X5.5730 Y84.8487
G01 X5.5730 Y85.0613
G01 X5.6062 Y85.2712
G01 X5.6719 Y85.4734
G01 X5.7684 Y85.6628
G01 X5.8934 Y85.8348
G01 X6.0437 Y85.9851
G01 X6.2157 Y86.1101
G01 X6.4051 Y86.2066
G01 X6.6072 Y86.2722
G01 X6.8172 Y86.3055
G01 X7.0298 Y86.3055
G01 X7.2397 Y86.2722
G01 X7.4419 Y86.2066
G01 X7.6313 Y86.1101
G01 X7.8033 Y85.9851
G01 X7.9536 Y85.8348
G01 X8.0785 Y85.6628
G01 X8.1750 Y85.4734
G01 X8.2407 Y85.2712
G01 X8.2740 Y85.0613
G00 Z2.0000
G00 X6.1410 Y88.9941
G01 F60.00
G01 Z-0.1200
G01 F120.00
G01 X6.1410 Y88.7748
G01 X6.1290 Y88.7781
G01 X5.9387 Y88.8668
G01 X5.7667 Y88.9872
G01 X5.6182 Y89.1357
G01 X5.4978 Y89.3077
G01 X5.4548 Y89.3998
G01 X5.6821 Y89.3998
G01 X5.7056 Y89.3606
G01 X5.7116 Y89.3514
G01 X5.7634 Y89.2814
G01 X5.7703 Y89.2728
G01 X5.8339 Y89.2029
G01 X5.9038 Y89.1394
G01 X5.9124 Y89.1325
G01 X5.9794 Y89.0828
G01 X5.9916 Y89.0746
G01 X6.0696 Y89.0281
G01 X6.1410 Y88.9941
G00 Z2.0000
G00 X7.6729 Y89.4980
G01 F60.00
G01 Z-0.1200
G01 F120.00
G01 X7.5842 Y89.3077
G01 X7.4637 Y89.1357
G01 X7.3153 Y88.9872
G01 X7.1433 Y88.8668
G01 X6.9530 Y88.7781
G01 X6.9410 Y88.7748
G01 X6.9410 Y88.9941
G01 X7.0124 Y89.0281
G01 X7.0965 Y89.0785
G01 X7.1754 Y89.1370
G01 X7.2481 Y89.2029
G01 X7.3140 Y89.2756
G01 X7.3724 Y89.3544
G01 X7.4229 Y89.4386
G01 X7.4569 Y89.5100
G01 X7.6761 Y89.5100
G01 X7.6729 Y89.4980
G00 Z2.0000
G00 X5.5410 Y94.1400
G01 F60.00
G01 Z-0.1200
G01 F120.00
G01 X5.5410 Y95.8437
G01 X5.5421 Y95.8584
G01 X5.5446 Y95.8729
G01 X5.5485 Y95.8871
G01 X5.5538 Y95.9008
G01 X5.5605 Y95.9139
G01 X5.5683 Y95.9264
G01 X5.5727 Y95.9323
G01 X5.5798 Y95.9407
G01 X5.5902 Y95.9511
G01 X5.5987 Y95.9583
G01 X5.6107 Y95.9667
G01 X5.6235 Y95.9740
G01 X5.6336 Y95.9786
G01 X5.6474 Y95.9835
G01 X5.6617 Y95.9871
G01 X5.6763 Y95.9893
G01 X5.6873 Y95.9900
G01 X7.3910 Y95.9900
G01 X7.4057 Y95.9893
G01 X7.4202 Y95.9871
G01 X7.4274 Y95.9855
G01 X7.4380 Y95.9824
G01 X7.4518 Y95.9771
G01 X7.4584 Y95.9740
G01 X7.4681 Y95.9687
G01 X7.4803 Y95.9605
G01 X7.4917 Y95.9511
G01 X7.5021 Y95.9407
G01 X7.5092 Y95.9323
G01 X7.5177 Y95.9202
G01 X7.5250 Y95.9074
G01 X7.5309 Y95.8940
G01 X7.5355 Y95.8800
G01 X7.5381 Y95.8693
G01 X7.5402 Y95.8547
G01 X7.5409 Y95.8437
G01 X7.5410 Y94.1400
G01 X7.5402 Y94.1253
G01 X7.5381 Y94.1107
G01 X7.5365 Y94.1036
G01 X7.5334 Y94.0929
G01 X7.5281 Y94.0792
G01 X7.5215 Y94.0661
G01 X7.5136 Y94.0536
G01 X7.5092 Y94.0477
G01 X7.5021 Y94.0393
G01 X7.4917 Y94.0289
G01 X7.4833 Y94.0217
G01 X7.4712 Y94.0133
G01 X7.4584 Y94.0060
G01 X7.4484 Y94.0014
G01 X7.4345 Y93.9965
G01 X7.4202 Y93.9929
G01 X7.4057 Y93.9907
G01 X7.3946 Y93.9900
G01 X5.6836 Y93.9902
G01 X5.6690 Y93.9916
G01 X5.6545 Y93.9945
G01 X5.6404 Y93.9988
G01 X5.6302 Y94.0029
G01 X5.6170 Y94.0095
G01 X5.6046 Y94.0174
G01 X5.5930 Y94.0264
G01 X5.5823 Y94.0366
G01 X5.5727 Y94.0477
G01 X5.5642 Y94.0598
G01 X5.5570 Y94.0726
G01 X5.5510 Y94.0860
G01 X5.5464 Y94.1000
G01 X5.5438 Y94.1107
G01 X5.5417 Y94.1253
G01 X5.5410 Y94.1400
G00 Z2.0000
G00 X8.2740 Y100.0613
G01 F60.00
G01 Z-0.1200
G01 F120.00
G01 X8.2740 Y99.8487
G01 X8.2407 Y99.6388
G01 X8.1750 Y99.4366
G01 X8.0785 Y99.2472
G01 X7.9536 Y99.0752
G01 X7.8033 Y98.9249
G01 X7.6313 Y98.7999
G01 X7.4419 Y98.7034
G01 X7.2397 Y98.6378
G01 X7.0298 Y98.6045
G01 X6.8172 Y98.6045
G01 X6.6072 Y98.6378
G01 X6.4051 Y98.7034
G01 X6.2157 Y98.7999
G01 X6.0437 Y98.9249
G01 X5.8934 Y99.0752
G01 X5.7684 Y99.2472
G01 X5.6719 Y99.4366
G01 X5.6062 Y99.6388
G01 X5.5730 Y99.8487
G01 X5.5730 Y100.0613
G01 X5.6062 Y100.2712
G01 X5.6719 Y100.4734
G01 X5.7684 Y100.6628
G01 X5.8934 Y100.8348
G01 X6.0437 Y100.9851
G01 X6.2157 Y101.1101
G01 X6.4051 Y101.2066
G01 X6.6072 Y101.2722
G01 X6.8172 Y101.3055
G01 X7.0298 Y101.3055
G01 X7.2397 Y101.2722
G01 X7.4419 Y101.2066
G01 X7.6313 Y101.1101
G01 X7.8033 Y100.9851
G01 X7.9536 Y100.8348
G01 X8.0785 Y100.6628
G01 X8.1750 Y100.4734
G01 X8.2407 Y100.2712
G01 X8.2740 Y100.0613
G00 Z2.0000
G00 X8.2740 Y105.0613
G01 F60.00
G01 Z-0.1200
G01 F120.00
G01 X8.2740 Y104.8487
G01 X8.2407 Y104.6388
G01 X8.1750 Y104.4366
G01 X8.0785 Y104.2472
G01 X7.9536 Y104.0752
G01 X7.8033 Y103.9249
G01 X7.6313 Y103.7999
G01 X7.4419 Y103.7034
G01 X7.2397 Y103.6378
G01 X7.0298 Y103.6045
G01 X6.8172 Y103.6045
G01 X6.6072 Y103.6378
G01 X6.4051 Y103.7034
G01 X6.2157 Y103.7999
G01 X6.0437 Y103.9249
G01 X5.8934 Y104.0752
G01 X5.7684 Y104.2472
G01 X5.6719 Y104.4366
G01 X5.6062 Y104.6388
G01 X5.5730 Y104.8487
G01 X5.5730 Y105.0613
G01 X5.6062 Y105.2712
G01 X5.6719 Y105.4734
G01 X5.7684 Y105.6628
G01 X5.8934 Y105.8348
G01 X6.0437 Y105.9851
G01 X6.2157 Y106.1101
G01 X6.4051 Y106.2066
G01 X6.6072 Y106.2722
G01 X6.8172 Y106.3055
G01 X7.0298 Y106.3055
G01 X7.2397 Y106.2722
G01 X7.4419 Y106.2066
G01 X7.6313 Y106.1101
G01 X7.8033 Y105.9851
G01 X7.9536 Y105.8348
G01 X8.0785 Y105.6628
G01 X8.1750 Y105.4734
G01 X8.2407 Y105.2712
G01 X8.2740 Y105.0613
G00 Z2.0000
G00 X6.1410 Y108.9941
G01 F60.00
G01 Z-0.1200
G01 F120.00
G01 X6.1410 Y108.7748
G01 X6.1290 Y108.7781
G01 X5.9387 Y108.8668
G01 X5.7667 Y108.9872
G01 X5.6182 Y109.1357
G01 X5.4978 Y109.3077
G01 X5.4548 Y109.3998
G01 X5.6821 Y109.3998
G01 X5.7056 Y109.3606
G01 X5.7116 Y109.3514
G01 X5.7634 Y109.2814
G01 X5.7703 Y109.2728
G01 X5.8339 Y109.2029
G01 X5.9038 Y109.1394
G01 X5.9124 Y109.1325
G01 X5.9794 Y109.0828
G01 X5.9916 Y109.0746
G01 X6.0696 Y109.0281
G01 X6.1410 Y108.9941
G00 Z2.0000
G00 X7.6729 Y109.4980
G01 F60.00
G01 Z-0.1200
G01 F120.00
G01 X7.5842 Y109.3077
G01 X7.4637 Y109.1357
G01 X7.3153 Y108.9872
G01 X7.1433 Y108.8668
G01 X6.9530 Y108.7781
G01 X6.9410 Y108.7748
G01 X6.9410 Y108.9941
G01 X7.0124 Y109.0281
G01 X7.0965 Y109.0785
G01 X7.1754 Y109.1370
G01 X7.2481 Y109.2029
G01 X7.3140 Y109.2756
G01 X7.3724 Y109.3544
G01 X7.4229 Y109.4386
G01 X7.4569 Y109.5100
G01 X7.6761 Y109.5100
G01 X7.6729 Y109.4980
G00 Z2.0000
G00 X5.5410 Y114.1400
G01 F60.00
G01 Z-0.1200
G01 F120.00
G01 X5.5410 Y115.8437
G01 X5.5421 Y115.8584
G01 X5.5446 Y115.8729
G01 X5.5485 Y115.8871
G01 X5.5538 Y115.9008
G01 X5.5605 Y115.9139
G01 X5.5683 Y115.9264
G01 X5.5727 Y115.9323
G01 X5.5798 Y115.9407
G01 X5.5902 Y115.9511
G01 X5.5987 Y115.9583
G01 X5.6107 Y115.9667
G01 X5.6235 Y115.9740
G01 X5.6336 Y115.9786
G01 X5.6474 Y115.9835
G01 X5.6617 Y115.9871
G01 X5.6763 Y115.9893
G01 X5.6873 Y115.9900
G01 X7.3910 Y115.9900
G01 X7.4057 Y115.9893
G01 X7.4202 Y115.9871
G01 X7.4274 Y115.9855
G01 X7.4380 Y115.9824
G01 X7.4518 Y115.9771
G01 X7.4584 Y115.9740
G01 X7.4681 Y115.9687
G01 X7.4803 Y115.9605
G01 X7.4917 Y115.9511
G01 X7.5021 Y115.9407
G01 X7.5092 Y115.9323
G01 X7.5177 Y115.9202
G01 X7.5250 Y115.9074
G01 X7.5309 Y115.8940
G01 X7.5355 Y115.8800
G01 X7.5381 Y115.8693
G01 X7.5402 Y115.8547
G01 X7.5409 Y115.8437
G01 X7.5410 Y114.1400
G01 X7.5402 Y114.1253
G01 X7.5381 Y114.1107
G01 X7.5365 Y114.1036
G01 X7.5334 Y114.0929
G01 X7.5281 Y114.0792
G01 X7.5215 Y114.0661
G01 X7.5136 Y114.0536
G01 X7.5092 Y114.0477
G01 X7.5021 Y114.0393
G01 X7.4917 Y114.0289
G01 X7.4833 Y114.0217
G01 X7.4712 Y114.0133
G01 X7.4584 Y114.0060
G01 X7.4484 Y114.0014
G01 X7.4345 Y113.9965
G01 X7.4202 Y113.9929
G01 X7.4057 Y113.9907
G01 X7.3946 Y113.9900
G01 X5.6836 Y113.9902
G01 X5.6690 Y113.9916
G01 X5.6545 Y113.9945
G01 X5.6404 Y113.9988
G01 X5.6302 Y114.0029
G01 X5.6170 Y114.0095
G01 X5.6046 Y114.0174
G01 X5.5930 Y114.0264
G01 X5.5823 Y114.0366
G01 X5.5727 Y114.0477
G01 X5.5642 Y114.0598
G01 X5.5570 Y114.0726
G01 X5.5510 Y114.0860
G01 X5.5464 Y114.1000
G01 X5.5438 Y114.1107
G01 X5.5417 Y114.1253
G01 X5.5410 Y114.1400
G00 Z2.0000
G00 X8.2740 Y120.0613
G01 F60.00
G01 Z-0.1200
G01 F120.00
G01 X8.2740 Y119.8487
G01 X8.2407 Y119.6388
G01 X8.1750 Y119.4366
G01 X8.0785 Y119.2472
G01 X7.9536 Y119.0752
G01 X7.8033 Y118.9249
G01 X7.6313 Y118.7999
G01 X7.4419 Y118.7034
G01 X7.2397 Y118.6378
G01 X7.0298 Y118.6045
G01 X6.8172 Y118.6045
G01 X6.6072 Y118.6378
G01 X6.4051 Y118.7034
G01 X6.2157 Y118.7999
G01 X6.0437 Y118.9249
G01 X5.8934 Y119.0752
G01 X5.7684 Y119.2472
G01 X5.6719 Y119.4366
G01 X5.6062 Y119.6388
G01 X5.5730 Y119.8487
G01 X5.5730 Y120.0613
G01 X5.6062 Y120.2712
G01 X5.6719 Y120.4734
G01 X5.7684 Y120.6628
G01 X5.8934 Y120.8348
G01 X6.0437 Y120.9851
G01 X6.2157 Y121.1101
G01 X6.4051 Y121.2066
G01 X6.6072 Y121.2722
G01 X6.8172 Y121.3055
G01 X7.0298 Y121.3055
G01 X7.2397 Y121.2722
G01 X7.4419 Y121.2066
G01 X7.6313 Y121.1101
G01 X7.8033 Y120.9851
G01 X7.9536 Y120.8348
G01 X8.0785 Y120.6628
G01 X8.1750 Y120.4734
G01 X8.2407 Y120.2712
G01 X8.2740 Y120.0613
G00 Z2.0000
G00 X8.2740 Y125.0613
G01 F60.00
G01 Z-0.1200
G01 F120.00
G01 X8.2740 Y124.8487
G01 X8.2407 Y124.6388
G01 X8.1750 Y124.4366
G01 X8.0785 Y124.2472
G01 X7.9536 Y124.0752
G01 X7.8033 Y123.9249
G01 X7.6313 Y123.7999
G01 X7.4419 Y123.7034
G01 X7.2397 Y123.6378
G01 X7.0298 Y123.6045
G01 X6.8172 Y123.6045
G01 X6.6072 Y123.6378
G01 X6.4051 Y123.7034
G01 X6.2157 Y123.7999
G01 X6.0437 Y123.9249
G01 X5.8934 Y124.0752
G01 X5.7684 Y124.2472
G01 X5.6719 Y124.4366
G01 X5.6062 Y124.6388
G01 X5.5730 Y124.8487
G01 X5.5730 Y125.0613
G01 X5.6062 Y125.2712
G01 X5.6719 Y125.4734
G01 X5.7684 Y125.6628
G01 X5.8934 Y125.8348
G01 X6.0437 Y125.9851
G01 X6.2157 Y126.1101
G01 X6.4051 Y126.2066
G01 X6.6072 Y126.2722
G01 X6.8172 Y126.3055
G01 X7.0298 Y126.3055
G01 X7.2397 Y126.2722
G01 X7.4419 Y126.2066
G01 X7.6313 Y126.1101
G01 X7.8033 Y125.9851
G01 X7.9536 Y125.8348
G01 X8.0785 Y125.6628
G01 X8.1750 Y125.4734
G01 X8.2407 Y125.2712
G01 X8.2740 Y125.0613
G00 Z2.0000
G00 X6.1410 Y128.9941
G01 F60.00
G01 Z-0.1200
G01 F120.00
G01 X6.1410 Y128.7748
G01 X6.1290 Y128.7781
G01 X5.9387 Y128.8668
G01 X5.7667 Y128.9872
G01 X5.6182 Y129.1357
G01 X5.4978 Y129.3077
G01 X5.4781 Y129.3498
G01 X5.7127 Y129.3498
G01 X5.7680 Y129.2756
G01 X5.8288 Y129.2082
G01 X5.8392 Y129.1978
G01 X5.9066 Y129.1370
G01 X5.9794 Y129.0828
G01 X5.9916 Y129.0746
G01 X6.0696 Y129.0281
G01 X6.1410 Y128.9941
G00 Z2.0000
G00 X7.6729 Y129.4980
G01 F60.00
G01 Z-0.1200
G01 F120.00
G01 X7.5842 Y129.3077
G01 X7.4637 Y129.1357
G01 X7.3153 Y128.9872
G01 X7.1433 Y128.8668
G01 X6.9530 Y128.7781
G01 X6.9410 Y128.7748
G01 X6.9410 Y128.9941
G01 X7.0124 Y129.0281
G01 X7.0965 Y129.0785
G01 X7.1754 Y129.1370
G01 X7.2481 Y129.2029
G01 X7.3140 Y129.2756
G01 X7.3724 Y129.3544
G01 X7.4229 Y129.4386
G01 X7.4569 Y129.5100
G01 X7.6761 Y129.5100
G01 X7.6729 Y129.4980
G00 Z2.0000
G00 X5.5410 Y134.1400
G01 F60.00
G01 Z-0.1200
G01 F120.00
G01 X5.5410 Y135.8437
G01 X5.5421 Y135.8584
G01 X5.5446 Y135.8729
G01 X5.5485 Y135.8871
G01 X5.5538 Y135.9008
G01 X5.5605 Y135.9139
G01 X5.5683 Y135.9264
G01 X5.5727 Y135.9323
G01 X5.5798 Y135.9407
G01 X5.5902 Y135.9511
G01 X5.5987 Y135.9583
G01 X5.6107 Y135.9667
G01 X5.6235 Y135.9740
G01 X5.6370 Y135.9799
G01 X5.6510 Y135.9846
G01 X5.6617 Y135.9871
G01 X5.6726 Y135.9889
G01 X5.6873 Y135.9900
G01 X7.3910 Y135.9900
G01 X7.4057 Y135.9893
G01 X7.4202 Y135.9871
G01 X7.4345 Y135.9835
G01 X7.4450 Y135.9799
G01 X7.4518 Y135.9771
G01 X7.4649 Y135.9705
G01 X7.4773 Y135.9626
G01 X7.4889 Y135.9536
G01 X7.4944 Y135.9486
G01 X7.5021 Y135.9407
G01 X7.5114 Y135.9294
G01 X7.5196 Y135.9171
G01 X7.5250 Y135.9074
G01 X7.5309 Y135.8940
G01 X7.5345 Y135.8835
G01 X7.5381 Y135.8693
G01 X7.5402 Y135.8547
G01 X7.5409 Y135.8437
G01 X7.5410 Y134.1400
G01 X7.5402 Y134.1253
G01 X7.5381 Y134.1107
G01 X7.5365 Y134.1036
G01 X7.5334 Y134.0929
G01 X7.5281 Y134.0792
G01 X7.5215 Y134.0661
G01 X7.5136 Y134.0536
G01 X7.5092 Y134.0477
G01 X7.5021 Y134.0393
G01 X7.4917 Y134.0289
G01 X7.4833 Y134.0217
G01 X7.4712 Y134.0133
G01 X7.4584 Y134.0060
G01 X7.4450 Y134.0001
G01 X7.4310 Y133.9954
G01 X7.4202 Y133.9929
G01 X7.4093 Y133.9911
G01 X7.3946 Y133.9900
G01 X5.6836 Y133.9902
G01 X5.6726 Y133.9911
G01 X5.6581 Y133.9936
G01 X5.6439 Y133.9976
G01 X5.6302 Y134.0029
G01 X5.6170 Y134.0095
G01 X5.6046 Y134.0174
G01 X5.5930 Y134.0264
G01 X5.5823 Y134.0366
G01 X5.5727 Y134.0477
G01 X5.5642 Y134.0598
G01 X5.5570 Y134.0726
G01 X5.5510 Y134.0860
G01 X5.5464 Y134.1000
G01 X5.5432 Y134.1144
G01 X5.5417 Y134.1253
G01 X5.5410 Y134.1400
G00 Z2.0000
G00 X17.5411 Y132.2444
G01 F60.00
G01 Z-0.1200
G01 F120.00
G01 X17.5520 Y132.2336
G01 X17.5832 Y132.1989
G01 X17.6153 Y132.1556
G01 X17.6431 Y132.1093
G01 X17.6662 Y132.0605
G01 X17.6843 Y132.0097
G01 X17.6975 Y131.9573
G01 X17.7054 Y131.9039
G01 X17.7080 Y131.8500
G01 X17.7054 Y131.7961
G01 X17.6975 Y131.7427
G01 X17.6843 Y131.6903
G01 X17.6662 Y131.6395
G01 X17.6431 Y131.5907
G01 X17.6153 Y131.5444
G01 X17.5832 Y131.5011
G01 X17.5469 Y131.4611
G01 X17.5069 Y131.4248
G01 X17.4636 Y131.3927
G01 X17.4173 Y131.3649
G01 X17.3685 Y131.3419
G01 X17.3177 Y131.3237
G01 X17.2653 Y131.3106
G01 X17.2119 Y131.3026
G01 X17.1580 Y131.3000
G01 X17.1041 Y131.3026
G01 X17.0507 Y131.3106
G01 X16.9984 Y131.3237
G01 X16.9475 Y131.3419
G01 X16.8988 Y131.3649
G01 X16.8525 Y131.3927
G01 X16.8091 Y131.4248
G01 X16.7691 Y131.4611
G01 X16.7329 Y131.5011
G01 X16.7050 Y131.5384
G01 X16.6968 Y131.5507
G01 X16.6747 Y131.5875
G01 X16.6697 Y131.5973
G01 X16.6499 Y131.6395
G01 X16.6385 Y131.6708
G01 X16.6231 Y131.6923
G01 X16.6016 Y131.7280
G01 X16.5965 Y131.7379
G01 X16.5803 Y131.7723
G01 X16.5762 Y131.7825
G01 X16.5624 Y131.8215
G01 X16.5504 Y131.8695
G01 X16.5432 Y131.9180
G01 X16.5410 Y131.9597
G01 X16.5408 Y138.5623
G01 X16.5315 Y138.5829
G01 X16.5158 Y138.6268
G01 X16.5127 Y138.6374
G01 X16.5023 Y138.6791
G01 X16.5003 Y138.6900
G01 X16.4936 Y138.7361
G01 X16.4911 Y138.7826
G01 X16.4910 Y138.7937
G01 X16.4936 Y138.8439
G01 X16.5015 Y138.8973
G01 X16.5146 Y138.9497
G01 X16.5328 Y139.0005
G01 X16.5559 Y139.0493
G01 X16.5837 Y139.0956
G01 X16.6158 Y139.1389
G01 X16.6470 Y139.1736
G01 X16.6547 Y139.1815
G01 X16.6865 Y139.2103
G01 X16.6979 Y139.2197
G01 X16.7294 Y139.2431
G01 X16.7385 Y139.2493
G01 X16.7753 Y139.2714
G01 X16.7883 Y139.2784
G01 X16.8305 Y139.2981
G01 X16.8813 Y139.3163
G01 X16.9337 Y139.3294
G01 X16.9798 Y139.3365
G01 X16.9907 Y139.3377
G01 X17.0410 Y139.3400
G01 X17.0949 Y139.3374
G01 X17.1483 Y139.3294
G01 X17.2006 Y139.3163
G01 X17.2514 Y139.2981
G01 X17.3002 Y139.2751
G01 X17.3465 Y139.2473
G01 X17.3899 Y139.2152
G01 X17.4299 Y139.1789
G01 X17.4661 Y139.1389
G01 X17.4983 Y139.0956
G01 X17.5260 Y139.0493
G01 X17.5491 Y139.0005
G01 X17.5673 Y138.9497
G01 X17.5804 Y138.8973
G01 X17.5874 Y138.8512
G01 X17.5886 Y138.8402
G01 X17.5908 Y138.7974
G01 X17.5908 Y138.7826
G01 X17.5883 Y138.7361
G01 X17.5811 Y138.6863
G01 X17.5788 Y138.6755
G01 X17.5692 Y138.6374
G01 X17.5662 Y138.6268
G01 X17.5505 Y138.5829
G01 X17.5411 Y138.5623
G01 X17.5411 Y132.2444
G00 Z2.0000
G00 X25.9632 Y135.5002
G01 F60.00
G01 Z-0.1200
G01 F120.00
G01 X25.9839 Y135.5095
G01 X26.0278 Y135.5252
G01 X26.0384 Y135.5283
G01 X26.0801 Y135.5387
G01 X26.0909 Y135.5407
G01 X26.1371 Y135.5474
G01 X26.1873 Y135.5500
G01 X26.1983 Y135.5498
G01 X26.2449 Y135.5474
G01 X26.2983 Y135.5394
G01 X26.3506 Y135.5263
G01 X26.3980 Y135.5095
G01 X26.4082 Y135.5052
G01 X26.4502 Y135.4851
G01 X26.4965 Y135.4573
G01 X26.5399 Y135.4252
G01 X26.5799 Y135.3889
G01 X26.6161 Y135.3489
G01 X26.6483 Y135.3056
G01 X26.6760 Y135.2593
G01 X26.6977 Y135.2139
G01 X26.7018 Y135.2036
G01 X26.7173 Y135.1597
G01 X26.7304 Y135.1073
G01 X26.7383 Y135.0539
G01 X26.7410 Y135.0000
G01 X26.7383 Y134.9461
G01 X26.7304 Y134.8927
G01 X26.7173 Y134.8403
G01 X26.6991 Y134.7895
G01 X26.6760 Y134.7407
G01 X26.6483 Y134.6944
G01 X26.6161 Y134.6511
G01 X26.5799 Y134.6111
G01 X26.5399 Y134.5748
G01 X26.4965 Y134.5427
G01 X26.4502 Y134.5149
G01 X26.4048 Y134.4933
G01 X26.3946 Y134.4892
G01 X26.3506 Y134.4737
G01 X26.2983 Y134.4606
G01 X26.2449 Y134.4526
G01 X26.1910 Y134.4500
G01 X26.1371 Y134.4526
G01 X26.0909 Y134.4593
G01 X26.0801 Y134.4613
G01 X26.0384 Y134.4717
G01 X26.0278 Y134.4748
G01 X25.9839 Y134.4905
G01 X25.9632 Y134.4998
G01 X23.1265 Y134.4998
G01 X23.1165 Y134.4927
G01 X23.1103 Y134.4888
G01 X23.0735 Y134.4667
G01 X23.0637 Y134.4616
G01 X23.0214 Y134.4419
G01 X22.9776 Y134.4260
G01 X22.9671 Y134.4227
G01 X22.9183 Y134.4106
G01 X22.8649 Y134.4026
G01 X22.8110 Y134.4000
G01 X22.7607 Y134.4023
G01 X22.7498 Y134.4035
G01 X22.7109 Y134.4093
G01 X22.6965 Y134.4122
G01 X22.6513 Y134.4237
G01 X22.6005 Y134.4419
G01 X22.5517 Y134.4649
G01 X22.5116 Y134.4888
G01 X22.5024 Y134.4948
G01 X22.4679 Y134.5203
G01 X22.4565 Y134.5297
G01 X22.4221 Y134.5611
G01 X22.3858 Y134.6011
G01 X22.3537 Y134.6444
G01 X22.3295 Y134.6843
G01 X22.3226 Y134.6973
G01 X22.3043 Y134.7361
G01 X22.3002 Y134.7464
G01 X22.2846 Y134.7903
G01 X22.2731 Y134.8355
G01 X22.2709 Y134.8463
G01 X22.2636 Y134.8961
G01 X22.2610 Y134.9500
G01 X22.2636 Y135.0039
G01 X22.2715 Y135.0573
G01 X22.2846 Y135.1097
G01 X22.3028 Y135.1605
G01 X22.3259 Y135.2093
G01 X22.3537 Y135.2556
G01 X22.3858 Y135.2989
G01 X22.4221 Y135.3389
G01 X22.4621 Y135.3752
G01 X22.5054 Y135.4073
G01 X22.5517 Y135.4351
G01 X22.6005 Y135.4581
G01 X22.6513 Y135.4763
G01 X22.6965 Y135.4878
G01 X22.7073 Y135.4901
G01 X22.7498 Y135.4965
G01 X22.7607 Y135.4977
G01 X22.8073 Y135.5000
G01 X22.8146 Y135.5000
G01 X22.8342 Y135.4990
G01 X22.8610 Y135.5002
G01 X25.9632 Y135.5002
G00 Z2.0000
G00 X26.9456 Y135.0000
G01 F60.00
G01 Z-0.1200
G01 F120.00
G01 X26.9291 Y134.8431
G01 X26.8804 Y134.6931
G01 X26.8015 Y134.5564
G01 X26.6959 Y134.4392
G01 X26.5683 Y134.3465
G01 X26.4242 Y134.2823
G01 X26.2698 Y134.2495
G01 X26.1121 Y134.2495
G01 X25.9499 Y134.2840
G01 X25.9338 Y134.2881
G01 X25.8862 Y134.2974
G01 X25.8754 Y134.2988
G01 X25.8645 Y134.2995
G01 X23.2498 Y134.2995
G01 X23.2394 Y134.2989
G01 X23.2256 Y134.2969
G01 X23.1683 Y134.2847
G01 X23.1549 Y134.2809
G01 X23.1419 Y134.2758
G01 X23.0442 Y134.2323
G01 X22.8898 Y134.1995
G01 X22.7321 Y134.1995
G01 X22.5778 Y134.2323
G01 X22.4337 Y134.2965
G01 X22.3060 Y134.3892
G01 X22.2005 Y134.5064
G01 X22.1216 Y134.6431
G01 X22.0728 Y134.7931
G01 X22.0563 Y134.9500
G01 X22.0728 Y135.1069
G01 X22.1216 Y135.2569
G01 X22.2005 Y135.3936
G01 X22.3060 Y135.5108
G01 X22.4336 Y135.6035
G01 X22.5778 Y135.6677
G01 X22.7321 Y135.7005
G01 X25.8644 Y135.7005
G01 X25.8748 Y135.7011
G01 X25.8852 Y135.7025
G01 X25.9218 Y135.7101
G01 X25.9335 Y135.7119
G01 X25.9499 Y135.7160
G01 X26.1121 Y135.7505
G01 X26.2698 Y135.7505
G01 X26.4242 Y135.7177
G01 X26.5683 Y135.6535
G01 X26.6959 Y135.5608
G01 X26.8015 Y135.4436
G01 X26.8804 Y135.3069
G01 X26.9291 Y135.1569
G01 X26.9456 Y135.0000
G00 Z2.0000
G00 X26.9910 Y139.2446
G01 F60.00
G01 Z-0.1200
G01 F120.00
G01 X26.9910 Y139.0234
G01 X26.9687 Y139.0306
G01 X26.8144 Y139.1092
G01 X26.6744 Y139.2110
G01 X26.5519 Y139.3334
G01 X26.4502 Y139.4735
G01 X26.3654 Y139.6399
G01 X26.3620 Y139.6461
G01 X26.3564 Y139.6552
G01 X26.3501 Y139.6639
G01 X26.3432 Y139.6721
G01 X26.2928 Y139.7256
G01 X26.2821 Y139.7359
G01 X26.2763 Y139.7406
G01 X26.2673 Y139.7472
G01 X26.2545 Y139.7548
G01 X26.2410 Y139.7612
G01 X26.2270 Y139.7662
G01 X26.1447 Y139.7866
G01 X26.1374 Y139.7878
G01 X26.1263 Y139.7890
G01 X26.1151 Y139.7894
G01 X26.1077 Y139.7891
G01 X26.0928 Y139.7876
G01 X26.0855 Y139.7862
G01 X26.0747 Y139.7836
G01 X26.0014 Y139.7588
G01 X25.9913 Y139.7549
G01 X25.9783 Y139.7487
G01 X25.9660 Y139.7412
G01 X25.9573 Y139.7349
G01 X25.9517 Y139.7303
G01 X25.9413 Y139.7204
G01 X25.8950 Y139.6672
G01 X25.8905 Y139.6615
G01 X25.8843 Y139.6525
G01 X25.8771 Y139.6398
G01 X25.7922 Y139.4732
G01 X25.6904 Y139.3331
G01 X25.5679 Y139.2106
G01 X25.4278 Y139.1088
G01 X25.2734 Y139.0301
G01 X25.1087 Y138.9766
G01 X24.9376 Y138.9495
G01 X24.7644 Y138.9495
G01 X24.5933 Y138.9766
G01 X24.4285 Y139.0301
G01 X24.2742 Y139.1088
G01 X24.1340 Y139.2106
G01 X24.0116 Y139.3331
G01 X23.9097 Y139.4732
G01 X23.8311 Y139.6276
G01 X23.7776 Y139.7923
G01 X23.7505 Y139.9634
G01 X23.7505 Y140.6366
G01 X23.7776 Y140.8077
G01 X23.8311 Y140.9724
G01 X23.9097 Y141.1268
G01 X24.0116 Y141.2669
G01 X24.1340 Y141.3894
G01 X24.2742 Y141.4912
G01 X24.4285 Y141.5699
G01 X24.5933 Y141.6234
G01 X24.7644 Y141.6505
G01 X24.9376 Y141.6505
G01 X25.1087 Y141.6234
G01 X25.2734 Y141.5699
G01 X25.4278 Y141.4912
G01 X25.5679 Y141.3894
G01 X25.6904 Y141.2669
G01 X25.7922 Y141.1268
G01 X25.8771 Y140.9601
G01 X25.8805 Y140.9538
G01 X25.8862 Y140.9447
G01 X25.8924 Y140.9361
G01 X25.8993 Y140.9279
G01 X25.9549 Y140.8692
G01 X25.9604 Y140.8641
G01 X25.9691 Y140.8571
G01 X25.9815 Y140.8488
G01 X25.9880 Y140.8452
G01 X25.9980 Y140.8403
G01 X26.0049 Y140.8374
G01 X26.0155 Y140.8338
G01 X26.0905 Y140.8150
G01 X26.1014 Y140.8128
G01 X26.1125 Y140.8113
G01 X26.1237 Y140.8107
G01 X26.1348 Y140.8109
G01 X26.1497 Y140.8124
G01 X26.1606 Y140.8146
G01 X26.1714 Y140.8175
G01 X26.2411 Y140.8412
G01 X26.2545 Y140.8465
G01 X26.2673 Y140.8531
G01 X26.2735 Y140.8568
G01 X26.2823 Y140.8629
G01 X26.2935 Y140.8721
G01 X26.3037 Y140.8823
G01 X26.3474 Y140.9328
G01 X26.3541 Y140.9415
G01 X26.3582 Y140.9475
G01 X26.3654 Y140.9601
G01 X26.4502 Y141.1265
G01 X26.5519 Y141.2666
G01 X26.6744 Y141.3890
G01 X26.8144 Y141.4908
G01 X26.9687 Y141.5694
G01 X26.9910 Y141.5766
G01 X26.9910 Y141.3554
G01 X26.9700 Y141.3454
G01 X26.9635 Y141.3420
G01 X26.8940 Y141.3003
G01 X26.8849 Y141.2941
G01 X26.8229 Y141.2480
G01 X26.8144 Y141.2409
G01 X26.7546 Y141.1864
G01 X26.6976 Y141.1238
G01 X26.6907 Y141.1151
G01 X26.6426 Y141.0500
G01 X26.5972 Y140.9743
G01 X26.5595 Y140.8944
G01 X26.5308 Y140.8148
G01 X26.5278 Y140.8042
G01 X26.5083 Y140.7256
G01 X26.4962 Y140.6455
G01 X26.4948 Y140.6309
G01 X26.4910 Y140.5500
G01 X26.4910 Y140.0500
G01 X26.4948 Y139.9691
G01 X26.4962 Y139.9545
G01 X26.5083 Y139.8744
G01 X26.5297 Y139.7887
G01 X26.5568 Y139.7125
G01 X26.5625 Y139.6989
G01 X26.5972 Y139.6257
G01 X26.6406 Y139.5531
G01 X26.6469 Y139.5440
G01 X26.6907 Y139.4849
G01 X26.7001 Y139.4735
G01 X26.7546 Y139.4136
G01 X26.8172 Y139.3567
G01 X26.8258 Y139.3498
G01 X26.8849 Y139.3059
G01 X26.8940 Y139.2997
G01 X26.9635 Y139.2580
G01 X26.9700 Y139.2546
G01 X26.9910 Y139.2446
G00 Z2.0000
G00 X28.4809 Y139.9000
G01 F60.00
G01 Z-0.1200
G01 F120.00
G01 X28.4639 Y139.7924
G01 X28.4104 Y139.6277
G01 X28.3318 Y139.4735
G01 X28.2300 Y139.3334
G01 X28.1076 Y139.2110
G01 X27.9675 Y139.1092
G01 X27.8132 Y139.0306
G01 X27.7910 Y139.0234
G01 X27.7910 Y139.2446
G01 X27.8120 Y139.2546
G01 X27.8184 Y139.2580
G01 X27.8879 Y139.2997
G01 X27.8970 Y139.3059
G01 X27.9590 Y139.3520
G01 X27.9675 Y139.3591
G01 X28.0274 Y139.4136
G01 X28.0819 Y139.4735
G01 X28.0912 Y139.4849
G01 X28.1393 Y139.5500
G01 X28.1811 Y139.6193
G01 X28.1880 Y139.6323
G01 X28.2210 Y139.7022
G01 X28.2251 Y139.7125
G01 X28.2499 Y139.7818
G01 X28.2532 Y139.7923
G01 X28.2729 Y139.8708
G01 X28.2743 Y139.8780
G01 X28.2777 Y139.9000
G01 X28.4809 Y139.9000
G00 Z2.0000
G00 X28.4809 Y140.7000
G01 F60.00
G01 Z-0.1200
G01 F120.00
G01 X28.2777 Y140.7000
G01 X28.2743 Y140.7220
G01 X28.2729 Y140.7292
G01 X28.2532 Y140.8077
G01 X28.2499 Y140.8182
G01 X28.2251 Y140.8875
G01 X28.2210 Y140.8978
G01 X28.1880 Y140.9677
G01 X28.1811 Y140.9807
G01 X28.1393 Y141.0500
G01 X28.0912 Y141.1151
G01 X28.0819 Y141.1265
G01 X28.0274 Y141.1864
G01 X27.9675 Y141.2409
G01 X27.9590 Y141.2480
G01 X27.8970 Y141.2941
G01 X27.8879 Y141.3003
G01 X27.8184 Y141.3420
G01 X27.8120 Y141.3454
G01 X27.7910 Y141.3554
G01 X27.7910 Y141.5766
G01 X27.8132 Y141.5694
G01 X27.9675 Y141.4908
G01 X28.1076 Y141.3890
G01 X28.2300 Y141.2666
G01 X28.3318 Y141.1265
G01 X28.4104 Y140.9723
G01 X28.4639 Y140.8076
G01 X28.4809 Y140.7000
G00 Z2.0000
G00 X24.9318 Y139.1538
G01 F60.00
G01 Z-0.1200
G01 F120.00
G01 X24.8510 Y139.1500
G01 X24.7628 Y139.1543
G01 X24.6754 Y139.1673
G01 X24.5897 Y139.1888
G01 X24.5066 Y139.2185
G01 X24.4267 Y139.2563
G01 X24.3510 Y139.3017
G01 X24.2800 Y139.3543
G01 X24.2146 Y139.4136
G01 X24.1553 Y139.4790
G01 X24.1026 Y139.5500
G01 X24.0572 Y139.6257
G01 X24.0195 Y139.7056
G01 X23.9897 Y139.7887
G01 X23.9683 Y139.8744
G01 X23.9562 Y139.9545
G01 X23.9549 Y139.9662
G01 X23.9510 Y140.0500
G01 X23.9510 Y140.5500
G01 X23.9553 Y140.6382
G01 X23.9683 Y140.7256
G01 X23.9897 Y140.8113
G01 X24.0195 Y140.8944
G01 X24.0572 Y140.9743
G01 X24.1026 Y141.0500
G01 X24.1507 Y141.1151
G01 X24.1601 Y141.1265
G01 X24.2146 Y141.1864
G01 X24.2744 Y141.2409
G01 X24.2858 Y141.2502
G01 X24.3510 Y141.2983
G01 X24.4203 Y141.3401
G01 X24.4333 Y141.3470
G01 X24.5066 Y141.3815
G01 X24.5827 Y141.4089
G01 X24.5968 Y141.4132
G01 X24.6754 Y141.4327
G01 X24.7554 Y141.4448
G01 X24.7664 Y141.4460
G01 X24.8510 Y141.4500
G01 X24.9392 Y141.4457
G01 X25.0265 Y141.4327
G01 X25.1122 Y141.4112
G01 X25.1954 Y141.3815
G01 X25.2752 Y141.3437
G01 X25.3510 Y141.2983
G01 X25.4219 Y141.2457
G01 X25.4874 Y141.1864
G01 X25.5467 Y141.1210
G01 X25.5993 Y141.0500
G01 X25.6447 Y140.9743
G01 X25.6825 Y140.8944
G01 X25.7122 Y140.8113
G01 X25.7337 Y140.7256
G01 X25.7457 Y140.6455
G01 X25.7469 Y140.6345
G01 X25.7510 Y140.5500
G01 X25.7510 Y140.0500
G01 X25.7466 Y139.9618
G01 X25.7337 Y139.8744
G01 X25.7122 Y139.7887
G01 X25.6825 Y139.7056
G01 X25.6480 Y139.6323
G01 X25.6429 Y139.6225
G01 X25.6032 Y139.5562
G01 X25.5951 Y139.5440
G01 X25.5467 Y139.4790
G01 X25.4924 Y139.4189
G01 X25.4820 Y139.4085
G01 X25.4219 Y139.3543
G01 X25.3510 Y139.3017
G01 X25.2816 Y139.2599
G01 X25.2686 Y139.2530
G01 X25.1954 Y139.2185
G01 X25.1192 Y139.1911
G01 X25.1051 Y139.1868
G01 X25.0265 Y139.1673
G01 X24.9465 Y139.1552
G01 X24.9318 Y139.1538
G00 Z2.0000
G00 X29.2247 Y144.8826
G01 F60.00
G01 Z-0.1200
G01 F120.00
G01 X29.2208 Y144.8588
G01 X29.2116 Y144.8219
G01 X29.2086 Y144.8117
G01 X29.1931 Y144.7686
G01 X29.1754 Y144.7308
G01 X29.1703 Y144.7210
G01 X29.1468 Y144.6821
G01 X29.1176 Y144.6427
G01 X29.0846 Y144.6063
G01 X29.0511 Y144.5757
G01 X29.0425 Y144.5688
G01 X29.0088 Y144.5441
G01 X28.9732 Y144.5225
G01 X28.9602 Y144.5156
G01 X28.9258 Y144.4993
G01 X28.9155 Y144.4952
G01 X28.8762 Y144.4814
G01 X28.8285 Y144.4694
G01 X28.7800 Y144.4622
G01 X28.7383 Y144.4600
G01 X18.9681 Y144.4598
G01 X16.2411 Y141.7328
G01 X16.2411 Y18.2901
G01 X16.2393 Y18.2471
G01 X16.2378 Y18.2337
G01 X16.2327 Y18.1984
G01 X16.2308 Y18.1889
G01 X16.2232 Y18.1578
G01 X16.2175 Y18.1385
G01 X16.2067 Y18.1077
G01 X16.2016 Y18.0953
G01 X16.1866 Y18.0629
G01 X16.1821 Y18.0543
G01 X16.1641 Y18.0235
G01 X16.1568 Y18.0122
G01 X16.1314 Y17.9775
G01 X16.1252 Y17.9699
G01 X16.1014 Y17.9434
G01 X10.5607 Y12.2664
G01 X10.5518 Y12.2414
G01 X10.5477 Y12.2311
G01 X10.5293 Y12.1923
G01 X10.5242 Y12.1825
G01 X10.4983 Y12.1394
G01 X10.4684 Y12.0990
G01 X10.4613 Y12.0905
G01 X10.4350 Y12.0614
G01 X10.4245 Y12.0510
G01 X10.3899 Y12.0198
G01 X10.3465 Y11.9877
G01 X10.3002 Y11.9599
G01 X10.2582 Y11.9398
G01 X10.2446 Y11.9342
G01 X10.2006 Y11.9187
G01 X10.1555 Y11.9072
G01 X10.1410 Y11.9043
G01 X10.0949 Y11.8976
G01 X10.0446 Y11.8950
G01 X10.0336 Y11.8952
G01 X9.9871 Y11.8976
G01 X9.9409 Y11.9043
G01 X9.9301 Y11.9063
G01 X9.8884 Y11.9167
G01 X9.8778 Y11.9198
G01 X9.8339 Y11.9355
G01 X9.8238 Y11.9398
G01 X9.8027 Y11.9498
G01 X7.4058 Y11.9498
G01 X7.3764 Y11.9006
G01 X7.3704 Y11.8914
G01 X7.3185 Y11.8214
G01 X7.3116 Y11.8128
G01 X7.2481 Y11.7429
G01 X7.1782 Y11.6794
G01 X7.1696 Y11.6725
G01 X7.1026 Y11.6228
G01 X7.0903 Y11.6146
G01 X7.0124 Y11.5681
G01 X6.9270 Y11.5276
G01 X6.9168 Y11.5235
G01 X6.8382 Y11.4954
G01 X6.8242 Y11.4911
G01 X6.7364 Y11.4693
G01 X6.6390 Y11.4548
G01 X6.5483 Y11.4502
G01 X6.5336 Y11.4502
G01 X6.4429 Y11.4548
G01 X6.3495 Y11.4685
G01 X6.3387 Y11.4708
G01 X6.2578 Y11.4911
G01 X6.2437 Y11.4954
G01 X6.1583 Y11.5261
G01 X6.0696 Y11.5681
G01 X5.9854 Y11.6185
G01 X5.9124 Y11.6725
G01 X5.9010 Y11.6818
G01 X5.8339 Y11.7429
G01 X5.7728 Y11.8100
G01 X5.7634 Y11.8214
G01 X5.7095 Y11.8944
G01 X5.6590 Y11.9786
G01 X5.6201 Y12.0606
G01 X5.6144 Y12.0742
G01 X5.5840 Y12.1597
G01 X5.5618 Y12.2477
G01 X5.5590 Y12.2615
G01 X5.5467 Y12.3447
G01 X5.5452 Y12.3593
G01 X5.5410 Y12.4500
G01 X5.5452 Y12.5407
G01 X5.5467 Y12.5553
G01 X5.5602 Y12.6451
G01 X5.5821 Y12.7332
G01 X5.5863 Y12.7473
G01 X5.6171 Y12.8327
G01 X5.6557 Y12.9148
G01 X5.6627 Y12.9278
G01 X5.7095 Y13.0056
G01 X5.7680 Y13.0844
G01 X5.8288 Y13.1518
G01 X5.8392 Y13.1622
G01 X5.9010 Y13.2182
G01 X5.9094 Y13.2253
G01 X5.9854 Y13.2815
G01 X6.0696 Y13.3319
G01 X6.1583 Y13.3739
G01 X6.2507 Y13.4069
G01 X6.3459 Y13.4308
G01 X6.4429 Y13.4452
G01 X6.5410 Y13.4500
G01 X6.6353 Y13.4455
G01 X6.6463 Y13.4443
G01 X6.7361 Y13.4308
G01 X6.8242 Y13.4089
G01 X6.8377 Y13.4048
G01 X6.9237 Y13.3739
G01 X7.0058 Y13.3352
G01 X7.0188 Y13.3283
G01 X7.0935 Y13.2835
G01 X7.1026 Y13.2772
G01 X7.1754 Y13.2230
G01 X7.2427 Y13.1622
G01 X7.2506 Y13.1545
G01 X7.3092 Y13.0900
G01 X7.3185 Y13.0786
G01 X7.3724 Y13.0056
G01 X7.4058 Y12.9502
G01 X9.8238 Y12.9502
G01 X9.8347 Y12.9548
G01 X15.2408 Y18.4937
G01 X15.2408 Y141.9400
G01 X15.2432 Y141.9890
G01 X15.2497 Y142.0340
G01 X15.2520 Y142.0448
G01 X15.2604 Y142.0781
G01 X15.2646 Y142.0922
G01 X15.2789 Y142.1314
G01 X15.2999 Y142.1758
G01 X15.3251 Y142.2179
G01 X15.3498 Y142.2515
G01 X15.3591 Y142.2629
G01 X15.3873 Y142.2937
G01 X18.4751 Y145.3814
G01 X18.5089 Y145.4118
G01 X18.5423 Y145.4368
G01 X18.5545 Y145.4450
G01 X18.5904 Y145.4663
G01 X18.6348 Y145.4873
G01 X18.6740 Y145.5015
G01 X18.6873 Y145.5056
G01 X18.7286 Y145.5158
G01 X18.7771 Y145.5230
G01 X18.8262 Y145.5254
G01 X18.8752 Y145.5230
G01 X18.9201 Y145.5164
G01 X18.9309 Y145.5142
G01 X18.9714 Y145.5038
G01 X19.0107 Y145.4900
G01 X19.0210 Y145.4858
G01 X19.0554 Y145.4696
G01 X19.0619 Y145.4663
G01 X19.0725 Y145.4602
G01 X28.3353 Y145.4602
G01 X28.3549 Y145.4775
G01 X28.3924 Y145.5052
G01 X28.4016 Y145.5112
G01 X28.4385 Y145.5333
G01 X28.4483 Y145.5384
G01 X28.4905 Y145.5581
G01 X28.5378 Y145.5752
G01 X28.5484 Y145.5783
G01 X28.5937 Y145.5894
G01 X28.6471 Y145.5974
G01 X28.7010 Y145.6000
G01 X28.7475 Y145.5979
G01 X28.7622 Y145.5965
G01 X28.8083 Y145.5894
G01 X28.8606 Y145.5763
G01 X28.9114 Y145.5581
G01 X28.9537 Y145.5384
G01 X28.9666 Y145.5314
G01 X29.0065 Y145.5073
G01 X29.0441 Y145.4797
G01 X29.0527 Y145.4728
G01 X29.0845 Y145.4440
G01 X29.0950 Y145.4336
G01 X29.1261 Y145.3989
G01 X29.1583 Y145.3556
G01 X29.1860 Y145.3093
G01 X29.2061 Y145.2672
G01 X29.2118 Y145.2536
G01 X29.2273 Y145.2097
G01 X29.2388 Y145.1645
G01 X29.2411 Y145.1537
G01 X29.2474 Y145.1112
G01 X29.2489 Y145.0966
G01 X29.2510 Y145.0500
G01 X29.2483 Y144.9961
G01 X29.2404 Y144.9427
G01 X29.2292 Y144.8974
G01 X29.2247 Y144.8826
G00 Z2.0000
G00 X35.0534 Y140.9550
G01 F60.00
G01 Z-0.1200
G01 F120.00
G01 X34.8502 Y140.9550
G01 X34.8468 Y140.9770
G01 X34.8454 Y140.9842
G01 X34.8257 Y141.0627
G01 X34.8224 Y141.0732
G01 X34.7976 Y141.1425
G01 X34.7935 Y141.1528
G01 X34.7605 Y141.2227
G01 X34.7536 Y141.2357
G01 X34.7118 Y141.3050
G01 X34.6637 Y141.3701
G01 X34.6544 Y141.3815
G01 X34.5999 Y141.4414
G01 X34.5400 Y141.4959
G01 X34.5315 Y141.5030
G01 X34.4695 Y141.5491
G01 X34.4604 Y141.5553
G01 X34.3909 Y141.5970
G01 X34.3845 Y141.6004
G01 X34.3635 Y141.6104
G01 X34.3635 Y141.8316
G01 X34.3857 Y141.8244
G01 X34.5400 Y141.7458
G01 X34.6801 Y141.6440
G01 X34.8025 Y141.5216
G01 X34.9043 Y141.3815
G01 X34.9829 Y141.2273
G01 X35.0364 Y141.0626
G01 X35.0534 Y140.9550
G00 Z2.0000
G00 X35.9457 Y130.6052
G01 F60.00
G01 Z-0.1200
G01 F120.00
G01 X35.9664 Y130.6145
G01 X36.0103 Y130.6302
G01 X36.0209 Y130.6333
G01 X36.0626 Y130.6437
G01 X36.0734 Y130.6457
G01 X36.1196 Y130.6524
G01 X36.1698 Y130.6550
G01 X36.1808 Y130.6548
G01 X36.2274 Y130.6524
G01 X36.2808 Y130.6444
G01 X36.3331 Y130.6313
G01 X36.3805 Y130.6145
G01 X36.3907 Y130.6102
G01 X36.4327 Y130.5901
G01 X36.4790 Y130.5623
G01 X36.5224 Y130.5302
G01 X36.5624 Y130.4939
G01 X36.5986 Y130.4539
G01 X36.6308 Y130.4106
G01 X36.6585 Y130.3643
G01 X36.6802 Y130.3189
G01 X36.6843 Y130.3086
G01 X36.6998 Y130.2647
G01 X36.7129 Y130.2123
G01 X36.7208 Y130.1589
G01 X36.7235 Y130.1050
G01 X36.7208 Y130.0511
G01 X36.7129 Y129.9977
G01 X36.6998 Y129.9453
G01 X36.6816 Y129.8945
G01 X36.6585 Y129.8457
G01 X36.6308 Y129.7994
G01 X36.5986 Y129.7561
G01 X36.5624 Y129.7161
G01 X36.5224 Y129.6798
G01 X36.4790 Y129.6477
G01 X36.4327 Y129.6199
G01 X36.3873 Y129.5983
G01 X36.3771 Y129.5942
G01 X36.3331 Y129.5787
G01 X36.2808 Y129.5656
G01 X36.2274 Y129.5576
G01 X36.1735 Y129.5550
G01 X36.1196 Y129.5576
G01 X36.0734 Y129.5643
G01 X36.0626 Y129.5663
G01 X36.0209 Y129.5767
G01 X36.0103 Y129.5798
G01 X35.9664 Y129.5955
G01 X35.9457 Y129.6048
G01 X33.2710 Y129.6048
G01 X33.2293 Y129.6067
G01 X33.2146 Y129.6081
G01 X33.1734 Y129.6144
G01 X33.1264 Y129.6262
G01 X33.0796 Y129.6429
G01 X33.0418 Y129.6606
G01 X33.0320 Y129.6657
G01 X32.9993 Y129.6852
G01 X32.9865 Y129.6938
G01 X32.9505 Y129.7069
G01 X32.9083 Y129.7266
G01 X32.8985 Y129.7317
G01 X32.8616 Y129.7538
G01 X32.8494 Y129.7619
G01 X32.8149 Y129.7875
G01 X32.8065 Y129.7947
G01 X32.7774 Y129.8210
G01 X32.7695 Y129.8287
G01 X32.7406 Y129.8605
G01 X32.7313 Y129.8719
G01 X32.7079 Y129.9034
G01 X32.7017 Y129.9125
G01 X32.6795 Y129.9493
G01 X32.6726 Y129.9623
G01 X32.6528 Y130.0045
G01 X32.6346 Y130.0553
G01 X32.6215 Y130.1077
G01 X32.6140 Y130.1574
G01 X32.6131 Y130.1684
G01 X32.6110 Y130.2150
G01 X32.6136 Y130.2689
G01 X32.6215 Y130.3223
G01 X32.6346 Y130.3747
G01 X32.6528 Y130.4255
G01 X32.6759 Y130.4743
G01 X32.7037 Y130.5206
G01 X32.7358 Y130.5639
G01 X32.7721 Y130.6039
G01 X32.8121 Y130.6402
G01 X32.8554 Y130.6723
G01 X32.9017 Y130.7001
G01 X32.9505 Y130.7231
G01 X33.0013 Y130.7413
G01 X33.0537 Y130.7544
G01 X33.1034 Y130.7619
G01 X33.1144 Y130.7629
G01 X33.1610 Y130.7650
G01 X33.2149 Y130.7624
G01 X33.2683 Y130.7544
G01 X33.3135 Y130.7433
G01 X33.3276 Y130.7390
G01 X33.3714 Y130.7231
G01 X33.4137 Y130.7034
G01 X33.4235 Y130.6983
G01 X33.4603 Y130.6762
G01 X33.4725 Y130.6681
G01 X33.5099 Y130.6402
G01 X33.5486 Y130.6052
G01 X35.9457 Y130.6052
G00 Z2.0000
G00 X36.9281 Y130.1050
G01 F60.00
G01 Z-0.1200
G01 F120.00
G01 X36.9116 Y129.9481
G01 X36.8629 Y129.7981
G01 X36.7840 Y129.6614
G01 X36.6784 Y129.5442
G01 X36.5508 Y129.4515
G01 X36.4067 Y129.3873
G01 X36.2523 Y129.3545
G01 X36.0946 Y129.3545
G01 X35.9324 Y129.3890
G01 X35.9163 Y129.3931
G01 X35.8687 Y129.4024
G01 X35.8579 Y129.4038
G01 X35.8470 Y129.4045
G01 X33.2020 Y129.4045
G01 X33.0666 Y129.4314
G01 X32.9392 Y129.4842
G01 X32.9155 Y129.4998
G01 X32.8858 Y129.5159
G01 X32.7836 Y129.5615
G01 X32.6560 Y129.6542
G01 X32.5505 Y129.7714
G01 X32.4716 Y129.9081
G01 X32.4228 Y130.0581
G01 X32.4063 Y130.2150
G01 X32.4228 Y130.3719
G01 X32.4716 Y130.5219
G01 X32.5505 Y130.6586
G01 X32.6560 Y130.7758
G01 X32.7836 Y130.8685
G01 X32.9278 Y130.9327
G01 X33.0821 Y130.9655
G01 X33.2398 Y130.9655
G01 X33.3942 Y130.9327
G01 X33.5383 Y130.8685
G01 X33.5619 Y130.8518
G01 X33.5712 Y130.8465
G01 X33.5841 Y130.8405
G01 X33.6635 Y130.8122
G01 X33.6705 Y130.8102
G01 X33.6811 Y130.8080
G01 X33.6919 Y130.8065
G01 X33.6991 Y130.8059
G01 X33.7141 Y130.8055
G01 X35.8469 Y130.8055
G01 X35.8573 Y130.8061
G01 X35.8677 Y130.8075
G01 X35.9043 Y130.8151
G01 X35.9160 Y130.8169
G01 X35.9324 Y130.8210
G01 X36.0946 Y130.8555
G01 X36.2523 Y130.8555
G01 X36.4067 Y130.8227
G01 X36.5508 Y130.7585
G01 X36.6784 Y130.6658
G01 X36.7840 Y130.5486
G01 X36.8629 Y130.4119
G01 X36.9116 Y130.2619
G01 X36.9281 Y130.1050
G00 Z2.0000
G00 X35.0640 Y124.8916
G01 F60.00
G01 Z-0.1200
G01 F120.00
G01 X35.0640 Y124.2184
G01 X35.0369 Y124.0473
G01 X34.9833 Y123.8826
G01 X34.9047 Y123.7282
G01 X34.8029 Y123.5881
G01 X34.6804 Y123.4656
G01 X34.5403 Y123.3638
G01 X34.3859 Y123.2851
G01 X34.2212 Y123.2316
G01 X34.0501 Y123.2045
G01 X33.8769 Y123.2045
G01 X33.7058 Y123.2316
G01 X33.5410 Y123.2851
G01 X33.3867 Y123.3638
G01 X33.2465 Y123.4656
G01 X33.1241 Y123.5881
G01 X33.0222 Y123.7282
G01 X32.9373 Y123.8949
G01 X32.9321 Y123.9043
G01 X32.9283 Y123.9103
G01 X32.9220 Y123.9189
G01 X32.9151 Y123.9271
G01 X32.8647 Y123.9806
G01 X32.8540 Y123.9909
G01 X32.8423 Y124.0001
G01 X32.8297 Y124.0080
G01 X32.8164 Y124.0147
G01 X32.8025 Y124.0201
G01 X32.7918 Y124.0232
G01 X32.7203 Y124.0408
G01 X32.7056 Y124.0433
G01 X32.6945 Y124.0442
G01 X32.6870 Y124.0444
G01 X32.6796 Y124.0441
G01 X32.6685 Y124.0431
G01 X32.6575 Y124.0412
G01 X32.6466 Y124.0386
G01 X32.5666 Y124.0113
G01 X32.5535 Y124.0054
G01 X32.5440 Y124.0001
G01 X32.5380 Y123.9962
G01 X32.5264 Y123.9876
G01 X32.5183 Y123.9805
G01 X32.5132 Y123.9754
G01 X32.4670 Y123.9222
G01 X32.4625 Y123.9165
G01 X32.4563 Y123.9075
G01 X32.4491 Y123.8949
G01 X32.3643 Y123.7285
G01 X32.2625 Y123.5884
G01 X32.1401 Y123.4660
G01 X32.0000 Y123.3642
G01 X31.8457 Y123.2856
G01 X31.8235 Y123.2784
G01 X31.8235 Y123.4996
G01 X31.8445 Y123.5096
G01 X31.8509 Y123.5130
G01 X31.9204 Y123.5547
G01 X31.9295 Y123.5609
G01 X31.9915 Y123.6070
G01 X32.0000 Y123.6141
G01 X32.0599 Y123.6686
G01 X32.1168 Y123.7312
G01 X32.1237 Y123.7399
G01 X32.1718 Y123.8050
G01 X32.2172 Y123.8807
G01 X32.2550 Y123.9606
G01 X32.2836 Y124.0402
G01 X32.2867 Y124.0508
G01 X32.3062 Y124.1294
G01 X32.3182 Y124.2095
G01 X32.3197 Y124.2241
G01 X32.3235 Y124.3050
G01 X32.3235 Y124.8050
G01 X32.3191 Y124.8932
G01 X32.3074 Y124.9733
G01 X32.3046 Y124.9878
G01 X32.2847 Y125.0663
G01 X32.2576 Y125.1425
G01 X32.2520 Y125.1561
G01 X32.2172 Y125.2293
G01 X32.1738 Y125.3019
G01 X32.1676 Y125.3110
G01 X32.1237 Y125.3701
G01 X32.1144 Y125.3815
G01 X32.0599 Y125.4414
G01 X31.9972 Y125.4983
G01 X31.9886 Y125.5052
G01 X31.9295 Y125.5491
G01 X31.9204 Y125.5553
G01 X31.8509 Y125.5970
G01 X31.8445 Y125.6004
G01 X31.8235 Y125.6104
G01 X31.8235 Y125.8316
G01 X31.8457 Y125.8244
G01 X32.0000 Y125.7458
G01 X32.1401 Y125.6440
G01 X32.2625 Y125.5216
G01 X32.3643 Y125.3815
G01 X32.4491 Y125.2151
G01 X32.4525 Y125.2088
G01 X32.4581 Y125.1997
G01 X32.4644 Y125.1911
G01 X32.4712 Y125.1829
G01 X32.5216 Y125.1294
G01 X32.5324 Y125.1191
G01 X32.5441 Y125.1099
G01 X32.5567 Y125.1020
G01 X32.5700 Y125.0953
G01 X32.5804 Y125.0911
G01 X32.5874 Y125.0888
G01 X32.6697 Y125.0684
G01 X32.6771 Y125.0672
G01 X32.6882 Y125.0660
G01 X32.7031 Y125.0657
G01 X32.7142 Y125.0665
G01 X32.7216 Y125.0674
G01 X32.7326 Y125.0696
G01 X32.7398 Y125.0714
G01 X32.8198 Y125.0987
G01 X32.8297 Y125.1030
G01 X32.8361 Y125.1063
G01 X32.8484 Y125.1138
G01 X32.8600 Y125.1224
G01 X32.8706 Y125.1320
G01 X32.8780 Y125.1400
G01 X32.9194 Y125.1878
G01 X32.9239 Y125.1935
G01 X32.9301 Y125.2025
G01 X32.9373 Y125.2151
G01 X33.0222 Y125.3818
G01 X33.1241 Y125.5219
G01 X33.2465 Y125.6444
G01 X33.3867 Y125.7462
G01 X33.5410 Y125.8249
G01 X33.7058 Y125.8784
G01 X33.8769 Y125.9055
G01 X34.0501 Y125.9055
G01 X34.2212 Y125.8784
G01 X34.3859 Y125.8249
G01 X34.5403 Y125.7462
G01 X34.6804 Y125.6444
G01 X34.8029 Y125.5219
G01 X34.9047 Y125.3818
G01 X34.9833 Y125.2274
G01 X35.0369 Y125.0627
G01 X35.0640 Y124.8916
G00 Z2.0000
G00 X34.0443 Y123.4088
G01 F60.00
G01 Z-0.1200
G01 F120.00
G01 X33.9635 Y123.4050
G01 X33.8753 Y123.4093
G01 X33.7879 Y123.4223
G01 X33.7022 Y123.4438
G01 X33.6191 Y123.4735
G01 X33.5392 Y123.5113
G01 X33.4635 Y123.5567
G01 X33.3925 Y123.6093
G01 X33.3271 Y123.6686
G01 X33.2678 Y123.7340
G01 X33.2151 Y123.8050
G01 X33.1697 Y123.8807
G01 X33.1320 Y123.9606
G01 X33.1022 Y124.0437
G01 X33.0808 Y124.1294
G01 X33.0687 Y124.2095
G01 X33.0674 Y124.2212
G01 X33.0635 Y124.3050
G01 X33.0635 Y124.8050
G01 X33.0678 Y124.8932
G01 X33.0808 Y124.9806
G01 X33.1022 Y125.0663
G01 X33.1320 Y125.1494
G01 X33.1697 Y125.2293
G01 X33.2151 Y125.3050
G01 X33.2632 Y125.3701
G01 X33.2726 Y125.3815
G01 X33.3271 Y125.4414
G01 X33.3869 Y125.4959
G01 X33.3983 Y125.5052
G01 X33.4635 Y125.5533
G01 X33.5328 Y125.5951
G01 X33.5458 Y125.6020
G01 X33.6191 Y125.6365
G01 X33.6952 Y125.6639
G01 X33.7093 Y125.6682
G01 X33.7879 Y125.6877
G01 X33.8679 Y125.6998
G01 X33.8789 Y125.7010
G01 X33.9635 Y125.7050
G01 X34.0517 Y125.7007
G01 X34.1390 Y125.6877
G01 X34.2247 Y125.6662
G01 X34.3079 Y125.6365
G01 X34.3877 Y125.5987
G01 X34.4635 Y125.5533
G01 X34.5344 Y125.5007
G01 X34.5999 Y125.4414
G01 X34.6592 Y125.3760
G01 X34.7118 Y125.3050
G01 X34.7572 Y125.2293
G01 X34.7950 Y125.1494
G01 X34.8247 Y125.0663
G01 X34.8462 Y124.9806
G01 X34.8582 Y124.9005
G01 X34.8594 Y124.8895
G01 X34.8635 Y124.8050
G01 X34.8635 Y124.3050
G01 X34.8591 Y124.2168
G01 X34.8462 Y124.1294
G01 X34.8247 Y124.0437
G01 X34.7950 Y123.9606
G01 X34.7605 Y123.8873
G01 X34.7554 Y123.8775
G01 X34.7157 Y123.8112
G01 X34.7076 Y123.7990
G01 X34.6592 Y123.7340
G01 X34.6049 Y123.6739
G01 X34.5945 Y123.6635
G01 X34.5344 Y123.6093
G01 X34.4635 Y123.5567
G01 X34.3941 Y123.5149
G01 X34.3811 Y123.5080
G01 X34.3079 Y123.4735
G01 X34.2317 Y123.4461
G01 X34.2176 Y123.4418
G01 X34.1390 Y123.4223
G01 X34.0590 Y123.4102
G01 X34.0443 Y123.4088
G00 Z2.0000
G00 X35.0534 Y120.9550
G01 F60.00
G01 Z-0.1200
G01 F120.00
G01 X34.8502 Y120.9550
G01 X34.8468 Y120.9770
G01 X34.8454 Y120.9842
G01 X34.8257 Y121.0627
G01 X34.8224 Y121.0732
G01 X34.7976 Y121.1425
G01 X34.7935 Y121.1528
G01 X34.7605 Y121.2227
G01 X34.7536 Y121.2357
G01 X34.7118 Y121.3050
G01 X34.6637 Y121.3701
G01 X34.6544 Y121.3815
G01 X34.5999 Y121.4414
G01 X34.5400 Y121.4959
G01 X34.5315 Y121.5030
G01 X34.4695 Y121.5491
G01 X34.4604 Y121.5553
G01 X34.3909 Y121.5970
G01 X34.3845 Y121.6004
G01 X34.3635 Y121.6104
G01 X34.3635 Y121.8316
G01 X34.3857 Y121.8244
G01 X34.5400 Y121.7458
G01 X34.6801 Y121.6440
G01 X34.8025 Y121.5216
G01 X34.9043 Y121.3815
G01 X34.9829 Y121.2273
G01 X35.0364 Y121.0626
G01 X35.0534 Y120.9550
G00 Z2.0000
G00 X31.0235 Y123.4996
G01 F60.00
G01 Z-0.1200
G01 F120.00
G01 X31.0235 Y123.2784
G01 X31.0012 Y123.2856
G01 X30.8469 Y123.3642
G01 X30.7069 Y123.4660
G01 X30.5844 Y123.5884
G01 X30.4827 Y123.7285
G01 X30.4041 Y123.8827
G01 X30.3506 Y124.0474
G01 X30.3335 Y124.1550
G01 X30.5368 Y124.1550
G01 X30.5401 Y124.1330
G01 X30.5415 Y124.1258
G01 X30.5612 Y124.0473
G01 X30.5645 Y124.0368
G01 X30.5893 Y123.9675
G01 X30.5934 Y123.9572
G01 X30.6264 Y123.8873
G01 X30.6334 Y123.8743
G01 X30.6751 Y123.8050
G01 X30.7232 Y123.7399
G01 X30.7326 Y123.7285
G01 X30.7871 Y123.6686
G01 X30.8469 Y123.6141
G01 X30.8554 Y123.6070
G01 X30.9174 Y123.5609
G01 X30.9265 Y123.5547
G01 X30.9960 Y123.5130
G01 X31.0025 Y123.5096
G01 X31.0235 Y123.4996
G00 Z2.0000
G00 X31.0235 Y125.6104
G01 F60.00
G01 Z-0.1200
G01 F120.00
G01 X31.0025 Y125.6004
G01 X30.9960 Y125.5970
G01 X30.9265 Y125.5553
G01 X30.9174 Y125.5491
G01 X30.8554 Y125.5030
G01 X30.8469 Y125.4959
G01 X30.7871 Y125.4414
G01 X30.7326 Y125.3815
G01 X30.7232 Y125.3701
G01 X30.6751 Y125.3050
G01 X30.6334 Y125.2357
G01 X30.6264 Y125.2227
G01 X30.5934 Y125.1528
G01 X30.5893 Y125.1425
G01 X30.5645 Y125.0732
G01 X30.5612 Y125.0627
G01 X30.5415 Y124.9842
G01 X30.5401 Y124.9770
G01 X30.5368 Y124.9550
G01 X30.3335 Y124.9550
G01 X30.3506 Y125.0626
G01 X30.4041 Y125.2273
G01 X30.4827 Y125.3815
G01 X30.5844 Y125.5216
G01 X30.7069 Y125.6440
G01 X30.8469 Y125.7458
G01 X31.0012 Y125.8244
G01 X31.0235 Y125.8316
G01 X31.0235 Y125.6104
G00 Z2.0000
G00 X27.9358 Y123.1692
G01 F60.00
G01 Z-0.1200
G01 F120.00
G01 X27.8962 Y123.1594
G01 X27.8559 Y123.1533
G01 X27.8449 Y123.1520
G01 X27.8041 Y123.1500
G01 X26.9815 Y123.1500
G01 X26.9334 Y123.1524
G01 X26.8858 Y123.1594
G01 X26.8391 Y123.1711
G01 X26.7938 Y123.1873
G01 X26.7568 Y123.2046
G01 X26.7438 Y123.2115
G01 X26.7120 Y123.2307
G01 X26.7029 Y123.2369
G01 X26.6703 Y123.2613
G01 X26.6400 Y123.2886
G01 X26.6321 Y123.2963
G01 X26.6023 Y123.3293
G01 X26.5736 Y123.3680
G01 X26.5489 Y123.4093
G01 X26.5313 Y123.4461
G01 X26.5269 Y123.4562
G01 X26.5132 Y123.4946
G01 X26.5101 Y123.5052
G01 X26.5020 Y123.5376
G01 X26.4991 Y123.5521
G01 X26.4937 Y123.5888
G01 X26.4928 Y123.5998
G01 X26.4910 Y123.6405
G01 X26.4910 Y124.9632
G01 X26.4933 Y125.0076
G01 X26.4991 Y125.0479
G01 X26.5012 Y125.0588
G01 X26.5101 Y125.0948
G01 X26.5132 Y125.1054
G01 X26.5269 Y125.1438
G01 X26.5340 Y125.1596
G01 X19.9473 Y131.7463
G01 X19.9143 Y131.7827
G01 X19.8893 Y131.8161
G01 X19.8831 Y131.8252
G01 X19.8599 Y131.8642
G01 X19.8418 Y131.9019
G01 X19.8362 Y131.9155
G01 X19.8223 Y131.9548
G01 X19.8120 Y131.9952
G01 X19.8091 Y132.0097
G01 X19.8032 Y132.0510
G01 X19.8008 Y132.0963
G01 X19.8008 Y137.2028
G01 X16.8283 Y140.1753
G01 X16.8071 Y140.1833
G01 X16.7650 Y140.2032
G01 X16.7553 Y140.2086
G01 X16.7216 Y140.2288
G01 X16.7124 Y140.2348
G01 X16.6721 Y140.2648
G01 X16.6374 Y140.2960
G01 X16.6270 Y140.3064
G01 X16.6006 Y140.3355
G01 X16.5935 Y140.3440
G01 X16.5637 Y140.3844
G01 X16.5359 Y140.4307
G01 X16.5128 Y140.4795
G01 X16.4970 Y140.5234
G01 X16.4927 Y140.5374
G01 X16.4815 Y140.5827
G01 X16.4745 Y140.6288
G01 X16.4733 Y140.6398
G01 X16.4711 Y140.6826
G01 X16.4711 Y140.6974
G01 X16.4733 Y140.7402
G01 X16.4745 Y140.7512
G01 X16.4803 Y140.7900
G01 X16.4831 Y140.8045
G01 X16.4946 Y140.8497
G01 X16.5128 Y140.9005
G01 X16.5359 Y140.9493
G01 X16.5637 Y140.9956
G01 X16.5958 Y141.0389
G01 X16.6321 Y141.0789
G01 X16.6721 Y141.1152
G01 X16.7094 Y141.1431
G01 X16.7185 Y141.1493
G01 X16.7617 Y141.1751
G01 X16.8038 Y141.1952
G01 X16.8174 Y141.2008
G01 X16.8578 Y141.2152
G01 X16.8684 Y141.2183
G01 X16.9137 Y141.2294
G01 X16.9671 Y141.2374
G01 X17.0210 Y141.2400
G01 X17.0675 Y141.2379
G01 X17.0822 Y141.2365
G01 X17.1246 Y141.2301
G01 X17.1355 Y141.2278
G01 X17.1806 Y141.2163
G01 X17.2314 Y141.1981
G01 X17.2802 Y141.1751
G01 X17.3203 Y141.1512
G01 X17.3325 Y141.1431
G01 X17.3641 Y141.1197
G01 X17.3727 Y141.1128
G01 X17.4099 Y141.0789
G01 X17.4413 Y141.0445
G01 X17.4507 Y141.0331
G01 X17.4762 Y140.9986
G01 X17.4822 Y140.9893
G01 X17.5024 Y140.9557
G01 X17.5077 Y140.9460
G01 X17.5277 Y140.9039
G01 X17.5357 Y140.8827
G01 X20.6546 Y137.7637
G01 X20.6876 Y137.7273
G01 X20.7126 Y137.6939
G01 X20.7189 Y137.6848
G01 X20.7421 Y137.6458
G01 X20.7601 Y137.6081
G01 X20.7657 Y137.5945
G01 X20.7795 Y137.5556
G01 X20.7899 Y137.5148
G01 X20.7928 Y137.5003
G01 X20.7987 Y137.4590
G01 X20.8011 Y137.4137
G01 X20.8011 Y132.3072
G01 X27.6583 Y125.4500
G01 X27.8005 Y125.4500
G01 X27.8449 Y125.4480
G01 X27.8559 Y125.4467
G01 X27.8962 Y125.4406
G01 X27.9358 Y125.4308
G01 X27.9498 Y125.4266
G01 X27.9882 Y125.4127
G01 X28.0251 Y125.3954
G01 X28.0381 Y125.3885
G01 X28.0730 Y125.3673
G01 X28.1116 Y125.3387
G01 X28.1420 Y125.3114
G01 X28.1524 Y125.3010
G01 X28.1748 Y125.2762
G01 X28.1819 Y125.2678
G01 X28.2083 Y125.2320
G01 X28.2294 Y125.1971
G01 X28.2364 Y125.1841
G01 X28.2536 Y125.1472
G01 X28.2698 Y125.1019
G01 X28.2799 Y125.0624
G01 X28.2828 Y125.0479
G01 X28.2877 Y125.0149
G01 X28.2889 Y125.0039
G01 X28.2910 Y124.9595
G01 X28.2910 Y123.6405
G01 X28.2891 Y123.5998
G01 X28.2882 Y123.5888
G01 X28.2815 Y123.5448
G01 X28.2718 Y123.5052
G01 X28.2675 Y123.4911
G01 X28.2536 Y123.4528
G01 X28.2364 Y123.4159
G01 X28.2294 Y123.4029
G01 X28.2083 Y123.3680
G01 X28.1796 Y123.3293
G01 X28.1524 Y123.2990
G01 X28.1420 Y123.2886
G01 X28.1116 Y123.2613
G01 X28.0730 Y123.2327
G01 X28.0317 Y123.2079
G01 X27.9949 Y123.1903
G01 X27.9848 Y123.1860
G01 X27.9498 Y123.1734
G01 X27.9358 Y123.1692
G00 Z2.0000
G00 X28.4809 Y120.7000
G01 F60.00
G01 Z-0.1200
G01 F120.00
G01 X28.2777 Y120.7000
G01 X28.2743 Y120.7220
G01 X28.2729 Y120.7292
G01 X28.2532 Y120.8077
G01 X28.2499 Y120.8182
G01 X28.2251 Y120.8875
G01 X28.2210 Y120.8978
G01 X28.1880 Y120.9677
G01 X28.1811 Y120.9807
G01 X28.1393 Y121.0500
G01 X28.0912 Y121.1151
G01 X28.0819 Y121.1265
G01 X28.0274 Y121.1864
G01 X27.9675 Y121.2409
G01 X27.9590 Y121.2480
G01 X27.8970 Y121.2941
G01 X27.8879 Y121.3003
G01 X27.8184 Y121.3420
G01 X27.8120 Y121.3454
G01 X27.7910 Y121.3554
G01 X27.7910 Y121.5766
G01 X27.8132 Y121.5694
G01 X27.9675 Y121.4908
G01 X28.1076 Y121.3890
G01 X28.2300 Y121.2666
G01 X28.3318 Y121.1265
G01 X28.4104 Y120.9723
G01 X28.4639 Y120.8076
G01 X28.4809 Y120.7000
G00 Z2.0000
G00 X28.4809 Y119.9000
G01 F60.00
G01 Z-0.1200
G01 F120.00
G01 X28.4639 Y119.7924
G01 X28.4104 Y119.6277
G01 X28.3318 Y119.4735
G01 X28.2300 Y119.3334
G01 X28.1076 Y119.2110
G01 X27.9675 Y119.1092
G01 X27.8132 Y119.0306
G01 X27.7910 Y119.0234
G01 X27.7910 Y119.2446
G01 X27.8120 Y119.2546
G01 X27.8184 Y119.2580
G01 X27.8879 Y119.2997
G01 X27.8970 Y119.3059
G01 X27.9590 Y119.3520
G01 X27.9675 Y119.3591
G01 X28.0274 Y119.4136
G01 X28.0819 Y119.4735
G01 X28.0912 Y119.4849
G01 X28.1393 Y119.5500
G01 X28.1811 Y119.6193
G01 X28.1880 Y119.6323
G01 X28.2210 Y119.7022
G01 X28.2251 Y119.7125
G01 X28.2499 Y119.7818
G01 X28.2532 Y119.7923
G01 X28.2729 Y119.8708
G01 X28.2743 Y119.8780
G01 X28.2777 Y119.9000
G01 X28.4809 Y119.9000
G00 Z2.0000
G00 X26.9910 Y119.2446
G01 F60.00
G01 Z-0.1200
G01 F120.00
G01 X26.9910 Y119.0234
G01 X26.9687 Y119.0306
G01 X26.8144 Y119.1092
G01 X26.6744 Y119.2110
G01 X26.5519 Y119.3334
G01 X26.4502 Y119.4735
G01 X26.3654 Y119.6399
G01 X26.3620 Y119.6461
G01 X26.3564 Y119.6552
G01 X26.3501 Y119.6639
G01 X26.3432 Y119.6721
G01 X26.2928 Y119.7256
G01 X26.2821 Y119.7359
G01 X26.2703 Y119.7451
G01 X26.2578 Y119.7530
G01 X26.2445 Y119.7597
G01 X26.2341 Y119.7639
G01 X26.2270 Y119.7662
G01 X26.1447 Y119.7866
G01 X26.1337 Y119.7883
G01 X26.1263 Y119.7890
G01 X26.1188 Y119.7893
G01 X26.1077 Y119.7891
G01 X26.0928 Y119.7876
G01 X26.0819 Y119.7854
G01 X26.0747 Y119.7836
G01 X26.0014 Y119.7588
G01 X25.9913 Y119.7549
G01 X25.9848 Y119.7520
G01 X25.9752 Y119.7469
G01 X25.9631 Y119.7392
G01 X25.9517 Y119.7303
G01 X25.9413 Y119.7204
G01 X25.8950 Y119.6672
G01 X25.8884 Y119.6585
G01 X25.8843 Y119.6525
G01 X25.8771 Y119.6398
G01 X25.7922 Y119.4732
G01 X25.6904 Y119.3331
G01 X25.5679 Y119.2106
G01 X25.4278 Y119.1088
G01 X25.2734 Y119.0301
G01 X25.1087 Y118.9766
G01 X24.9376 Y118.9495
G01 X24.7644 Y118.9495
G01 X24.5933 Y118.9766
G01 X24.4285 Y119.0301
G01 X24.2742 Y119.1088
G01 X24.1340 Y119.2106
G01 X24.0116 Y119.3331
G01 X23.9097 Y119.4732
G01 X23.8311 Y119.6276
G01 X23.7776 Y119.7923
G01 X23.7505 Y119.9634
G01 X23.7505 Y120.6366
G01 X23.7776 Y120.8077
G01 X23.8311 Y120.9724
G01 X23.9097 Y121.1268
G01 X24.0116 Y121.2669
G01 X24.1340 Y121.3894
G01 X24.2742 Y121.4912
G01 X24.4285 Y121.5699
G01 X24.5933 Y121.6234
G01 X24.7644 Y121.6505
G01 X24.9376 Y121.6505
G01 X25.1087 Y121.6234
G01 X25.2734 Y121.5699
G01 X25.4278 Y121.4912
G01 X25.5679 Y121.3894
G01 X25.6904 Y121.2669
G01 X25.7922 Y121.1268
G01 X25.8771 Y120.9601
G01 X25.8823 Y120.9507
G01 X25.8862 Y120.9447
G01 X25.8924 Y120.9361
G01 X25.8993 Y120.9279
G01 X25.9549 Y120.8692
G01 X25.9662 Y120.8594
G01 X25.9752 Y120.8528
G01 X25.9815 Y120.8488
G01 X25.9913 Y120.8435
G01 X25.9980 Y120.8403
G01 X26.0049 Y120.8374
G01 X26.0155 Y120.8338
G01 X26.0905 Y120.8150
G01 X26.1014 Y120.8128
G01 X26.1125 Y120.8113
G01 X26.1237 Y120.8107
G01 X26.1348 Y120.8109
G01 X26.1497 Y120.8124
G01 X26.1606 Y120.8146
G01 X26.1714 Y120.8175
G01 X26.2411 Y120.8412
G01 X26.2545 Y120.8465
G01 X26.2673 Y120.8531
G01 X26.2735 Y120.8568
G01 X26.2823 Y120.8629
G01 X26.2935 Y120.8721
G01 X26.3037 Y120.8823
G01 X26.3474 Y120.9328
G01 X26.3519 Y120.9385
G01 X26.3582 Y120.9475
G01 X26.3654 Y120.9601
G01 X26.4502 Y121.1265
G01 X26.5519 Y121.2666
G01 X26.6744 Y121.3890
G01 X26.8144 Y121.4908
G01 X26.9687 Y121.5694
G01 X26.9910 Y121.5766
G01 X26.9910 Y121.3554
G01 X26.9700 Y121.3454
G01 X26.9635 Y121.3420
G01 X26.8940 Y121.3003
G01 X26.8849 Y121.2941
G01 X26.8229 Y121.2480
G01 X26.8144 Y121.2409
G01 X26.7546 Y121.1864
G01 X26.6976 Y121.1238
G01 X26.6907 Y121.1151
G01 X26.6426 Y121.0500
G01 X26.5972 Y120.9743
G01 X26.5595 Y120.8944
G01 X26.5308 Y120.8148
G01 X26.5278 Y120.8042
G01 X26.5083 Y120.7256
G01 X26.4962 Y120.6455
G01 X26.4948 Y120.6309
G01 X26.4910 Y120.5500
G01 X26.4910 Y120.0500
G01 X26.4948 Y119.9691
G01 X26.4962 Y119.9545
G01 X26.5083 Y119.8744
G01 X26.5297 Y119.7887
G01 X26.5568 Y119.7125
G01 X26.5625 Y119.6989
G01 X26.5972 Y119.6257
G01 X26.6406 Y119.5531
G01 X26.6469 Y119.5440
G01 X26.6907 Y119.4849
G01 X26.7001 Y119.4735
G01 X26.7546 Y119.4136
G01 X26.8172 Y119.3567
G01 X26.8258 Y119.3498
G01 X26.8849 Y119.3059
G01 X26.8940 Y119.2997
G01 X26.9635 Y119.2580
G01 X26.9700 Y119.2546
G01 X26.9910 Y119.2446
G00 Z2.0000
G00 X24.9318 Y119.1538
G01 F60.00
G01 Z-0.1200
G01 F120.00
G01 X24.8510 Y119.1500
G01 X24.7628 Y119.1543
G01 X24.6754 Y119.1673
G01 X24.5897 Y119.1888
G01 X24.5066 Y119.2185
G01 X24.4267 Y119.2563
G01 X24.3510 Y119.3017
G01 X24.2800 Y119.3543
G01 X24.2146 Y119.4136
G01 X24.1553 Y119.4790
G01 X24.1026 Y119.5500
G01 X24.0572 Y119.6257
G01 X24.0195 Y119.7056
G01 X23.9897 Y119.7887
G01 X23.9683 Y119.8744
G01 X23.9562 Y119.9545
G01 X23.9550 Y119.9655
G01 X23.9510 Y120.0500
G01 X23.9510 Y120.5500
G01 X23.9553 Y120.6382
G01 X23.9683 Y120.7256
G01 X23.9897 Y120.8113
G01 X24.0195 Y120.8944
G01 X24.0572 Y120.9743
G01 X24.1026 Y121.0500
G01 X24.1507 Y121.1151
G01 X24.1601 Y121.1265
G01 X24.2146 Y121.1864
G01 X24.2744 Y121.2409
G01 X24.2858 Y121.2502
G01 X24.3510 Y121.2983
G01 X24.4203 Y121.3401
G01 X24.4333 Y121.3470
G01 X24.5066 Y121.3815
G01 X24.5827 Y121.4089
G01 X24.5968 Y121.4132
G01 X24.6754 Y121.4327
G01 X24.7554 Y121.4448
G01 X24.7664 Y121.4460
G01 X24.8510 Y121.4500
G01 X24.9392 Y121.4457
G01 X25.0265 Y121.4327
G01 X25.1122 Y121.4112
G01 X25.1954 Y121.3815
G01 X25.2752 Y121.3437
G01 X25.3510 Y121.2983
G01 X25.4219 Y121.2457
G01 X25.4874 Y121.1864
G01 X25.5467 Y121.1210
G01 X25.5993 Y121.0500
G01 X25.6447 Y120.9743
G01 X25.6825 Y120.8944
G01 X25.7122 Y120.8113
G01 X25.7337 Y120.7256
G01 X25.7457 Y120.6455
G01 X25.7469 Y120.6345
G01 X25.7510 Y120.5500
G01 X25.7510 Y120.0500
G01 X25.7466 Y119.9618
G01 X25.7337 Y119.8744
G01 X25.7122 Y119.7887
G01 X25.6825 Y119.7056
G01 X25.6480 Y119.6323
G01 X25.6429 Y119.6225
G01 X25.6032 Y119.5562
G01 X25.5951 Y119.5440
G01 X25.5467 Y119.4790
G01 X25.4924 Y119.4189
G01 X25.4820 Y119.4085
G01 X25.4219 Y119.3543
G01 X25.3510 Y119.3017
G01 X25.2816 Y119.2599
G01 X25.2686 Y119.2530
G01 X25.1954 Y119.2185
G01 X25.1192 Y119.1911
G01 X25.1051 Y119.1868
G01 X25.0265 Y119.1673
G01 X24.9465 Y119.1552
G01 X24.9318 Y119.1538
G00 Z2.0000
G00 X24.4510 Y123.2446
G01 F60.00
G01 Z-0.1200
G01 F120.00
G01 X24.4510 Y123.0234
G01 X24.4287 Y123.0306
G01 X24.2744 Y123.1092
G01 X24.1344 Y123.2110
G01 X24.0119 Y123.3334
G01 X23.9102 Y123.4735
G01 X23.8316 Y123.6277
G01 X23.7781 Y123.7924
G01 X23.7610 Y123.9000
G01 X23.9643 Y123.9000
G01 X23.9676 Y123.8780
G01 X23.9690 Y123.8708
G01 X23.9887 Y123.7923
G01 X23.9920 Y123.7818
G01 X24.0168 Y123.7125
G01 X24.0209 Y123.7022
G01 X24.0539 Y123.6323
G01 X24.0609 Y123.6193
G01 X24.1026 Y123.5500
G01 X24.1507 Y123.4849
G01 X24.1601 Y123.4735
G01 X24.2146 Y123.4136
G01 X24.2744 Y123.3591
G01 X24.2829 Y123.3520
G01 X24.3449 Y123.3059
G01 X24.3540 Y123.2997
G01 X24.4235 Y123.2580
G01 X24.4300 Y123.2546
G01 X24.4510 Y123.2446
G00 Z2.0000
G00 X24.4510 Y125.3554
G01 F60.00
G01 Z-0.1200
G01 F120.00
G01 X24.4300 Y125.3454
G01 X24.4235 Y125.3420
G01 X24.3540 Y125.3003
G01 X24.3449 Y125.2941
G01 X24.2829 Y125.2480
G01 X24.2744 Y125.2409
G01 X24.2146 Y125.1864
G01 X24.1601 Y125.1265
G01 X24.1507 Y125.1151
G01 X24.1026 Y125.0500
G01 X24.0609 Y124.9807
G01 X24.0539 Y124.9677
G01 X24.0209 Y124.8978
G01 X24.0168 Y124.8875
G01 X23.9920 Y124.8182
G01 X23.9887 Y124.8077
G01 X23.9690 Y124.7292
G01 X23.9676 Y124.7220
G01 X23.9643 Y124.7000
G01 X23.7610 Y124.7000
G01 X23.7781 Y124.8076
G01 X23.8316 Y124.9723
G01 X23.9102 Y125.1265
G01 X24.0119 Y125.2666
G01 X24.1344 Y125.3890
G01 X24.2744 Y125.4908
G01 X24.4287 Y125.5694
G01 X24.4510 Y125.5766
G01 X24.4510 Y125.3554
G00 Z2.0000
G00 X26.9415 Y115.0190
G01 F60.00
G01 Z-0.1200
G01 F120.00
G01 X26.9415 Y114.8810
G01 X26.9145 Y114.7457
G01 X26.8617 Y114.6182
G01 X26.7851 Y114.5035
G01 X26.6875 Y114.4059
G01 X26.5728 Y114.3292
G01 X26.4213 Y114.2666
G01 X26.3442 Y114.2323
G01 X26.1898 Y114.1995
G01 X26.0321 Y114.1995
G01 X25.8699 Y114.2340
G01 X25.8538 Y114.2381
G01 X25.8062 Y114.2474
G01 X25.7954 Y114.2488
G01 X25.7845 Y114.2495
G01 X23.3010 Y114.2495
G01 X23.2906 Y114.2491
G01 X23.2767 Y114.2475
G01 X23.2402 Y114.2399
G01 X23.2284 Y114.2381
G01 X23.2121 Y114.2340
G01 X23.0498 Y114.1995
G01 X22.8921 Y114.1995
G01 X22.7378 Y114.2323
G01 X22.5937 Y114.2965
G01 X22.4660 Y114.3892
G01 X22.3605 Y114.5064
G01 X22.2816 Y114.6431
G01 X22.2328 Y114.7931
G01 X22.2163 Y114.9500
G01 X22.2328 Y115.1069
G01 X22.2816 Y115.2569
G01 X22.3605 Y115.3936
G01 X22.4660 Y115.5108
G01 X22.5936 Y115.6035
G01 X22.7378 Y115.6677
G01 X22.8921 Y115.7005
G01 X23.0498 Y115.7005
G01 X23.2121 Y115.6660
G01 X23.2281 Y115.6619
G01 X23.2758 Y115.6526
G01 X23.2865 Y115.6512
G01 X23.2974 Y115.6505
G01 X25.7809 Y115.6505
G01 X25.7948 Y115.6511
G01 X25.8052 Y115.6525
G01 X25.8418 Y115.6601
G01 X25.8535 Y115.6619
G01 X25.8699 Y115.6660
G01 X26.0321 Y115.7005
G01 X26.1898 Y115.7005
G01 X26.3442 Y115.6677
G01 X26.4208 Y115.6336
G01 X26.5728 Y115.5708
G01 X26.6875 Y115.4941
G01 X26.7851 Y115.3965
G01 X26.8617 Y115.2818
G01 X26.9145 Y115.1543
G01 X26.9415 Y115.0190
G00 Z2.0000
G00 X26.7173 Y114.7978
G01 F60.00
G01 Z-0.1200
G01 F120.00
G01 X26.7031 Y114.7586
G01 X26.6821 Y114.7142
G01 X26.6568 Y114.6721
G01 X26.6321 Y114.6385
G01 X26.6252 Y114.6299
G01 X26.5997 Y114.6017
G01 X26.5893 Y114.5912
G01 X26.5583 Y114.5634
G01 X26.5219 Y114.5362
G01 X26.5126 Y114.5302
G01 X26.4767 Y114.5089
G01 X26.4391 Y114.4909
G01 X26.4290 Y114.4865
G01 X26.3932 Y114.4737
G01 X26.3773 Y114.4689
G01 X26.3637 Y114.4616
G01 X26.3282 Y114.4448
G01 X26.3180 Y114.4405
G01 X26.2706 Y114.4237
G01 X26.2255 Y114.4122
G01 X26.2110 Y114.4093
G01 X26.1649 Y114.4026
G01 X26.1183 Y114.4002
G01 X26.1036 Y114.4002
G01 X26.0571 Y114.4026
G01 X26.0073 Y114.4099
G01 X25.9965 Y114.4122
G01 X25.9584 Y114.4217
G01 X25.9478 Y114.4248
G01 X25.9039 Y114.4405
G01 X25.8832 Y114.4498
G01 X23.1987 Y114.4498
G01 X23.1780 Y114.4405
G01 X23.1341 Y114.4248
G01 X23.1235 Y114.4217
G01 X23.0819 Y114.4113
G01 X23.0710 Y114.4093
G01 X23.0249 Y114.4026
G01 X22.9783 Y114.4002
G01 X22.9673 Y114.4000
G01 X22.9171 Y114.4026
G01 X22.8637 Y114.4106
G01 X22.8113 Y114.4237
G01 X22.7605 Y114.4419
G01 X22.7117 Y114.4649
G01 X22.6654 Y114.4927
G01 X22.6221 Y114.5248
G01 X22.5821 Y114.5611
G01 X22.5458 Y114.6011
G01 X22.5137 Y114.6444
G01 X22.4859 Y114.6907
G01 X22.4628 Y114.7395
G01 X22.4446 Y114.7903
G01 X22.4315 Y114.8427
G01 X22.4236 Y114.8961
G01 X22.4211 Y114.9426
G01 X22.4210 Y114.9537
G01 X22.4236 Y115.0039
G01 X22.4315 Y115.0573
G01 X22.4446 Y115.1097
G01 X22.4602 Y115.1536
G01 X22.4643 Y115.1639
G01 X22.4826 Y115.2027
G01 X22.4895 Y115.2157
G01 X22.5097 Y115.2493
G01 X22.5157 Y115.2586
G01 X22.5413 Y115.2931
G01 X22.5506 Y115.3045
G01 X22.5821 Y115.3389
G01 X22.6221 Y115.3752
G01 X22.6654 Y115.4073
G01 X22.7117 Y115.4351
G01 X22.7605 Y115.4581
G01 X22.8113 Y115.4763
G01 X22.8637 Y115.4894
G01 X22.9098 Y115.4965
G01 X22.9244 Y115.4979
G01 X22.9636 Y115.4998
G01 X22.9746 Y115.5000
G01 X23.0249 Y115.4974
G01 X23.0710 Y115.4907
G01 X23.0855 Y115.4878
G01 X23.1235 Y115.4783
G01 X23.1341 Y115.4752
G01 X23.1780 Y115.4595
G01 X23.1987 Y115.4502
G01 X25.8832 Y115.4502
G01 X25.9039 Y115.4595
G01 X25.9478 Y115.4752
G01 X25.9584 Y115.4783
G01 X26.0001 Y115.4887
G01 X26.0109 Y115.4907
G01 X26.0571 Y115.4974
G01 X26.1036 Y115.4998
G01 X26.1146 Y115.5000
G01 X26.1575 Y115.4979
G01 X26.1722 Y115.4965
G01 X26.2183 Y115.4894
G01 X26.2671 Y115.4773
G01 X26.2776 Y115.4740
G01 X26.3214 Y115.4581
G01 X26.3637 Y115.4384
G01 X26.3773 Y115.4311
G01 X26.3932 Y115.4263
G01 X26.4255 Y115.4148
G01 X26.4358 Y115.4107
G01 X26.4735 Y115.3928
G01 X26.4832 Y115.3875
G01 X26.5188 Y115.3659
G01 X26.5525 Y115.3412
G01 X26.5638 Y115.3318
G01 X26.5946 Y115.3037
G01 X26.6252 Y115.2701
G01 X26.6321 Y115.2615
G01 X26.6568 Y115.2279
G01 X26.6785 Y115.1922
G01 X26.6854 Y115.1792
G01 X26.7031 Y115.1414
G01 X26.7173 Y115.1022
G01 X26.7216 Y115.0881
G01 X26.7315 Y115.0476
G01 X26.7378 Y115.0063
G01 X26.7393 Y114.9917
G01 X26.7411 Y114.9500
G01 X26.7393 Y114.9083
G01 X26.7378 Y114.8937
G01 X26.7315 Y114.8524
G01 X26.7216 Y114.8119
G01 X26.7173 Y114.7978
G00 Z2.0000
G00 X24.4510 Y105.3554
G01 F60.00
G01 Z-0.1200
G01 F120.00
G01 X24.4300 Y105.3454
G01 X24.4235 Y105.3420
G01 X24.3540 Y105.3003
G01 X24.3449 Y105.2941
G01 X24.2829 Y105.2480
G01 X24.2744 Y105.2409
G01 X24.2146 Y105.1864
G01 X24.1601 Y105.1265
G01 X24.1507 Y105.1151
G01 X24.1026 Y105.0500
G01 X24.0609 Y104.9807
G01 X24.0539 Y104.9677
G01 X24.0209 Y104.8978
G01 X24.0168 Y104.8875
G01 X23.9920 Y104.8182
G01 X23.9887 Y104.8077
G01 X23.9690 Y104.7292
G01 X23.9676 Y104.7220
G01 X23.9643 Y104.7000
G01 X23.7610 Y104.7000
G01 X23.7781 Y104.8076
G01 X23.8316 Y104.9723
G01 X23.9102 Y105.1265
G01 X24.0119 Y105.2666
G01 X24.1344 Y105.3890
G01 X24.2744 Y105.4908
G01 X24.4287 Y105.5694
G01 X24.4510 Y105.5766
G01 X24.4510 Y105.3554
G00 Z2.0000
G00 X24.4510 Y103.2446
G01 F60.00
G01 Z-0.1200
G01 F120.00
G01 X24.4510 Y103.0234
G01 X24.4287 Y103.0306
G01 X24.2744 Y103.1092
G01 X24.1344 Y103.2110
G01 X24.0119 Y103.3334
G01 X23.9102 Y103.4735
G01 X23.8316 Y103.6277
G01 X23.7781 Y103.7924
G01 X23.7610 Y103.9000
G01 X23.9643 Y103.9000
G01 X23.9676 Y103.8780
G01 X23.9690 Y103.8708
G01 X23.9887 Y103.7923
G01 X23.9920 Y103.7818
G01 X24.0168 Y103.7125
G01 X24.0209 Y103.7022
G01 X24.0539 Y103.6323
G01 X24.0609 Y103.6193
G01 X24.1026 Y103.5500
G01 X24.1507 Y103.4849
G01 X24.1601 Y103.4735
G01 X24.2146 Y103.4136
G01 X24.2744 Y103.3591
G01 X24.2829 Y103.3520
G01 X24.3449 Y103.3059
G01 X24.3540 Y103.2997
G01 X24.4235 Y103.2580
G01 X24.4300 Y103.2546
G01 X24.4510 Y103.2446
G00 Z2.0000
G00 X28.2718 Y103.5052
G01 F60.00
G01 Z-0.1200
G01 F120.00
G01 X28.2675 Y103.4911
G01 X28.2550 Y103.4562
G01 X28.2506 Y103.4461
G01 X28.2330 Y103.4093
G01 X28.2083 Y103.3680
G01 X28.1796 Y103.3293
G01 X28.1524 Y103.2990
G01 X28.1420 Y103.2886
G01 X28.1116 Y103.2613
G01 X28.0730 Y103.2327
G01 X28.0381 Y103.2115
G01 X28.0251 Y103.2046
G01 X27.9882 Y103.1873
G01 X27.9498 Y103.1734
G01 X27.9358 Y103.1692
G01 X27.8962 Y103.1594
G01 X27.8522 Y103.1528
G01 X27.8412 Y103.1518
G01 X27.8005 Y103.1500
G01 X26.9815 Y103.1500
G01 X26.9407 Y103.1518
G01 X26.9297 Y103.1528
G01 X26.8858 Y103.1594
G01 X26.8462 Y103.1692
G01 X26.8356 Y103.1722
G01 X26.8006 Y103.1847
G01 X26.7870 Y103.1903
G01 X26.7502 Y103.2079
G01 X26.7090 Y103.2327
G01 X26.6703 Y103.2613
G01 X26.6373 Y103.2911
G01 X26.6296 Y103.2990
G01 X26.6023 Y103.3293
G01 X26.5779 Y103.3620
G01 X26.5716 Y103.3711
G01 X26.5525 Y103.4029
G01 X26.5456 Y103.4159
G01 X26.5283 Y103.4528
G01 X26.5120 Y103.4984
G01 X26.5004 Y103.5448
G01 X26.4933 Y103.5924
G01 X26.4910 Y103.6405
G01 X26.4910 Y104.9426
G01 X19.9273 Y111.5063
G01 X19.8943 Y111.5427
G01 X19.8693 Y111.5761
G01 X19.8631 Y111.5852
G01 X19.8399 Y111.6242
G01 X19.8218 Y111.6619
G01 X19.8162 Y111.6755
G01 X19.8023 Y111.7148
G01 X19.7920 Y111.7552
G01 X19.7891 Y111.7697
G01 X19.7832 Y111.8110
G01 X19.7808 Y111.8563
G01 X19.7808 Y117.4128
G01 X17.1747 Y120.0190
G01 X17.1354 Y120.0427
G01 X17.0979 Y120.0703
G01 X17.0892 Y120.0772
G01 X17.0521 Y120.1111
G01 X17.0206 Y120.1455
G01 X17.0113 Y120.1569
G01 X16.9879 Y120.1884
G01 X16.9817 Y120.1975
G01 X16.9595 Y120.2343
G01 X16.9526 Y120.2473
G01 X16.9343 Y120.2861
G01 X16.9302 Y120.2964
G01 X16.9146 Y120.3403
G01 X16.9031 Y120.3855
G01 X16.9003 Y120.4000
G01 X16.8936 Y120.4461
G01 X16.8910 Y120.4963
G01 X16.8911 Y120.5074
G01 X16.8936 Y120.5539
G01 X16.9003 Y120.6000
G01 X16.9031 Y120.6145
G01 X16.9146 Y120.6597
G01 X16.9328 Y120.7105
G01 X16.9559 Y120.7593
G01 X16.9837 Y120.8056
G01 X17.0158 Y120.8489
G01 X17.0521 Y120.8889
G01 X17.0921 Y120.9252
G01 X17.1294 Y120.9531
G01 X17.1385 Y120.9593
G01 X17.1817 Y120.9851
G01 X17.2238 Y121.0052
G01 X17.2374 Y121.0108
G01 X17.2778 Y121.0252
G01 X17.2884 Y121.0283
G01 X17.3337 Y121.0394
G01 X17.3871 Y121.0474
G01 X17.4410 Y121.0500
G01 X17.4875 Y121.0479
G01 X17.5022 Y121.0465
G01 X17.5446 Y121.0401
G01 X17.5555 Y121.0378
G01 X17.6006 Y121.0263
G01 X17.6514 Y121.0081
G01 X17.7002 Y120.9851
G01 X17.7403 Y120.9612
G01 X17.7525 Y120.9531
G01 X17.7841 Y120.9297
G01 X17.7927 Y120.9228
G01 X17.8299 Y120.8889
G01 X17.8613 Y120.8545
G01 X17.8707 Y120.8431
G01 X17.8940 Y120.8116
G01 X17.9003 Y120.8025
G01 X17.9260 Y120.7593
G01 X17.9477 Y120.7139
G01 X17.9518 Y120.7036
G01 X17.9662 Y120.6632
G01 X17.9683 Y120.6561
G01 X17.9738 Y120.6346
G01 X20.6346 Y117.9737
G01 X20.6676 Y117.9373
G01 X20.6968 Y117.8979
G01 X20.7221 Y117.8558
G01 X20.7431 Y117.8114
G01 X20.7596 Y117.7652
G01 X20.7715 Y117.7176
G01 X20.7787 Y117.6690
G01 X20.7811 Y117.6200
G01 X20.7811 Y112.0672
G01 X27.3983 Y105.4500
G01 X27.8041 Y105.4500
G01 X27.8485 Y105.4476
G01 X27.8889 Y105.4418
G01 X27.8998 Y105.4398
G01 X27.9429 Y105.4289
G01 X27.9813 Y105.4153
G01 X27.9916 Y105.4112
G01 X28.0251 Y105.3954
G01 X28.0381 Y105.3885
G01 X28.0730 Y105.3673
G01 X28.1116 Y105.3387
G01 X28.1473 Y105.3063
G01 X28.1773 Y105.2735
G01 X28.1842 Y105.2649
G01 X28.2041 Y105.2380
G01 X28.2122 Y105.2258
G01 X28.2330 Y105.1907
G01 X28.2536 Y105.1472
G01 X28.2698 Y105.1019
G01 X28.2799 Y105.0624
G01 X28.2828 Y105.0479
G01 X28.2882 Y105.0112
G01 X28.2891 Y105.0002
G01 X28.2910 Y104.9595
G01 X28.2910 Y103.6405
G01 X28.2891 Y103.5998
G01 X28.2877 Y103.5851
G01 X28.2815 Y103.5448
G01 X28.2718 Y103.5052
G00 Z2.0000
G00 X31.0235 Y103.4996
G01 F60.00
G01 Z-0.1200
G01 F120.00
G01 X31.0235 Y103.2784
G01 X31.0012 Y103.2856
G01 X30.8469 Y103.3642
G01 X30.7069 Y103.4660
G01 X30.5844 Y103.5884
G01 X30.4827 Y103.7285
G01 X30.4041 Y103.8827
G01 X30.3506 Y104.0474
G01 X30.3335 Y104.1550
G01 X30.5368 Y104.1550
G01 X30.5401 Y104.1330
G01 X30.5415 Y104.1258
G01 X30.5612 Y104.0473
G01 X30.5645 Y104.0368
G01 X30.5893 Y103.9675
G01 X30.5934 Y103.9572
G01 X30.6264 Y103.8873
G01 X30.6334 Y103.8743
G01 X30.6751 Y103.8050
G01 X30.7232 Y103.7399
G01 X30.7326 Y103.7285
G01 X30.7871 Y103.6686
G01 X30.8469 Y103.6141
G01 X30.8554 Y103.6070
G01 X30.9174 Y103.5609
G01 X30.9265 Y103.5547
G01 X30.9960 Y103.5130
G01 X31.0025 Y103.5096
G01 X31.0235 Y103.4996
G00 Z2.0000
G00 X31.0235 Y105.6104
G01 F60.00
G01 Z-0.1200
G01 F120.00
G01 X31.0025 Y105.6004
G01 X30.9960 Y105.5970
G01 X30.9265 Y105.5553
G01 X30.9174 Y105.5491
G01 X30.8554 Y105.5030
G01 X30.8469 Y105.4959
G01 X30.7871 Y105.4414
G01 X30.7326 Y105.3815
G01 X30.7232 Y105.3701
G01 X30.6751 Y105.3050
G01 X30.6334 Y105.2357
G01 X30.6264 Y105.2227
G01 X30.5934 Y105.1528
G01 X30.5893 Y105.1425
G01 X30.5645 Y105.0732
G01 X30.5612 Y105.0627
G01 X30.5415 Y104.9842
G01 X30.5401 Y104.9770
G01 X30.5368 Y104.9550
G01 X30.3335 Y104.9550
G01 X30.3506 Y105.0626
G01 X30.4041 Y105.2273
G01 X30.4827 Y105.3815
G01 X30.5844 Y105.5216
G01 X30.7069 Y105.6440
G01 X30.8469 Y105.7458
G01 X31.0012 Y105.8244
G01 X31.0235 Y105.8316
G01 X31.0235 Y105.6104
G00 Z2.0000
G00 X34.0443 Y103.4088
G01 F60.00
G01 Z-0.1200
G01 F120.00
G01 X33.9635 Y103.4050
G01 X33.8753 Y103.4093
G01 X33.7879 Y103.4223
G01 X33.7022 Y103.4438
G01 X33.6191 Y103.4735
G01 X33.5392 Y103.5113
G01 X33.4635 Y103.5567
G01 X33.3925 Y103.6093
G01 X33.3271 Y103.6686
G01 X33.2678 Y103.7340
G01 X33.2151 Y103.8050
G01 X33.1697 Y103.8807
G01 X33.1320 Y103.9606
G01 X33.1022 Y104.0437
G01 X33.0808 Y104.1294
G01 X33.0687 Y104.2095
G01 X33.0674 Y104.2212
G01 X33.0635 Y104.3050
G01 X33.0635 Y104.8050
G01 X33.0678 Y104.8932
G01 X33.0808 Y104.9806
G01 X33.1022 Y105.0663
G01 X33.1320 Y105.1494
G01 X33.1697 Y105.2293
G01 X33.2151 Y105.3050
G01 X33.2632 Y105.3701
G01 X33.2726 Y105.3815
G01 X33.3271 Y105.4414
G01 X33.3869 Y105.4959
G01 X33.3983 Y105.5052
G01 X33.4635 Y105.5533
G01 X33.5328 Y105.5951
G01 X33.5458 Y105.6020
G01 X33.6191 Y105.6365
G01 X33.6952 Y105.6639
G01 X33.7093 Y105.6682
G01 X33.7879 Y105.6877
G01 X33.8679 Y105.6998
G01 X33.8789 Y105.7010
G01 X33.9635 Y105.7050
G01 X34.0517 Y105.7007
G01 X34.1390 Y105.6877
G01 X34.2247 Y105.6662
G01 X34.3079 Y105.6365
G01 X34.3877 Y105.5987
G01 X34.4635 Y105.5533
G01 X34.5344 Y105.5007
G01 X34.5999 Y105.4414
G01 X34.6592 Y105.3760
G01 X34.7118 Y105.3050
G01 X34.7572 Y105.2293
G01 X34.7950 Y105.1494
G01 X34.8247 Y105.0663
G01 X34.8462 Y104.9806
G01 X34.8582 Y104.9005
G01 X34.8594 Y104.8895
G01 X34.8635 Y104.8050
G01 X34.8635 Y104.3050
G01 X34.8591 Y104.2168
G01 X34.8462 Y104.1294
G01 X34.8247 Y104.0437
G01 X34.7950 Y103.9606
G01 X34.7605 Y103.8873
G01 X34.7554 Y103.8775
G01 X34.7157 Y103.8112
G01 X34.7076 Y103.7990
G01 X34.6592 Y103.7340
G01 X34.6049 Y103.6739
G01 X34.5945 Y103.6635
G01 X34.5344 Y103.6093
G01 X34.4635 Y103.5567
G01 X34.3941 Y103.5149
G01 X34.3811 Y103.5080
G01 X34.3079 Y103.4735
G01 X34.2317 Y103.4461
G01 X34.2176 Y103.4418
G01 X34.1390 Y103.4223
G01 X34.0590 Y103.4102
G01 X34.0443 Y103.4088
G00 Z2.0000
G00 X35.0640 Y104.8916
G01 F60.00
G01 Z-0.1200
G01 F120.00
G01 X35.0640 Y104.2184
G01 X35.0369 Y104.0473
G01 X34.9833 Y103.8826
G01 X34.9047 Y103.7282
G01 X34.8029 Y103.5881
G01 X34.6804 Y103.4656
G01 X34.5403 Y103.3638
G01 X34.3859 Y103.2851
G01 X34.2212 Y103.2316
G01 X34.0501 Y103.2045
G01 X33.8769 Y103.2045
G01 X33.7058 Y103.2316
G01 X33.5410 Y103.2851
G01 X33.3867 Y103.3638
G01 X33.2465 Y103.4656
G01 X33.1241 Y103.5881
G01 X33.0222 Y103.7282
G01 X32.9373 Y103.8949
G01 X32.9321 Y103.9043
G01 X32.9283 Y103.9103
G01 X32.9220 Y103.9189
G01 X32.9151 Y103.9271
G01 X32.8647 Y103.9806
G01 X32.8540 Y103.9909
G01 X32.8423 Y104.0001
G01 X32.8297 Y104.0080
G01 X32.8164 Y104.0147
G01 X32.8025 Y104.0201
G01 X32.7918 Y104.0232
G01 X32.7203 Y104.0408
G01 X32.7056 Y104.0433
G01 X32.6945 Y104.0442
G01 X32.6870 Y104.0444
G01 X32.6796 Y104.0441
G01 X32.6685 Y104.0431
G01 X32.6575 Y104.0412
G01 X32.6466 Y104.0386
G01 X32.5666 Y104.0113
G01 X32.5535 Y104.0054
G01 X32.5440 Y104.0001
G01 X32.5380 Y103.9962
G01 X32.5264 Y103.9876
G01 X32.5183 Y103.9805
G01 X32.5132 Y103.9754
G01 X32.4670 Y103.9222
G01 X32.4625 Y103.9165
G01 X32.4563 Y103.9075
G01 X32.4491 Y103.8949
G01 X32.3643 Y103.7285
G01 X32.2625 Y103.5884
G01 X32.1401 Y103.4660
G01 X32.0000 Y103.3642
G01 X31.8457 Y103.2856
G01 X31.8235 Y103.2784
G01 X31.8235 Y103.4996
G01 X31.8445 Y103.5096
G01 X31.8509 Y103.5130
G01 X31.9204 Y103.5547
G01 X31.9295 Y103.5609
G01 X31.9915 Y103.6070
G01 X32.0000 Y103.6141
G01 X32.0599 Y103.6686
G01 X32.1168 Y103.7312
G01 X32.1237 Y103.7399
G01 X32.1718 Y103.8050
G01 X32.2172 Y103.8807
G01 X32.2550 Y103.9606
G01 X32.2836 Y104.0402
G01 X32.2867 Y104.0508
G01 X32.3062 Y104.1294
G01 X32.3182 Y104.2095
G01 X32.3197 Y104.2241
G01 X32.3235 Y104.3050
G01 X32.3235 Y104.8050
G01 X32.3191 Y104.8932
G01 X32.3074 Y104.9733
G01 X32.3046 Y104.9878
G01 X32.2847 Y105.0663
G01 X32.2576 Y105.1425
G01 X32.2520 Y105.1561
G01 X32.2172 Y105.2293
G01 X32.1738 Y105.3019
G01 X32.1676 Y105.3110
G01 X32.1237 Y105.3701
G01 X32.1144 Y105.3815
G01 X32.0599 Y105.4414
G01 X31.9972 Y105.4983
G01 X31.9886 Y105.5052
G01 X31.9295 Y105.5491
G01 X31.9204 Y105.5553
G01 X31.8509 Y105.5970
G01 X31.8445 Y105.6004
G01 X31.8235 Y105.6104
G01 X31.8235 Y105.8316
G01 X31.8457 Y105.8244
G01 X32.0000 Y105.7458
G01 X32.1401 Y105.6440
G01 X32.2625 Y105.5216
G01 X32.3643 Y105.3815
G01 X32.4491 Y105.2151
G01 X32.4525 Y105.2088
G01 X32.4581 Y105.1997
G01 X32.4644 Y105.1911
G01 X32.4712 Y105.1829
G01 X32.5216 Y105.1294
G01 X32.5324 Y105.1191
G01 X32.5441 Y105.1099
G01 X32.5567 Y105.1020
G01 X32.5700 Y105.0953
G01 X32.5804 Y105.0911
G01 X32.5874 Y105.0888
G01 X32.6697 Y105.0684
G01 X32.6771 Y105.0672
G01 X32.6882 Y105.0660
G01 X32.7031 Y105.0657
G01 X32.7142 Y105.0665
G01 X32.7216 Y105.0674
G01 X32.7326 Y105.0696
G01 X32.7398 Y105.0714
G01 X32.8198 Y105.0987
G01 X32.8297 Y105.1030
G01 X32.8361 Y105.1063
G01 X32.8484 Y105.1138
G01 X32.8600 Y105.1224
G01 X32.8706 Y105.1320
G01 X32.8780 Y105.1400
G01 X32.9194 Y105.1878
G01 X32.9260 Y105.1965
G01 X32.9301 Y105.2025
G01 X32.9373 Y105.2151
G01 X33.0222 Y105.3818
G01 X33.1241 Y105.5219
G01 X33.2465 Y105.6444
G01 X33.3867 Y105.7462
G01 X33.5410 Y105.8249
G01 X33.7058 Y105.8784
G01 X33.8769 Y105.9055
G01 X34.0501 Y105.9055
G01 X34.2212 Y105.8784
G01 X34.3859 Y105.8249
G01 X34.5403 Y105.7462
G01 X34.6804 Y105.6444
G01 X34.8029 Y105.5219
G01 X34.9047 Y105.3818
G01 X34.9833 Y105.2274
G01 X35.0369 Y105.0627
G01 X35.0640 Y104.8916
G00 Z2.0000
G00 X35.0534 Y100.9550
G01 F60.00
G01 Z-0.1200
G01 F120.00
G01 X34.8502 Y100.9550
G01 X34.8468 Y100.9770
G01 X34.8454 Y100.9842
G01 X34.8257 Y101.0627
G01 X34.8224 Y101.0732
G01 X34.7976 Y101.1425
G01 X34.7935 Y101.1528
G01 X34.7605 Y101.2227
G01 X34.7536 Y101.2357
G01 X34.7118 Y101.3050
G01 X34.6637 Y101.3701
G01 X34.6544 Y101.3815
G01 X34.5999 Y101.4414
G01 X34.5400 Y101.4959
G01 X34.5315 Y101.5030
G01 X34.4695 Y101.5491
G01 X34.4604 Y101.5553
G01 X34.3909 Y101.5970
G01 X34.3845 Y101.6004
G01 X34.3635 Y101.6104
G01 X34.3635 Y101.8316
G01 X34.3857 Y101.8244
G01 X34.5400 Y101.7458
G01 X34.6801 Y101.6440
G01 X34.8025 Y101.5216
G01 X34.9043 Y101.3815
G01 X34.9829 Y101.2273
G01 X35.0364 Y101.0626
G01 X35.0534 Y100.9550
G00 Z2.0000
G00 X28.4809 Y100.7000
G01 F60.00
G01 Z-0.1200
G01 F120.00
G01 X28.2777 Y100.7000
G01 X28.2743 Y100.7220
G01 X28.2729 Y100.7292
G01 X28.2532 Y100.8077
G01 X28.2499 Y100.8182
G01 X28.2251 Y100.8875
G01 X28.2210 Y100.8978
G01 X28.1880 Y100.9677
G01 X28.1811 Y100.9807
G01 X28.1393 Y101.0500
G01 X28.0912 Y101.1151
G01 X28.0819 Y101.1265
G01 X28.0274 Y101.1864
G01 X27.9675 Y101.2409
G01 X27.9590 Y101.2480
G01 X27.8970 Y101.2941
G01 X27.8879 Y101.3003
G01 X27.8184 Y101.3420
G01 X27.8120 Y101.3454
G01 X27.7910 Y101.3554
G01 X27.7910 Y101.5766
G01 X27.8132 Y101.5694
G01 X27.9675 Y101.4908
G01 X28.1076 Y101.3890
G01 X28.2300 Y101.2666
G01 X28.3318 Y101.1265
G01 X28.4104 Y100.9723
G01 X28.4639 Y100.8076
G01 X28.4809 Y100.7000
G00 Z2.0000
G00 X28.4809 Y99.9000
G01 F60.00
G01 Z-0.1200
G01 F120.00
G01 X28.4639 Y99.7924
G01 X28.4104 Y99.6277
G01 X28.3318 Y99.4735
G01 X28.2300 Y99.3334
G01 X28.1076 Y99.2110
G01 X27.9675 Y99.1092
G01 X27.8132 Y99.0306
G01 X27.7910 Y99.0234
G01 X27.7910 Y99.2446
G01 X27.8120 Y99.2546
G01 X27.8184 Y99.2580
G01 X27.8879 Y99.2997
G01 X27.8970 Y99.3059
G01 X27.9590 Y99.3520
G01 X27.9675 Y99.3591
G01 X28.0274 Y99.4136
G01 X28.0819 Y99.4735
G01 X28.0912 Y99.4849
G01 X28.1393 Y99.5500
G01 X28.1811 Y99.6193
G01 X28.1880 Y99.6323
G01 X28.2210 Y99.7022
G01 X28.2251 Y99.7125
G01 X28.2499 Y99.7818
G01 X28.2532 Y99.7923
G01 X28.2729 Y99.8708
G01 X28.2743 Y99.8780
G01 X28.2777 Y99.9000
G01 X28.4809 Y99.9000
G00 Z2.0000
G00 X26.9910 Y99.2446
G01 F60.00
G01 Z-0.1200
G01 F120.00
G01 X26.9910 Y99.0234
G01 X26.9687 Y99.0306
G01 X26.8144 Y99.1092
G01 X26.6744 Y99.2110
G01 X26.5519 Y99.3334
G01 X26.4502 Y99.4735
G01 X26.3654 Y99.6399
G01 X26.3620 Y99.6461
G01 X26.3564 Y99.6552
G01 X26.3501 Y99.6639
G01 X26.3432 Y99.6721
G01 X26.2928 Y99.7256
G01 X26.2821 Y99.7359
G01 X26.2703 Y99.7451
G01 X26.2578 Y99.7530
G01 X26.2445 Y99.7597
G01 X26.2341 Y99.7639
G01 X26.2270 Y99.7662
G01 X26.1447 Y99.7866
G01 X26.1337 Y99.7883
G01 X26.1263 Y99.7890
G01 X26.1188 Y99.7893
G01 X26.1077 Y99.7891
G01 X26.0928 Y99.7876
G01 X26.0819 Y99.7854
G01 X26.0747 Y99.7836
G01 X26.0014 Y99.7588
G01 X25.9913 Y99.7549
G01 X25.9848 Y99.7520
G01 X25.9752 Y99.7469
G01 X25.9631 Y99.7392
G01 X25.9517 Y99.7303
G01 X25.9413 Y99.7204
G01 X25.8950 Y99.6672
G01 X25.8884 Y99.6585
G01 X25.8843 Y99.6525
G01 X25.8771 Y99.6398
G01 X25.7922 Y99.4732
G01 X25.6904 Y99.3331
G01 X25.5679 Y99.2106
G01 X25.4278 Y99.1088
G01 X25.2734 Y99.0301
G01 X25.1087 Y98.9766
G01 X24.9376 Y98.9495
G01 X24.7644 Y98.9495
G01 X24.5933 Y98.9766
G01 X24.4285 Y99.0301
G01 X24.2742 Y99.1088
G01 X24.1340 Y99.2106
G01 X24.0116 Y99.3331
G01 X23.9097 Y99.4732
G01 X23.8311 Y99.6276
G01 X23.7776 Y99.7923
G01 X23.7505 Y99.9634
G01 X23.7505 Y100.6366
G01 X23.7776 Y100.8077
G01 X23.8311 Y100.9724
G01 X23.9097 Y101.1268
G01 X24.0116 Y101.2669
G01 X24.1340 Y101.3894
G01 X24.2742 Y101.4912
G01 X24.4285 Y101.5699
G01 X24.5933 Y101.6234
G01 X24.7644 Y101.6505
G01 X24.9376 Y101.6505
G01 X25.1087 Y101.6234
G01 X25.2734 Y101.5699
G01 X25.4278 Y101.4912
G01 X25.5679 Y101.3894
G01 X25.6904 Y101.2669
G01 X25.7922 Y101.1268
G01 X25.8771 Y100.9601
G01 X25.8823 Y100.9507
G01 X25.8862 Y100.9447
G01 X25.8924 Y100.9361
G01 X25.8993 Y100.9279
G01 X25.9549 Y100.8692
G01 X25.9662 Y100.8594
G01 X25.9752 Y100.8528
G01 X25.9815 Y100.8488
G01 X25.9913 Y100.8435
G01 X25.9980 Y100.8403
G01 X26.0049 Y100.8374
G01 X26.0155 Y100.8338
G01 X26.0905 Y100.8150
G01 X26.1014 Y100.8128
G01 X26.1125 Y100.8113
G01 X26.1237 Y100.8107
G01 X26.1348 Y100.8109
G01 X26.1497 Y100.8124
G01 X26.1606 Y100.8146
G01 X26.1714 Y100.8175
G01 X26.2411 Y100.8412
G01 X26.2545 Y100.8465
G01 X26.2673 Y100.8531
G01 X26.2735 Y100.8568
G01 X26.2823 Y100.8629
G01 X26.2935 Y100.8721
G01 X26.3037 Y100.8823
G01 X26.3474 Y100.9328
G01 X26.3519 Y100.9385
G01 X26.3582 Y100.9475
G01 X26.3654 Y100.9601
G01 X26.4502 Y101.1265
G01 X26.5519 Y101.2666
G01 X26.6744 Y101.3890
G01 X26.8144 Y101.4908
G01 X26.9687 Y101.5694
G01 X26.9910 Y101.5766
G01 X26.9910 Y101.3554
G01 X26.9700 Y101.3454
G01 X26.9635 Y101.3420
G01 X26.8940 Y101.3003
G01 X26.8849 Y101.2941
G01 X26.8229 Y101.2480
G01 X26.8144 Y101.2409
G01 X26.7546 Y101.1864
G01 X26.6976 Y101.1238
G01 X26.6907 Y101.1151
G01 X26.6426 Y101.0500
G01 X26.5972 Y100.9743
G01 X26.5595 Y100.8944
G01 X26.5308 Y100.8148
G01 X26.5278 Y100.8042
G01 X26.5083 Y100.7256
G01 X26.4962 Y100.6455
G01 X26.4948 Y100.6309
G01 X26.4910 Y100.5500
G01 X26.4910 Y100.0500
G01 X26.4948 Y99.9691
G01 X26.4962 Y99.9545
G01 X26.5083 Y99.8744
G01 X26.5297 Y99.7887
G01 X26.5568 Y99.7125
G01 X26.5625 Y99.6989
G01 X26.5972 Y99.6257
G01 X26.6406 Y99.5531
G01 X26.6469 Y99.5440
G01 X26.6907 Y99.4849
G01 X26.7001 Y99.4735
G01 X26.7546 Y99.4136
G01 X26.8172 Y99.3567
G01 X26.8258 Y99.3498
G01 X26.8849 Y99.3059
G01 X26.8940 Y99.2997
G01 X26.9635 Y99.2580
G01 X26.9700 Y99.2546
G01 X26.9910 Y99.2446
G00 Z2.0000
G00 X24.9318 Y99.1538
G01 F60.00
G01 Z-0.1200
G01 F120.00
G01 X24.8510 Y99.1500
G01 X24.7628 Y99.1543
G01 X24.6754 Y99.1673
G01 X24.5897 Y99.1888
G01 X24.5066 Y99.2185
G01 X24.4267 Y99.2563
G01 X24.3510 Y99.3017
G01 X24.2800 Y99.3543
G01 X24.2146 Y99.4136
G01 X24.1553 Y99.4790
G01 X24.1026 Y99.5500
G01 X24.0572 Y99.6257
G01 X24.0195 Y99.7056
G01 X23.9897 Y99.7887
G01 X23.9683 Y99.8744
G01 X23.9562 Y99.9545
G01 X23.9549 Y99.9662
G01 X23.9510 Y100.0500
G01 X23.9510 Y100.5500
G01 X23.9553 Y100.6382
G01 X23.9683 Y100.7256
G01 X23.9897 Y100.8113
G01 X24.0195 Y100.8944
G01 X24.0572 Y100.9743
G01 X24.1026 Y101.0500
G01 X24.1507 Y101.1151
G01 X24.1601 Y101.1265
G01 X24.2146 Y101.1864
G01 X24.2744 Y101.2409
G01 X24.2858 Y101.2502
G01 X24.3510 Y101.2983
G01 X24.4203 Y101.3401
G01 X24.4333 Y101.3470
G01 X24.5066 Y101.3815
G01 X24.5827 Y101.4089
G01 X24.5968 Y101.4132
G01 X24.6754 Y101.4327
G01 X24.7554 Y101.4448
G01 X24.7664 Y101.4460
G01 X24.8510 Y101.4500
G01 X24.9392 Y101.4457
G01 X25.0265 Y101.4327
G01 X25.1122 Y101.4112
G01 X25.1954 Y101.3815
G01 X25.2752 Y101.3437
G01 X25.3510 Y101.2983
G01 X25.4219 Y101.2457
G01 X25.4874 Y101.1864
G01 X25.5467 Y101.1210
G01 X25.5993 Y101.0500
G01 X25.6447 Y100.9743
G01 X25.6825 Y100.8944
G01 X25.7122 Y100.8113
G01 X25.7337 Y100.7256
G01 X25.7457 Y100.6455
G01 X25.7469 Y100.6345
G01 X25.7510 Y100.5500
G01 X25.7510 Y100.0500
G01 X25.7466 Y99.9618
G01 X25.7337 Y99.8744
G01 X25.7122 Y99.7887
G01 X25.6825 Y99.7056
G01 X25.6480 Y99.6323
G01 X25.6429 Y99.6225
G01 X25.6032 Y99.5562
G01 X25.5951 Y99.5440
G01 X25.5467 Y99.4790
G01 X25.4924 Y99.4189
G01 X25.4820 Y99.4085
G01 X25.4219 Y99.3543
G01 X25.3510 Y99.3017
G01 X25.2816 Y99.2599
G01 X25.2686 Y99.2530
G01 X25.1954 Y99.2185
G01 X25.1192 Y99.1911
G01 X25.1051 Y99.1868
G01 X25.0265 Y99.1673
G01 X24.9465 Y99.1552
G01 X24.9318 Y99.1538
G00 Z2.0000
G00 X26.9415 Y95.0190
G01 F60.00
G01 Z-0.1200
G01 F120.00
G01 X26.9415 Y94.8810
G01 X26.9145 Y94.7457
G01 X26.8617 Y94.6182
G01 X26.7851 Y94.5035
G01 X26.6862 Y94.4046
G01 X26.6564 Y94.3791
G01 X26.6462 Y94.3694
G01 X26.5183 Y94.2765
G01 X26.3742 Y94.2123
G01 X26.2198 Y94.1795
G01 X26.0621 Y94.1795
G01 X25.9078 Y94.2123
G01 X25.8710 Y94.2285
G01 X25.8611 Y94.2320
G01 X25.8510 Y94.2347
G01 X25.7937 Y94.2469
G01 X25.7834 Y94.2485
G01 X25.7695 Y94.2495
G01 X22.5270 Y94.2495
G01 X22.3916 Y94.2764
G01 X22.2642 Y94.3292
G01 X22.2529 Y94.3365
G01 X22.2232 Y94.3526
G01 X22.1137 Y94.4015
G01 X21.9860 Y94.4942
G01 X21.8805 Y94.6114
G01 X21.8016 Y94.7481
G01 X21.7528 Y94.8981
G01 X21.7363 Y95.0550
G01 X21.7528 Y95.2119
G01 X21.8016 Y95.3619
G01 X21.8805 Y95.4986
G01 X21.9860 Y95.6158
G01 X22.1136 Y95.7085
G01 X22.2578 Y95.7727
G01 X22.4121 Y95.8055
G01 X22.5698 Y95.8055
G01 X22.7242 Y95.7727
G01 X22.8683 Y95.7085
G01 X22.8790 Y95.7008
G01 X22.8881 Y95.6950
G01 X22.8975 Y95.6899
G01 X22.9072 Y95.6855
G01 X22.9866 Y95.6572
G01 X22.9936 Y95.6552
G01 X23.0042 Y95.6530
G01 X23.0150 Y95.6515
G01 X23.0258 Y95.6508
G01 X23.0372 Y95.6505
G01 X25.8921 Y95.6505
G01 X25.9078 Y95.6513
G01 X25.9336 Y95.6540
G01 X25.9453 Y95.6557
G01 X26.0621 Y95.6805
G01 X26.2198 Y95.6805
G01 X26.3742 Y95.6477
G01 X26.3897 Y95.6408
G01 X26.3991 Y95.6372
G01 X26.4317 Y95.6269
G01 X26.4453 Y95.6236
G01 X26.5728 Y95.5708
G01 X26.6875 Y95.4941
G01 X26.7851 Y95.3965
G01 X26.8617 Y95.2818
G01 X26.9145 Y95.1543
G01 X26.9415 Y95.0190
G00 Z2.0000
G00 X26.7173 Y94.7978
G01 F60.00
G01 Z-0.1200
G01 F120.00
G01 X26.7031 Y94.7586
G01 X26.6821 Y94.7142
G01 X26.6568 Y94.6721
G01 X26.6299 Y94.6356
G01 X26.6228 Y94.6271
G01 X26.5997 Y94.6017
G01 X26.5920 Y94.5938
G01 X26.5583 Y94.5634
G01 X26.5332 Y94.5445
G01 X26.5245 Y94.5360
G01 X26.4955 Y94.5097
G01 X26.4870 Y94.5025
G01 X26.4465 Y94.4727
G01 X26.4066 Y94.4486
G01 X26.3937 Y94.4416
G01 X26.3514 Y94.4219
G01 X26.3006 Y94.4037
G01 X26.2555 Y94.3922
G01 X26.2410 Y94.3893
G01 X26.2022 Y94.3835
G01 X26.1912 Y94.3823
G01 X26.1410 Y94.3800
G01 X26.0944 Y94.3821
G01 X26.0798 Y94.3835
G01 X26.0409 Y94.3893
G01 X26.0301 Y94.3913
G01 X25.9813 Y94.4037
G01 X25.9339 Y94.4205
G01 X25.9238 Y94.4248
G01 X25.8883 Y94.4416
G01 X25.8732 Y94.4498
G01 X22.5960 Y94.4498
G01 X22.5506 Y94.4519
G01 X22.5396 Y94.4531
G01 X22.5056 Y94.4582
G01 X22.4912 Y94.4610
G01 X22.4514 Y94.4712
G01 X22.4114 Y94.4852
G01 X22.3978 Y94.4909
G01 X22.3602 Y94.5089
G01 X22.3211 Y94.5321
G01 X22.2805 Y94.5469
G01 X22.2383 Y94.5666
G01 X22.2253 Y94.5736
G01 X22.1885 Y94.5957
G01 X22.1794 Y94.6019
G01 X22.1421 Y94.6298
G01 X22.1074 Y94.6610
G01 X22.0995 Y94.6687
G01 X22.0658 Y94.7061
G01 X22.0337 Y94.7494
G01 X22.0059 Y94.7957
G01 X21.9858 Y94.8378
G01 X21.9802 Y94.8514
G01 X21.9646 Y94.8953
G01 X21.9531 Y94.9405
G01 X21.9509 Y94.9513
G01 X21.9445 Y94.9938
G01 X21.9431 Y95.0084
G01 X21.9410 Y95.0550
G01 X21.9433 Y95.1052
G01 X21.9445 Y95.1162
G01 X21.9515 Y95.1623
G01 X21.9627 Y95.2076
G01 X21.9658 Y95.2182
G01 X21.9802 Y95.2586
G01 X21.9858 Y95.2722
G01 X22.0059 Y95.3143
G01 X22.0337 Y95.3606
G01 X22.0658 Y95.4039
G01 X22.1021 Y95.4439
G01 X22.1421 Y95.4802
G01 X22.1794 Y95.5081
G01 X22.1885 Y95.5143
G01 X22.2253 Y95.5364
G01 X22.2383 Y95.5434
G01 X22.2805 Y95.5631
G01 X22.3313 Y95.5813
