(G-CODE GENERATED BY FLATCAM v8.994 - www.flatcam.org - Version Date: 2020/11/7)

(Name: Beecounter-F_Cu.gbr_iso_combined_cnc)
(Type: G-code from Geometry)
(Units: MM)

(Created on Saturday, 25 January 2025 at 13:36)

(This preprocessor is the default preprocessor used by FlatCAM.)
(It is made to work with MACH3 compatible motion controllers.)

(TOOL DIAMETER: 0.4 mm)
(Feedrate_XY: 100.0 mm/min)
(Feedrate_Z: 60.0 mm/min)
(Feedrate rapids 1500.0 mm/min)

(Z_Cut: -0.1 mm)
(Z_Move: 2.0 mm)
(Z Start: None mm)
(Z End: 15.0 mm)
(X,Y End: None mm)
(Steps per circle: 64)
(Preprocessor Geometry: default)

(X range:   -0.3000 ...   55.3100  mm)
(Y range:   -0.3000 ...  160.3000  mm)

(Spindle Speed: 0.0 RPM)
G21
G90
G94

G01 F100.00

M5
G00 Z15.0000
G00 X0.0000 Y0.0000
T1
M6    
(MSG, Change to Tool Dia = 0.4000)
M0
G00 Z15.0000

M03
G01 F100.00
G00 X3.3370 Y3.0532
G01 F60.00
G01 Z-0.1000
G01 F100.00
G01 X3.3370 Y2.8368
G01 X3.3650 Y2.6238
G01 X3.4212 Y2.4133
G01 X3.5040 Y2.2134
G01 X3.6122 Y2.0261
G01 X3.7439 Y1.8544
G01 X3.8969 Y1.7014
G01 X3.9314 Y1.6750
G01 X4.0686 Y1.5697
G01 X4.2559 Y1.4615
G01 X4.4558 Y1.3787
G01 X4.6648 Y1.3227
G01 X4.8793 Y1.2945
G01 X5.0957 Y1.2945
G01 X5.3102 Y1.3227
G01 X5.5192 Y1.3787
G01 X5.7191 Y1.4615
G01 X5.9064 Y1.5697
G01 X6.0781 Y1.7014
G01 X6.2311 Y1.8544
G01 X6.3628 Y2.0261
G01 X6.4710 Y2.2134
G01 X6.5538 Y2.4133
G01 X6.6098 Y2.6223
G01 X6.6380 Y2.8368
G01 X6.6380 Y3.0532
G01 X6.6098 Y3.2677
G01 X6.5538 Y3.4767
G01 X6.4710 Y3.6766
G01 X6.3628 Y3.8639
G01 X6.2311 Y4.0356
G01 X6.0781 Y4.1886
G01 X5.9064 Y4.3203
G01 X5.7191 Y4.4285
G01 X5.5192 Y4.5113
G01 X5.3102 Y4.5673
G01 X5.0957 Y4.5955
G01 X4.8793 Y4.5955
G01 X4.6648 Y4.5673
G01 X4.4558 Y4.5113
G01 X4.2559 Y4.4285
G01 X4.0686 Y4.3203
G01 X3.8969 Y4.1886
G01 X3.7439 Y4.0356
G01 X3.6122 Y3.8639
G01 X3.5040 Y3.6766
G01 X3.4212 Y3.4767
G01 X3.3652 Y3.2677
G01 X3.3370 Y3.0532
G00 Z2.0000
G00 X3.4560 Y10.3898
G01 F60.00
G01 Z-0.1000
G01 F100.00
G01 X3.4598 Y10.3706
G01 X3.4827 Y10.2802
G01 X3.5174 Y10.1832
G01 X3.5615 Y10.0900
G01 X3.6145 Y10.0017
G01 X3.6758 Y9.9189
G01 X3.7450 Y9.8425
G01 X3.8214 Y9.7733
G01 X3.9042 Y9.7120
G01 X3.9925 Y9.6590
G01 X4.0857 Y9.6149
G01 X4.1827 Y9.5802
G01 X4.2822 Y9.5553
G01 X4.2923 Y9.5535
G01 X4.3846 Y9.5401
G01 X4.4875 Y9.5350
G01 X4.5904 Y9.5401
G01 X4.6923 Y9.5552
G01 X4.7923 Y9.5802
G01 X4.8893 Y9.6149
G01 X4.9825 Y9.6590
G01 X5.0708 Y9.7120
G01 X5.1536 Y9.7733
G01 X5.2300 Y9.8425
G01 X5.2992 Y9.9189
G01 X5.3605 Y10.0017
G01 X5.4135 Y10.0900
G01 X5.4576 Y10.1832
G01 X5.4923 Y10.2802
G01 X5.5172 Y10.3797
G01 X5.5190 Y10.3898
G01 X5.5324 Y10.4821
G01 X5.5375 Y10.5850
G01 X5.5324 Y10.6879
G01 X5.5173 Y10.7898
G01 X5.4924 Y10.8894
G01 X5.4892 Y10.8991
G01 X5.4576 Y10.9868
G01 X5.4135 Y11.0800
G01 X5.3605 Y11.1683
G01 X5.2992 Y11.2511
G01 X5.2300 Y11.3275
G01 X5.1536 Y11.3967
G01 X5.0708 Y11.4580
G01 X4.9825 Y11.5110
G01 X4.8893 Y11.5551
G01 X4.7923 Y11.5898
G01 X4.6923 Y11.6148
G01 X4.5904 Y11.6299
G01 X4.4875 Y11.6350
G01 X4.3846 Y11.6299
G01 X4.2827 Y11.6148
G01 X4.1831 Y11.5899
G01 X4.1734 Y11.5867
G01 X4.0857 Y11.5551
G01 X3.9925 Y11.5110
G01 X3.9042 Y11.4580
G01 X3.8214 Y11.3967
G01 X3.7450 Y11.3275
G01 X3.6758 Y11.2511
G01 X3.6145 Y11.1683
G01 X3.5615 Y11.0800
G01 X3.5174 Y10.9868
G01 X3.4827 Y10.8898
G01 X3.4577 Y10.7898
G01 X3.4426 Y10.6879
G01 X3.4375 Y10.5850
G01 X3.4426 Y10.4821
G01 X3.4560 Y10.3898
G00 Z2.0000
G00 X3.4285 Y13.5750
G01 F60.00
G01 Z-0.1000
G01 F100.00
G01 X3.5399 Y13.5750
G01 X3.5571 Y13.6112
G01 X3.5638 Y13.6243
G01 X3.6092 Y13.7001
G01 X3.6172 Y13.7124
G01 X3.6758 Y13.7911
G01 X3.7450 Y13.8675
G01 X3.8214 Y13.9367
G01 X3.9001 Y13.9953
G01 X3.9124 Y14.0033
G01 X3.9882 Y14.0487
G01 X4.0013 Y14.0554
G01 X4.0375 Y14.0726
G01 X4.0375 Y14.1840
G01 X3.9103 Y14.1247
G01 X3.7455 Y14.0093
G01 X3.6032 Y13.8670
G01 X3.4878 Y13.7022
G01 X3.4285 Y13.5750
G00 Z2.0000
G00 X4.9375 Y14.0726
G01 F60.00
G01 Z-0.1000
G01 F100.00
G01 X4.9421 Y14.0704
G01 X5.0181 Y14.1465
G01 X4.9375 Y14.1840
G01 X4.9375 Y14.0726
G00 Z2.0000
G00 X3.3370 Y18.0532
G01 F60.00
G01 Z-0.1000
G01 F100.00
G01 X3.3370 Y17.8368
G01 X3.3652 Y17.6223
G01 X3.4212 Y17.4133
G01 X3.5040 Y17.2134
G01 X3.6122 Y17.0261
G01 X3.7439 Y16.8544
G01 X3.8969 Y16.7014
G01 X3.9611 Y16.6522
G01 X4.0686 Y16.5697
G01 X4.2559 Y16.4615
G01 X4.4558 Y16.3787
G01 X4.6648 Y16.3227
G01 X4.8793 Y16.2945
G01 X5.0957 Y16.2945
G01 X5.3102 Y16.3227
G01 X5.5192 Y16.3787
G01 X5.7191 Y16.4615
G01 X5.9064 Y16.5697
G01 X6.0781 Y16.7014
G01 X6.2311 Y16.8544
G01 X6.3628 Y17.0261
G01 X6.4710 Y17.2134
G01 X6.5538 Y17.4133
G01 X6.6098 Y17.6223
G01 X6.6380 Y17.8368
G01 X6.6380 Y18.0532
G01 X6.6098 Y18.2677
G01 X6.5538 Y18.4767
G01 X6.4710 Y18.6766
G01 X6.3628 Y18.8639
G01 X6.2311 Y19.0356
G01 X6.0781 Y19.1886
G01 X5.9064 Y19.3203
G01 X5.7191 Y19.4285
G01 X5.5192 Y19.5113
G01 X5.3102 Y19.5673
G01 X5.0957 Y19.5955
G01 X4.8793 Y19.5955
G01 X4.6648 Y19.5673
G01 X4.4558 Y19.5113
G01 X4.2559 Y19.4285
G01 X4.1609 Y19.3736
G01 X4.0686 Y19.3203
G01 X3.8969 Y19.1886
G01 X3.7439 Y19.0356
G01 X3.6122 Y18.8639
G01 X3.5040 Y18.6766
G01 X3.4212 Y18.4767
G01 X3.3652 Y18.2677
G01 X3.3370 Y18.0532
G00 Z2.0000
G00 X3.3370 Y23.0532
G01 F60.00
G01 Z-0.1000
G01 F100.00
G01 X3.3370 Y22.8368
G01 X3.3650 Y22.6238
G01 X3.4212 Y22.4133
G01 X3.5040 Y22.2134
G01 X3.6122 Y22.0261
G01 X3.7439 Y21.8544
G01 X3.8969 Y21.7014
G01 X3.9314 Y21.6750
G01 X4.0686 Y21.5697
G01 X4.2559 Y21.4615
G01 X4.4558 Y21.3787
G01 X4.6648 Y21.3227
G01 X4.8793 Y21.2945
G01 X5.0957 Y21.2945
G01 X5.3102 Y21.3227
G01 X5.5192 Y21.3787
G01 X5.7191 Y21.4615
G01 X5.9064 Y21.5697
G01 X6.0781 Y21.7014
G01 X6.2311 Y21.8544
G01 X6.3628 Y22.0261
G01 X6.4710 Y22.2134
G01 X6.5538 Y22.4133
G01 X6.6098 Y22.6223
G01 X6.6380 Y22.8368
G01 X6.6380 Y23.0532
G01 X6.6098 Y23.2677
G01 X6.5538 Y23.4767
G01 X6.4710 Y23.6766
G01 X6.3628 Y23.8639
G01 X6.2311 Y24.0356
G01 X6.0781 Y24.1886
G01 X5.9064 Y24.3203
G01 X5.7191 Y24.4285
G01 X5.5192 Y24.5113
G01 X5.3102 Y24.5673
G01 X5.0957 Y24.5955
G01 X4.8793 Y24.5955
G01 X4.6648 Y24.5673
G01 X4.4558 Y24.5113
G01 X4.2559 Y24.4285
G01 X4.0686 Y24.3203
G01 X3.8969 Y24.1886
G01 X3.7439 Y24.0356
G01 X3.6122 Y23.8639
G01 X3.5040 Y23.6766
G01 X3.4212 Y23.4767
G01 X3.3652 Y23.2677
G01 X3.3370 Y23.0532
G00 Z2.0000
G00 X3.4560 Y30.3898
G01 F60.00
G01 Z-0.1000
G01 F100.00
G01 X3.4598 Y30.3706
G01 X3.4827 Y30.2802
G01 X3.5174 Y30.1832
G01 X3.5615 Y30.0900
G01 X3.6145 Y30.0017
G01 X3.6758 Y29.9189
G01 X3.7450 Y29.8425
G01 X3.8214 Y29.7733
G01 X3.9042 Y29.7120
G01 X3.9925 Y29.6590
G01 X4.0857 Y29.6149
G01 X4.1827 Y29.5802
G01 X4.2822 Y29.5553
G01 X4.2923 Y29.5535
G01 X4.3846 Y29.5401
G01 X4.4875 Y29.5350
G01 X4.5904 Y29.5401
G01 X4.6923 Y29.5552
G01 X4.7923 Y29.5802
G01 X4.8893 Y29.6149
G01 X4.9825 Y29.6590
G01 X5.0708 Y29.7120
G01 X5.1536 Y29.7733
G01 X5.2300 Y29.8425
G01 X5.2992 Y29.9189
G01 X5.3605 Y30.0017
G01 X5.4135 Y30.0900
G01 X5.4576 Y30.1832
G01 X5.4923 Y30.2802
G01 X5.5172 Y30.3797
G01 X5.5190 Y30.3898
G01 X5.5324 Y30.4821
G01 X5.5375 Y30.5850
G01 X5.5324 Y30.6879
G01 X5.5173 Y30.7898
G01 X5.4924 Y30.8894
G01 X5.4892 Y30.8991
G01 X5.4576 Y30.9868
G01 X5.4135 Y31.0800
G01 X5.3605 Y31.1683
G01 X5.2992 Y31.2511
G01 X5.2300 Y31.3275
G01 X5.1536 Y31.3967
G01 X5.0708 Y31.4580
G01 X4.9825 Y31.5110
G01 X4.8893 Y31.5551
G01 X4.7923 Y31.5898
G01 X4.6923 Y31.6148
G01 X4.5904 Y31.6299
G01 X4.4875 Y31.6350
G01 X4.3846 Y31.6299
G01 X4.2827 Y31.6148
G01 X4.1827 Y31.5898
G01 X4.0857 Y31.5551
G01 X3.9925 Y31.5110
G01 X3.9042 Y31.4580
G01 X3.8214 Y31.3967
G01 X3.7450 Y31.3275
G01 X3.6758 Y31.2511
G01 X3.6145 Y31.1683
G01 X3.5615 Y31.0800
G01 X3.5174 Y30.9868
G01 X3.4827 Y30.8898
G01 X3.4577 Y30.7898
G01 X3.4426 Y30.6879
G01 X3.4375 Y30.5850
G01 X3.4426 Y30.4821
G01 X3.4560 Y30.3898
G00 Z2.0000
G00 X3.4285 Y33.5750
G01 F60.00
G01 Z-0.1000
G01 F100.00
G01 X3.5399 Y33.5750
G01 X3.5571 Y33.6112
G01 X3.5638 Y33.6243
G01 X3.6092 Y33.7001
G01 X3.6172 Y33.7124
G01 X3.6758 Y33.7911
G01 X3.7450 Y33.8675
G01 X3.8214 Y33.9367
G01 X3.9001 Y33.9953
G01 X3.9124 Y34.0033
G01 X3.9882 Y34.0487
G01 X4.0013 Y34.0554
G01 X4.0375 Y34.0726
G01 X4.0375 Y34.1840
G01 X3.9103 Y34.1247
G01 X3.7455 Y34.0093
G01 X3.6032 Y33.8670
G01 X3.4878 Y33.7022
G01 X3.4285 Y33.5750
G00 Z2.0000
G00 X4.9375 Y34.0726
G01 F60.00
G01 Z-0.1000
G01 F100.00
G01 X4.9421 Y34.0704
G01 X5.0181 Y34.1465
G01 X4.9375 Y34.1840
G01 X4.9375 Y34.0726
G00 Z2.0000
G00 X3.3370 Y38.0532
G01 F60.00
G01 Z-0.1000
G01 F100.00
G01 X3.3370 Y37.8368
G01 X3.3652 Y37.6223
G01 X3.4212 Y37.4133
G01 X3.5040 Y37.2134
G01 X3.5196 Y37.1866
G01 X3.6122 Y37.0261
G01 X3.7439 Y36.8544
G01 X3.8969 Y36.7014
G01 X4.0686 Y36.5697
G01 X4.2559 Y36.4615
G01 X4.4558 Y36.3787
G01 X4.6648 Y36.3227
G01 X4.8793 Y36.2945
G01 X5.0957 Y36.2945
G01 X5.3102 Y36.3227
G01 X5.5192 Y36.3787
G01 X5.7191 Y36.4615
G01 X5.9064 Y36.5697
G01 X6.0781 Y36.7014
G01 X6.2311 Y36.8544
G01 X6.3628 Y37.0261
G01 X6.4710 Y37.2134
G01 X6.5538 Y37.4133
G01 X6.6098 Y37.6223
G01 X6.6380 Y37.8368
G01 X6.6380 Y38.0532
G01 X6.6098 Y38.2677
G01 X6.5538 Y38.4767
G01 X6.4710 Y38.6766
G01 X6.3628 Y38.8639
G01 X6.2311 Y39.0356
G01 X6.0781 Y39.1886
G01 X5.9064 Y39.3203
G01 X5.7191 Y39.4285
G01 X5.5192 Y39.5113
G01 X5.3102 Y39.5673
G01 X5.0957 Y39.5955
G01 X4.8793 Y39.5955
G01 X4.6648 Y39.5673
G01 X4.4558 Y39.5113
G01 X4.2559 Y39.4285
G01 X4.1609 Y39.3736
G01 X4.0686 Y39.3203
G01 X3.8969 Y39.1886
G01 X3.7439 Y39.0356
G01 X3.6122 Y38.8639
G01 X3.5040 Y38.6766
G01 X3.4212 Y38.4767
G01 X3.3652 Y38.2677
G01 X3.3370 Y38.0532
G00 Z2.0000
G00 X3.3370 Y43.0532
G01 F60.00
G01 Z-0.1000
G01 F100.00
G01 X3.3370 Y42.8368
G01 X3.3650 Y42.6238
G01 X3.4212 Y42.4133
G01 X3.5040 Y42.2134
G01 X3.6122 Y42.0261
G01 X3.7439 Y41.8544
G01 X3.8969 Y41.7014
G01 X3.9314 Y41.6750
G01 X4.0686 Y41.5697
G01 X4.2559 Y41.4615
G01 X4.4558 Y41.3787
G01 X4.6648 Y41.3227
G01 X4.8793 Y41.2945
G01 X5.0957 Y41.2945
G01 X5.3102 Y41.3227
G01 X5.5192 Y41.3787
G01 X5.7191 Y41.4615
G01 X5.9064 Y41.5697
G01 X6.0781 Y41.7014
G01 X6.2311 Y41.8544
G01 X6.3628 Y42.0261
G01 X6.4710 Y42.2134
G01 X6.5538 Y42.4133
G01 X6.6098 Y42.6223
G01 X6.6380 Y42.8368
G01 X6.6380 Y43.0532
G01 X6.6098 Y43.2677
G01 X6.5538 Y43.4767
G01 X6.4710 Y43.6766
G01 X6.3628 Y43.8639
G01 X6.2311 Y44.0356
G01 X6.0781 Y44.1886
G01 X5.9064 Y44.3203
G01 X5.7191 Y44.4285
G01 X5.5192 Y44.5113
G01 X5.3102 Y44.5673
G01 X5.0957 Y44.5955
G01 X4.8793 Y44.5955
G01 X4.6648 Y44.5673
G01 X4.4558 Y44.5113
G01 X4.2559 Y44.4285
G01 X4.0686 Y44.3203
G01 X3.8969 Y44.1886
G01 X3.7439 Y44.0356
G01 X3.6122 Y43.8639
G01 X3.5040 Y43.6766
G01 X3.4212 Y43.4767
G01 X3.3652 Y43.2677
G01 X3.3370 Y43.0532
G00 Z2.0000
G00 X3.4560 Y50.3898
G01 F60.00
G01 Z-0.1000
G01 F100.00
G01 X3.4598 Y50.3706
G01 X3.4827 Y50.2802
G01 X3.5174 Y50.1832
G01 X3.5615 Y50.0900
G01 X3.6145 Y50.0017
G01 X3.6758 Y49.9189
G01 X3.7450 Y49.8425
G01 X3.8214 Y49.7733
G01 X3.9042 Y49.7120
G01 X3.9925 Y49.6590
G01 X4.0857 Y49.6149
G01 X4.1827 Y49.5802
G01 X4.2822 Y49.5553
G01 X4.2923 Y49.5535
G01 X4.3846 Y49.5401
G01 X4.4875 Y49.5350
G01 X4.5904 Y49.5401
G01 X4.6923 Y49.5552
G01 X4.7923 Y49.5802
G01 X4.8893 Y49.6149
G01 X4.9825 Y49.6590
G01 X5.0708 Y49.7120
G01 X5.1536 Y49.7733
G01 X5.2300 Y49.8425
G01 X5.2992 Y49.9189
G01 X5.3605 Y50.0017
G01 X5.4135 Y50.0900
G01 X5.4576 Y50.1832
G01 X5.4923 Y50.2802
G01 X5.5172 Y50.3797
G01 X5.5190 Y50.3898
G01 X5.5324 Y50.4821
G01 X5.5375 Y50.5850
G01 X5.5324 Y50.6879
G01 X5.5173 Y50.7898
G01 X5.4924 Y50.8894
G01 X5.4892 Y50.8991
G01 X5.4576 Y50.9868
G01 X5.4135 Y51.0800
G01 X5.3605 Y51.1683
G01 X5.2992 Y51.2511
G01 X5.2300 Y51.3275
G01 X5.1536 Y51.3967
G01 X5.0708 Y51.4580
G01 X4.9825 Y51.5110
G01 X4.8893 Y51.5551
G01 X4.7923 Y51.5898
G01 X4.6923 Y51.6148
G01 X4.5904 Y51.6299
G01 X4.4875 Y51.6350
G01 X4.3846 Y51.6299
G01 X4.2827 Y51.6148
G01 X4.1827 Y51.5898
G01 X4.0857 Y51.5551
G01 X3.9925 Y51.5110
G01 X3.9042 Y51.4580
G01 X3.8214 Y51.3967
G01 X3.7450 Y51.3275
G01 X3.6758 Y51.2511
G01 X3.6145 Y51.1683
G01 X3.5615 Y51.0800
G01 X3.5174 Y50.9868
G01 X3.4827 Y50.8898
G01 X3.4577 Y50.7898
G01 X3.4426 Y50.6879
G01 X3.4375 Y50.5850
G01 X3.4426 Y50.4821
G01 X3.4560 Y50.3898
G00 Z2.0000
G00 X3.4285 Y53.5750
G01 F60.00
G01 Z-0.1000
G01 F100.00
G01 X3.5399 Y53.5750
G01 X3.5571 Y53.6112
G01 X3.5638 Y53.6243
G01 X3.6092 Y53.7001
G01 X3.6172 Y53.7124
G01 X3.6758 Y53.7911
G01 X3.7450 Y53.8675
G01 X3.8214 Y53.9367
G01 X3.9001 Y53.9953
G01 X3.9124 Y54.0033
G01 X3.9882 Y54.0487
G01 X4.0013 Y54.0554
G01 X4.0375 Y54.0726
G01 X4.0375 Y54.1840
G01 X3.9103 Y54.1247
G01 X3.7455 Y54.0093
G01 X3.6032 Y53.8670
G01 X3.4878 Y53.7022
G01 X3.4285 Y53.5750
G00 Z2.0000
G00 X4.9375 Y54.0726
G01 F60.00
G01 Z-0.1000
G01 F100.00
G01 X4.9421 Y54.0704
G01 X5.0181 Y54.1465
G01 X4.9375 Y54.1840
G01 X4.9375 Y54.0726
G00 Z2.0000
G00 X3.3370 Y58.0532
G01 F60.00
G01 Z-0.1000
G01 F100.00
G01 X3.3370 Y57.8368
G01 X3.3652 Y57.6223
G01 X3.4212 Y57.4133
G01 X3.5040 Y57.2134
G01 X3.5196 Y57.1866
G01 X3.6122 Y57.0261
G01 X3.7439 Y56.8544
G01 X3.8969 Y56.7014
G01 X4.0686 Y56.5697
G01 X4.2559 Y56.4615
G01 X4.4558 Y56.3787
G01 X4.6648 Y56.3227
G01 X4.8793 Y56.2945
G01 X5.0957 Y56.2945
G01 X5.3102 Y56.3227
G01 X5.5192 Y56.3787
G01 X5.7191 Y56.4615
G01 X5.9064 Y56.5697
G01 X6.0781 Y56.7014
G01 X6.2311 Y56.8544
G01 X6.3628 Y57.0261
G01 X6.4710 Y57.2134
G01 X6.5538 Y57.4133
G01 X6.6098 Y57.6223
G01 X6.6380 Y57.8368
G01 X6.6380 Y58.0532
G01 X6.6098 Y58.2677
G01 X6.5538 Y58.4767
G01 X6.4710 Y58.6766
G01 X6.3628 Y58.8639
G01 X6.2311 Y59.0356
G01 X6.0781 Y59.1886
G01 X5.9064 Y59.3203
G01 X5.7191 Y59.4285
G01 X5.5192 Y59.5113
G01 X5.3102 Y59.5673
G01 X5.0957 Y59.5955
G01 X4.8793 Y59.5955
G01 X4.6648 Y59.5673
G01 X4.4558 Y59.5113
G01 X4.2559 Y59.4285
G01 X4.1609 Y59.3736
G01 X4.0686 Y59.3203
G01 X3.8969 Y59.1886
G01 X3.7439 Y59.0356
G01 X3.6122 Y58.8639
G01 X3.5040 Y58.6766
G01 X3.4212 Y58.4767
G01 X3.3652 Y58.2677
G01 X3.3370 Y58.0532
G00 Z2.0000
G00 X3.3370 Y63.0532
G01 F60.00
G01 Z-0.1000
G01 F100.00
G01 X3.3370 Y62.8368
G01 X3.3650 Y62.6238
G01 X3.4212 Y62.4133
G01 X3.5040 Y62.2134
G01 X3.6122 Y62.0261
G01 X3.7439 Y61.8544
G01 X3.8969 Y61.7014
G01 X3.9314 Y61.6750
G01 X4.0686 Y61.5697
G01 X4.2559 Y61.4615
G01 X4.4558 Y61.3787
G01 X4.6648 Y61.3227
G01 X4.8793 Y61.2945
G01 X5.0957 Y61.2945
G01 X5.3102 Y61.3227
G01 X5.5192 Y61.3787
G01 X5.7191 Y61.4615
G01 X5.9064 Y61.5697
G01 X6.0781 Y61.7014
G01 X6.2311 Y61.8544
G01 X6.3628 Y62.0261
G01 X6.4710 Y62.2134
G01 X6.5538 Y62.4133
G01 X6.6098 Y62.6223
G01 X6.6380 Y62.8368
G01 X6.6380 Y63.0532
G01 X6.6300 Y63.1140
G01 X6.6098 Y63.2677
G01 X6.5538 Y63.4767
G01 X6.4710 Y63.6766
G01 X6.3628 Y63.8639
G01 X6.2311 Y64.0356
G01 X6.0781 Y64.1886
G01 X5.9064 Y64.3203
G01 X5.7191 Y64.4285
G01 X5.5192 Y64.5113
G01 X5.3102 Y64.5673
G01 X5.0957 Y64.5955
G01 X4.8793 Y64.5955
G01 X4.6648 Y64.5673
G01 X4.4558 Y64.5113
G01 X4.2559 Y64.4285
G01 X4.0686 Y64.3203
G01 X3.8969 Y64.1886
G01 X3.7439 Y64.0356
G01 X3.6122 Y63.8639
G01 X3.5040 Y63.6766
G01 X3.4212 Y63.4767
G01 X3.3652 Y63.2677
G01 X3.3370 Y63.0532
G00 Z2.0000
G00 X3.4560 Y70.3898
G01 F60.00
G01 Z-0.1000
G01 F100.00
G01 X3.4598 Y70.3706
G01 X3.4827 Y70.2802
G01 X3.5174 Y70.1832
G01 X3.5615 Y70.0900
G01 X3.6145 Y70.0017
G01 X3.6758 Y69.9189
G01 X3.7450 Y69.8425
G01 X3.8214 Y69.7733
G01 X3.9042 Y69.7120
G01 X3.9925 Y69.6590
G01 X4.0857 Y69.6149
G01 X4.1827 Y69.5802
G01 X4.2822 Y69.5553
G01 X4.2923 Y69.5535
G01 X4.3846 Y69.5401
G01 X4.4875 Y69.5350
G01 X4.5904 Y69.5401
G01 X4.6923 Y69.5552
G01 X4.7923 Y69.5802
G01 X4.8893 Y69.6149
G01 X4.9825 Y69.6590
G01 X5.0708 Y69.7120
G01 X5.1536 Y69.7733
G01 X5.2300 Y69.8425
G01 X5.2992 Y69.9189
G01 X5.3605 Y70.0017
G01 X5.4135 Y70.0900
G01 X5.4576 Y70.1832
G01 X5.4923 Y70.2802
G01 X5.5172 Y70.3797
G01 X5.5190 Y70.3898
G01 X5.5324 Y70.4821
G01 X5.5375 Y70.5850
G01 X5.5324 Y70.6879
G01 X5.5173 Y70.7898
G01 X5.4924 Y70.8894
G01 X5.4892 Y70.8991
G01 X5.4576 Y70.9868
G01 X5.4135 Y71.0800
G01 X5.3605 Y71.1683
G01 X5.2992 Y71.2511
G01 X5.2300 Y71.3275
G01 X5.1536 Y71.3967
G01 X5.0708 Y71.4580
G01 X4.9825 Y71.5110
G01 X4.8893 Y71.5551
G01 X4.7923 Y71.5898
G01 X4.6923 Y71.6148
G01 X4.5904 Y71.6299
G01 X4.4875 Y71.6350
G01 X4.3846 Y71.6299
G01 X4.2827 Y71.6148
G01 X4.1827 Y71.5898
G01 X4.0857 Y71.5551
G01 X3.9925 Y71.5110
G01 X3.9042 Y71.4580
G01 X3.8214 Y71.3967
G01 X3.7450 Y71.3275
G01 X3.6758 Y71.2511
G01 X3.6145 Y71.1683
G01 X3.5615 Y71.0800
G01 X3.5174 Y70.9868
G01 X3.4827 Y70.8898
G01 X3.4577 Y70.7898
G01 X3.4426 Y70.6879
G01 X3.4375 Y70.5850
G01 X3.4426 Y70.4821
G01 X3.4560 Y70.3898
G00 Z2.0000
G00 X3.4285 Y73.5750
G01 F60.00
G01 Z-0.1000
G01 F100.00
G01 X3.5399 Y73.5750
G01 X3.5571 Y73.6112
G01 X3.5638 Y73.6243
G01 X3.6092 Y73.7001
G01 X3.6172 Y73.7124
G01 X3.6758 Y73.7911
G01 X3.7450 Y73.8675
G01 X3.8214 Y73.9367
G01 X3.9001 Y73.9953
G01 X3.9124 Y74.0033
G01 X3.9882 Y74.0487
G01 X4.0013 Y74.0554
G01 X4.0375 Y74.0726
G01 X4.0375 Y74.1840
G01 X3.9103 Y74.1247
G01 X3.7455 Y74.0093
G01 X3.6032 Y73.8670
G01 X3.4878 Y73.7022
G01 X3.4285 Y73.5750
G00 Z2.0000
G00 X4.9375 Y74.0726
G01 F60.00
G01 Z-0.1000
G01 F100.00
G01 X4.9421 Y74.0704
G01 X5.0181 Y74.1465
G01 X4.9375 Y74.1840
G01 X4.9375 Y74.0726
G00 Z2.0000
G00 X3.3370 Y78.0532
G01 F60.00
G01 Z-0.1000
G01 F100.00
G01 X3.3370 Y77.8368
G01 X3.3652 Y77.6223
G01 X3.4212 Y77.4133
G01 X3.5040 Y77.2134
G01 X3.5196 Y77.1866
G01 X3.6122 Y77.0261
G01 X3.7439 Y76.8544
G01 X3.8969 Y76.7014
G01 X3.9459 Y76.6638
G01 X4.0686 Y76.5697
G01 X4.2559 Y76.4615
G01 X4.4558 Y76.3787
G01 X4.6648 Y76.3227
G01 X4.8793 Y76.2945
G01 X5.0957 Y76.2945
G01 X5.3102 Y76.3227
G01 X5.5192 Y76.3787
G01 X5.7191 Y76.4615
G01 X5.9064 Y76.5697
G01 X6.0781 Y76.7014
G01 X6.2311 Y76.8544
G01 X6.3628 Y77.0261
G01 X6.4710 Y77.2134
G01 X6.5538 Y77.4133
G01 X6.6098 Y77.6223
G01 X6.6380 Y77.8368
G01 X6.6380 Y78.0532
G01 X6.6098 Y78.2677
G01 X6.5538 Y78.4767
G01 X6.4710 Y78.6766
G01 X6.3628 Y78.8639
G01 X6.2311 Y79.0356
G01 X6.0781 Y79.1886
G01 X5.9064 Y79.3203
G01 X5.7191 Y79.4285
G01 X5.5192 Y79.5113
G01 X5.3102 Y79.5673
G01 X5.0957 Y79.5955
G01 X4.8793 Y79.5955
G01 X4.6648 Y79.5673
G01 X4.4558 Y79.5113
G01 X4.2559 Y79.4285
G01 X4.1609 Y79.3736
G01 X4.0686 Y79.3203
G01 X3.8969 Y79.1886
G01 X3.7439 Y79.0356
G01 X3.6122 Y78.8639
G01 X3.5040 Y78.6766
G01 X3.4212 Y78.4767
G01 X3.3652 Y78.2677
G01 X3.3370 Y78.0532
G00 Z2.0000
G00 X3.3370 Y83.0532
G01 F60.00
G01 Z-0.1000
G01 F100.00
G01 X3.3370 Y82.8368
G01 X3.3650 Y82.6238
G01 X3.4212 Y82.4133
G01 X3.5040 Y82.2134
G01 X3.6122 Y82.0261
G01 X3.7439 Y81.8544
G01 X3.8969 Y81.7014
G01 X3.9314 Y81.6750
G01 X4.0686 Y81.5697
G01 X4.2559 Y81.4615
G01 X4.4558 Y81.3787
G01 X4.6648 Y81.3227
G01 X4.8793 Y81.2945
G01 X5.0957 Y81.2945
G01 X5.3102 Y81.3227
G01 X5.5192 Y81.3787
G01 X5.7191 Y81.4615
G01 X5.9064 Y81.5697
G01 X6.0781 Y81.7014
G01 X6.2311 Y81.8544
G01 X6.3628 Y82.0261
G01 X6.4710 Y82.2134
G01 X6.5538 Y82.4133
G01 X6.6098 Y82.6223
G01 X6.6380 Y82.8368
G01 X6.6380 Y83.0532
G01 X6.6303 Y83.1116
G01 X6.6098 Y83.2677
G01 X6.5538 Y83.4767
G01 X6.4710 Y83.6766
G01 X6.3628 Y83.8639
G01 X6.2311 Y84.0356
G01 X6.0781 Y84.1886
G01 X5.9064 Y84.3203
G01 X5.7191 Y84.4285
G01 X5.5192 Y84.5113
G01 X5.3102 Y84.5673
G01 X5.0957 Y84.5955
G01 X4.8793 Y84.5955
G01 X4.6648 Y84.5673
G01 X4.4558 Y84.5113
G01 X4.2559 Y84.4285
G01 X4.0686 Y84.3203
G01 X3.8969 Y84.1886
G01 X3.7439 Y84.0356
G01 X3.6122 Y83.8639
G01 X3.5040 Y83.6766
G01 X3.4212 Y83.4767
G01 X3.3652 Y83.2677
G01 X3.3370 Y83.0532
G00 Z2.0000
G00 X3.4560 Y90.3898
G01 F60.00
G01 Z-0.1000
G01 F100.00
G01 X3.4598 Y90.3706
G01 X3.4827 Y90.2802
G01 X3.5174 Y90.1832
G01 X3.5615 Y90.0900
G01 X3.6145 Y90.0017
G01 X3.6758 Y89.9189
G01 X3.7450 Y89.8425
G01 X3.8214 Y89.7733
G01 X3.9042 Y89.7120
G01 X3.9925 Y89.6590
G01 X4.0857 Y89.6149
G01 X4.1827 Y89.5802
G01 X4.2822 Y89.5553
G01 X4.2923 Y89.5535
G01 X4.3846 Y89.5401
G01 X4.4875 Y89.5350
G01 X4.5904 Y89.5401
G01 X4.6923 Y89.5552
G01 X4.7923 Y89.5802
G01 X4.8893 Y89.6149
G01 X4.9825 Y89.6590
G01 X5.0708 Y89.7120
G01 X5.1536 Y89.7733
G01 X5.2300 Y89.8425
G01 X5.2992 Y89.9189
G01 X5.3605 Y90.0017
G01 X5.4135 Y90.0900
G01 X5.4576 Y90.1832
G01 X5.4923 Y90.2802
G01 X5.5172 Y90.3797
G01 X5.5190 Y90.3898
G01 X5.5324 Y90.4821
G01 X5.5375 Y90.5850
G01 X5.5324 Y90.6879
G01 X5.5173 Y90.7898
G01 X5.4924 Y90.8894
G01 X5.4892 Y90.8991
G01 X5.4576 Y90.9868
G01 X5.4135 Y91.0800
G01 X5.3605 Y91.1683
G01 X5.2992 Y91.2511
G01 X5.2300 Y91.3275
G01 X5.1536 Y91.3967
G01 X5.0708 Y91.4580
G01 X4.9825 Y91.5110
G01 X4.8893 Y91.5551
G01 X4.7923 Y91.5898
G01 X4.6923 Y91.6148
G01 X4.5904 Y91.6299
G01 X4.4875 Y91.6350
G01 X4.3846 Y91.6299
G01 X4.2827 Y91.6148
G01 X4.1831 Y91.5899
G01 X4.1734 Y91.5867
G01 X4.0857 Y91.5551
G01 X3.9925 Y91.5110
G01 X3.9042 Y91.4580
G01 X3.8214 Y91.3967
G01 X3.7450 Y91.3275
G01 X3.6758 Y91.2511
G01 X3.6145 Y91.1683
G01 X3.5615 Y91.0800
G01 X3.5174 Y90.9868
G01 X3.4827 Y90.8898
G01 X3.4577 Y90.7898
G01 X3.4426 Y90.6879
G01 X3.4375 Y90.5850
G01 X3.4426 Y90.4821
G01 X3.4560 Y90.3898
G00 Z2.0000
G00 X3.4285 Y93.5750
G01 F60.00
G01 Z-0.1000
G01 F100.00
G01 X3.5399 Y93.5750
G01 X3.5571 Y93.6112
G01 X3.5638 Y93.6243
G01 X3.6092 Y93.7001
G01 X3.6172 Y93.7124
G01 X3.6758 Y93.7911
G01 X3.7450 Y93.8675
G01 X3.8214 Y93.9367
G01 X3.9001 Y93.9953
G01 X3.9124 Y94.0033
G01 X3.9882 Y94.0487
G01 X4.0013 Y94.0554
G01 X4.0375 Y94.0726
G01 X4.0375 Y94.1840
G01 X3.9103 Y94.1247
G01 X3.7455 Y94.0093
G01 X3.6032 Y93.8670
G01 X3.4878 Y93.7022
G01 X3.4285 Y93.5750
G00 Z2.0000
G00 X4.9375 Y94.0726
G01 F60.00
G01 Z-0.1000
G01 F100.00
G01 X4.9421 Y94.0704
G01 X5.0181 Y94.1465
G01 X4.9375 Y94.1840
G01 X4.9375 Y94.0726
G00 Z2.0000
G00 X3.3370 Y98.0532
G01 F60.00
G01 Z-0.1000
G01 F100.00
G01 X3.3370 Y97.8368
G01 X3.3652 Y97.6223
G01 X3.4212 Y97.4133
G01 X3.5040 Y97.2134
G01 X3.5173 Y97.1905
G01 X3.6122 Y97.0261
G01 X3.7439 Y96.8544
G01 X3.8969 Y96.7014
G01 X4.0686 Y96.5697
G01 X4.2559 Y96.4615
G01 X4.4558 Y96.3787
G01 X4.6648 Y96.3227
G01 X4.8793 Y96.2945
G01 X5.0957 Y96.2945
G01 X5.3102 Y96.3227
G01 X5.5192 Y96.3787
G01 X5.7191 Y96.4615
G01 X5.9064 Y96.5697
G01 X6.0781 Y96.7014
G01 X6.2311 Y96.8544
G01 X6.3628 Y97.0261
G01 X6.4710 Y97.2134
G01 X6.5538 Y97.4133
G01 X6.6098 Y97.6223
G01 X6.6380 Y97.8368
G01 X6.6380 Y98.0532
G01 X6.6098 Y98.2677
G01 X6.5538 Y98.4767
G01 X6.4710 Y98.6766
G01 X6.3628 Y98.8639
G01 X6.2311 Y99.0356
G01 X6.0781 Y99.1886
G01 X5.9064 Y99.3203
G01 X5.7191 Y99.4285
G01 X5.5192 Y99.5113
G01 X5.3102 Y99.5673
G01 X5.0957 Y99.5955
G01 X4.8793 Y99.5955
G01 X4.6648 Y99.5673
G01 X4.4558 Y99.5113
G01 X4.2559 Y99.4285
G01 X4.1609 Y99.3736
G01 X4.0686 Y99.3203
G01 X3.8969 Y99.1886
G01 X3.7439 Y99.0356
G01 X3.6122 Y98.8639
G01 X3.5040 Y98.6766
G01 X3.4212 Y98.4767
G01 X3.3652 Y98.2677
G01 X3.3370 Y98.0532
G00 Z2.0000
G00 X3.3370 Y103.0532
G01 F60.00
G01 Z-0.1000
G01 F100.00
G01 X3.3370 Y102.8368
G01 X3.3650 Y102.6238
G01 X3.4212 Y102.4133
G01 X3.5040 Y102.2134
G01 X3.6122 Y102.0261
G01 X3.7439 Y101.8544
G01 X3.8969 Y101.7014
G01 X3.9314 Y101.6750
G01 X4.0686 Y101.5697
G01 X4.2559 Y101.4615
G01 X4.4558 Y101.3787
G01 X4.6648 Y101.3227
G01 X4.8793 Y101.2945
G01 X5.0957 Y101.2945
G01 X5.3102 Y101.3227
G01 X5.5192 Y101.3787
G01 X5.7191 Y101.4615
G01 X5.9064 Y101.5697
G01 X6.0781 Y101.7014
G01 X6.2311 Y101.8544
G01 X6.3628 Y102.0261
G01 X6.4710 Y102.2134
G01 X6.5538 Y102.4133
G01 X6.6098 Y102.6223
G01 X6.6380 Y102.8368
G01 X6.6380 Y103.0532
G01 X6.6098 Y103.2677
G01 X6.5538 Y103.4767
G01 X6.4710 Y103.6766
G01 X6.3628 Y103.8639
G01 X6.2311 Y104.0356
G01 X6.0781 Y104.1886
G01 X5.9064 Y104.3203
G01 X5.7191 Y104.4285
G01 X5.5192 Y104.5113
G01 X5.3102 Y104.5673
G01 X5.0957 Y104.5955
G01 X4.8793 Y104.5955
G01 X4.6648 Y104.5673
G01 X4.4558 Y104.5113
G01 X4.2559 Y104.4285
G01 X4.0686 Y104.3203
G01 X3.8969 Y104.1886
G01 X3.7439 Y104.0356
G01 X3.6122 Y103.8639
G01 X3.5040 Y103.6766
G01 X3.4212 Y103.4767
G01 X3.3652 Y103.2677
G01 X3.3370 Y103.0532
G00 Z2.0000
G00 X3.4560 Y110.3898
G01 F60.00
G01 Z-0.1000
G01 F100.00
G01 X3.4598 Y110.3706
G01 X3.4827 Y110.2802
G01 X3.5174 Y110.1832
G01 X3.5615 Y110.0900
G01 X3.6145 Y110.0017
G01 X3.6758 Y109.9189
G01 X3.7450 Y109.8425
G01 X3.8214 Y109.7733
G01 X3.9042 Y109.7120
G01 X3.9925 Y109.6590
G01 X4.0857 Y109.6149
G01 X4.1827 Y109.5802
G01 X4.2822 Y109.5553
G01 X4.2923 Y109.5535
G01 X4.3846 Y109.5401
G01 X4.4875 Y109.5350
G01 X4.5904 Y109.5401
G01 X4.6923 Y109.5552
G01 X4.7923 Y109.5802
G01 X4.8893 Y109.6149
G01 X4.9825 Y109.6590
G01 X5.0708 Y109.7120
G01 X5.1536 Y109.7733
G01 X5.2300 Y109.8425
G01 X5.2992 Y109.9189
G01 X5.3605 Y110.0017
G01 X5.4135 Y110.0900
G01 X5.4576 Y110.1832
G01 X5.4923 Y110.2802
G01 X5.5172 Y110.3797
G01 X5.5190 Y110.3898
G01 X5.5324 Y110.4821
G01 X5.5375 Y110.5850
G01 X5.5324 Y110.6879
G01 X5.5173 Y110.7898
G01 X5.4924 Y110.8894
G01 X5.4892 Y110.8991
G01 X5.4576 Y110.9868
G01 X5.4135 Y111.0800
G01 X5.3605 Y111.1683
G01 X5.2992 Y111.2511
G01 X5.2300 Y111.3275
G01 X5.1536 Y111.3967
G01 X5.0708 Y111.4580
G01 X4.9825 Y111.5110
G01 X4.8893 Y111.5551
G01 X4.7923 Y111.5898
G01 X4.6923 Y111.6148
G01 X4.5904 Y111.6299
G01 X4.4875 Y111.6350
G01 X4.3846 Y111.6299
G01 X4.2827 Y111.6148
G01 X4.1831 Y111.5899
G01 X4.1734 Y111.5867
G01 X4.0857 Y111.5551
G01 X3.9925 Y111.5110
G01 X3.9042 Y111.4580
G01 X3.8214 Y111.3967
G01 X3.7450 Y111.3275
G01 X3.6758 Y111.2511
G01 X3.6145 Y111.1683
G01 X3.5615 Y111.0800
G01 X3.5174 Y110.9868
G01 X3.4827 Y110.8898
G01 X3.4577 Y110.7898
G01 X3.4426 Y110.6879
G01 X3.4375 Y110.5850
G01 X3.4426 Y110.4821
G01 X3.4560 Y110.3898
G00 Z2.0000
G00 X3.4285 Y113.5750
G01 F60.00
G01 Z-0.1000
G01 F100.00
G01 X3.5399 Y113.5750
G01 X3.5571 Y113.6112
G01 X3.5638 Y113.6243
G01 X3.6092 Y113.7001
G01 X3.6172 Y113.7124
G01 X3.6758 Y113.7911
G01 X3.7450 Y113.8675
G01 X3.8214 Y113.9367
G01 X3.9001 Y113.9953
G01 X3.9124 Y114.0033
G01 X3.9882 Y114.0487
G01 X4.0013 Y114.0554
G01 X4.0375 Y114.0726
G01 X4.0375 Y114.1840
G01 X3.9103 Y114.1247
G01 X3.7455 Y114.0093
G01 X3.6032 Y113.8670
G01 X3.4878 Y113.7022
G01 X3.4285 Y113.5750
G00 Z2.0000
G00 X4.9375 Y114.0726
G01 F60.00
G01 Z-0.1000
G01 F100.00
G01 X4.9421 Y114.0704
G01 X5.0181 Y114.1465
G01 X4.9375 Y114.1840
G01 X4.9375 Y114.0726
G00 Z2.0000
G00 X3.3370 Y118.0532
G01 F60.00
G01 Z-0.1000
G01 F100.00
G01 X3.3370 Y117.8368
G01 X3.3652 Y117.6223
G01 X3.4212 Y117.4133
G01 X3.5040 Y117.2134
G01 X3.5196 Y117.1866
G01 X3.6122 Y117.0261
G01 X3.7439 Y116.8544
G01 X3.8969 Y116.7014
G01 X4.0686 Y116.5697
G01 X4.2559 Y116.4615
G01 X4.4558 Y116.3787
G01 X4.6648 Y116.3227
G01 X4.8793 Y116.2945
G01 X5.0957 Y116.2945
G01 X5.3102 Y116.3227
G01 X5.5192 Y116.3787
G01 X5.7191 Y116.4615
G01 X5.9064 Y116.5697
G01 X6.0781 Y116.7014
G01 X6.2311 Y116.8544
G01 X6.3628 Y117.0261
G01 X6.4710 Y117.2134
G01 X6.5538 Y117.4133
G01 X6.6098 Y117.6223
G01 X6.6380 Y117.8368
G01 X6.6380 Y118.0532
G01 X6.6098 Y118.2677
G01 X6.5538 Y118.4767
G01 X6.4710 Y118.6766
G01 X6.3628 Y118.8639
G01 X6.2311 Y119.0356
G01 X6.0781 Y119.1886
G01 X5.9064 Y119.3203
G01 X5.7191 Y119.4285
G01 X5.5192 Y119.5113
G01 X5.3102 Y119.5673
G01 X5.0957 Y119.5955
G01 X4.8793 Y119.5955
G01 X4.6648 Y119.5673
G01 X4.4558 Y119.5113
G01 X4.2559 Y119.4285
G01 X4.1609 Y119.3736
G01 X4.0686 Y119.3203
G01 X3.8969 Y119.1886
G01 X3.7439 Y119.0356
G01 X3.6122 Y118.8639
G01 X3.5040 Y118.6766
G01 X3.4212 Y118.4767
G01 X3.3652 Y118.2677
G01 X3.3370 Y118.0532
G00 Z2.0000
G00 X3.2995 Y123.1882
G01 F60.00
G01 Z-0.1000
G01 F100.00
G01 X3.2995 Y122.9718
G01 X3.3277 Y122.7573
G01 X3.3837 Y122.5483
G01 X3.4665 Y122.3484
G01 X3.5747 Y122.1611
G01 X3.7064 Y121.9894
G01 X3.8594 Y121.8364
G01 X3.9577 Y121.7610
G01 X4.0311 Y121.7047
G01 X4.2184 Y121.5965
G01 X4.4183 Y121.5137
G01 X4.6273 Y121.4577
G01 X4.8418 Y121.4295
G01 X5.0582 Y121.4295
G01 X5.2727 Y121.4577
G01 X5.4817 Y121.5137
G01 X5.6816 Y121.5965
G01 X5.8689 Y121.7047
G01 X6.0406 Y121.8364
G01 X6.1936 Y121.9894
G01 X6.3253 Y122.1611
G01 X6.4335 Y122.3484
G01 X6.5163 Y122.5483
G01 X6.5723 Y122.7573
G01 X6.6005 Y122.9718
G01 X6.6005 Y123.1882
G01 X6.5723 Y123.4027
G01 X6.5163 Y123.6117
G01 X6.4335 Y123.8116
G01 X6.3253 Y123.9989
G01 X6.1936 Y124.1706
G01 X6.0406 Y124.3236
G01 X5.8689 Y124.4553
G01 X5.6816 Y124.5635
G01 X5.4817 Y124.6463
G01 X5.2727 Y124.7023
G01 X5.0582 Y124.7305
G01 X4.8418 Y124.7305
G01 X4.6273 Y124.7023
G01 X4.4183 Y124.6463
G01 X4.2184 Y124.5635
G01 X4.0311 Y124.4553
G01 X3.8594 Y124.3236
G01 X3.7064 Y124.1706
G01 X3.5747 Y123.9989
G01 X3.4665 Y123.8116
G01 X3.3837 Y123.6117
G01 X3.3277 Y123.4027
G01 X3.2995 Y123.1882
G00 Z2.0000
G00 X0.5699 Y124.6600
G01 F60.00
G01 Z-0.1000
G01 F100.00
G01 X0.5799 Y11.2900
G01 X0.5811 Y11.2583
G01 X0.5826 Y11.2413
G01 X0.5881 Y11.2042
G01 X0.5972 Y11.1663
G01 X0.6005 Y11.1553
G01 X0.6096 Y11.1294
G01 X0.6134 Y11.1197
G01 X0.6181 Y11.1087
G01 X0.6328 Y11.0783
G01 X0.6491 Y11.0505
G01 X0.6554 Y11.0404
G01 X0.6807 Y11.0060
G01 X0.7064 Y10.9771
G01 X3.4375 Y8.2134
G01 X3.4377 Y7.1852
G01 X3.4397 Y7.1657
G01 X3.4424 Y7.1512
G01 X3.4476 Y7.1323
G01 X3.4547 Y7.1140
G01 X3.4611 Y7.1007
G01 X3.4712 Y7.0839
G01 X3.4829 Y7.0681
G01 X3.4961 Y7.0536
G01 X3.5106 Y7.0404
G01 X3.5264 Y7.0287
G01 X3.5432 Y7.0186
G01 X3.5565 Y7.0122
G01 X3.5748 Y7.0051
G01 X3.5889 Y7.0010
G01 X3.6082 Y6.9972
G01 X3.6277 Y6.9952
G01 X4.8909 Y6.9950
G01 X9.1817 Y2.7042
G01 X9.2144 Y2.6745
G01 X9.2459 Y2.6510
G01 X9.2582 Y2.6430
G01 X9.2878 Y2.6255
G01 X9.3188 Y2.6106
G01 X9.3323 Y2.6048
G01 X9.3698 Y2.5916
G01 X9.4074 Y2.5820
G01 X9.4219 Y2.5793
G01 X9.4559 Y2.5745
G01 X9.4951 Y2.5724
G01 X11.8859 Y2.5724
G01 X11.8919 Y2.5639
G01 X11.9118 Y2.5375
G01 X11.9406 Y2.5056
G01 X11.9725 Y2.4768
G01 X11.9989 Y2.4569
G01 X12.0112 Y2.4485
G01 X12.0352 Y2.4340
G01 X12.0525 Y2.4247
G01 X12.0781 Y2.4127
G01 X12.0871 Y2.4090
G01 X12.1137 Y2.3994
G01 X12.1277 Y2.3950
G01 X12.1598 Y2.3869
G01 X12.1743 Y2.3842
G01 X12.2071 Y2.3796
G01 X12.2402 Y2.3777
G01 X12.5992 Y2.3775
G01 X13.8856 Y1.0912
G01 X13.9112 Y1.0682
G01 X13.9347 Y1.0505
G01 X13.9468 Y1.0422
G01 X13.9761 Y1.0248
G01 X14.0074 Y1.0098
G01 X14.0210 Y1.0043
G01 X14.0489 Y0.9946
G01 X14.0869 Y0.9851
G01 X14.1160 Y0.9805
G01 X14.1265 Y0.9793
G01 X14.1650 Y0.9774
G01 X17.2200 Y0.9774
G01 X17.2494 Y0.9786
G01 X17.2641 Y0.9799
G01 X17.2981 Y0.9851
G01 X17.3267 Y0.9920
G01 X17.3408 Y0.9961
G01 X17.3731 Y1.0079
G01 X17.4086 Y1.0246
G01 X17.4340 Y1.0396
G01 X17.4503 Y1.0505
G01 X17.4700 Y1.0652
G01 X17.4776 Y1.0714
G01 X17.5029 Y1.0946
G01 X18.2783 Y1.8700
G01 X18.6749 Y1.8701
G01 X18.7080 Y1.8717
G01 X18.7226 Y1.8733
G01 X18.7554 Y1.8784
G01 X18.7875 Y1.8862
G01 X18.8017 Y1.8903
G01 X18.8283 Y1.8998
G01 X18.8464 Y1.9073
G01 X18.8719 Y1.9194
G01 X18.8805 Y1.9240
G01 X18.9089 Y1.9411
G01 X18.9211 Y1.9494
G01 X18.9475 Y1.9693
G01 X18.9794 Y1.9981
G01 X19.0082 Y2.0300
G01 X19.0338 Y2.0645
G01 X19.0535 Y2.0970
G01 X19.0603 Y2.1100
G01 X19.0742 Y2.1401
G01 X19.0856 Y2.1712
G01 X19.0900 Y2.1852
G01 X19.0991 Y2.2221
G01 X19.1042 Y2.2549
G01 X19.1058 Y2.2695
G01 X19.1075 Y2.3075
G01 X19.1075 Y2.7825
G01 X19.1054 Y2.8254
G01 X19.1008 Y2.8582
G01 X19.0981 Y2.8727
G01 X19.0913 Y2.9000
G01 X19.0856 Y2.9188
G01 X19.0742 Y2.9499
G01 X19.0558 Y2.9887
G01 X19.0364 Y3.0214
G01 X19.0281 Y3.0336
G01 X19.0082 Y3.0600
G01 X18.9794 Y3.0919
G01 X18.9475 Y3.1207
G01 X18.9211 Y3.1406
G01 X18.9048 Y3.1515
G01 X18.8805 Y3.1660
G01 X18.8719 Y3.1706
G01 X18.8374 Y3.1867
G01 X18.8017 Y3.1997
G01 X18.7923 Y3.2025
G01 X18.7649 Y3.2094
G01 X18.7554 Y3.2116
G01 X18.7451 Y3.2134
G01 X18.7451 Y3.8766
G01 X18.7602 Y3.8794
G01 X18.7970 Y3.8888
G01 X18.8283 Y3.8998
G01 X18.8419 Y3.9052
G01 X18.8719 Y3.9194
G01 X18.8848 Y3.9265
G01 X18.9131 Y3.9437
G01 X18.9437 Y3.9662
G01 X18.9550 Y3.9757
G01 X18.9794 Y3.9981
G01 X19.0050 Y4.0262
G01 X19.0142 Y4.0377
G01 X19.0338 Y4.0645
G01 X19.0510 Y4.0927
G01 X19.0581 Y4.1056
G01 X19.0723 Y4.1356
G01 X19.0760 Y4.1446
G01 X19.0856 Y4.1712
G01 X19.0913 Y4.1900
G01 X19.0981 Y4.2173
G01 X19.1000 Y4.2270
G01 X19.1042 Y4.2549
G01 X19.1058 Y4.2695
G01 X19.1075 Y4.3075
G01 X19.1075 Y4.6992
G01 X20.7929 Y6.3846
G01 X20.8129 Y6.4062
G01 X20.8223 Y6.4175
G01 X20.8399 Y6.4412
G01 X20.8479 Y6.4535
G01 X20.8627 Y6.4786
G01 X20.8757 Y6.5054
G01 X20.8815 Y6.5189
G01 X20.8914 Y6.5467
G01 X20.8955 Y6.5608
G01 X20.9024 Y6.5894
G01 X20.9077 Y6.6237
G01 X20.9089 Y6.6381
G01 X20.9101 Y6.6675
G01 X20.9101 Y7.6524
G01 X21.5631 Y7.6524
G01 X21.5736 Y7.6422
G01 X21.6028 Y7.6160
G01 X21.6423 Y7.5867
G01 X21.6839 Y7.5618
G01 X21.6931 Y7.5571
G01 X21.7287 Y7.5406
G01 X21.7744 Y7.5242
G01 X21.7843 Y7.5214
G01 X21.8225 Y7.5121
G01 X21.8710 Y7.5049
G01 X21.9102 Y7.5027
G01 X21.9249 Y7.5026
G01 X21.9592 Y7.5042
G01 X21.9739 Y7.5054
G01 X22.0127 Y7.5112
G01 X22.0271 Y7.5143
G01 X22.0604 Y7.5227
G01 X22.0745 Y7.5271
G01 X22.1113 Y7.5406
G01 X22.1469 Y7.5571
G01 X22.1642 Y7.5664
G01 X22.1978 Y7.5868
G01 X22.2372 Y7.6160
G01 X22.2736 Y7.6489
G01 X22.3065 Y7.6853
G01 X22.3358 Y7.7248
G01 X22.3608 Y7.7665
G01 X22.3654 Y7.7756
G01 X22.3819 Y7.8112
G01 X22.3954 Y7.8480
G01 X22.3996 Y7.8613
G01 X22.4104 Y7.9050
G01 X22.4164 Y7.9437
G01 X22.4180 Y7.9584
G01 X22.4198 Y7.9927
G01 X22.4199 Y8.0074
G01 X22.4180 Y8.0466
G01 X22.4164 Y8.0613
G01 X22.4104 Y8.1000
G01 X22.4011 Y8.1382
G01 X22.3970 Y8.1523
G01 X22.3855 Y8.1847
G01 X22.3800 Y8.1984
G01 X22.3632 Y8.2338
G01 X22.3586 Y8.2425
G01 X22.3410 Y8.2720
G01 X22.3301 Y8.2883
G01 X22.3065 Y8.3197
G01 X22.2736 Y8.3561
G01 X22.2372 Y8.3890
G01 X22.1978 Y8.4182
G01 X22.1642 Y8.4386
G01 X22.1469 Y8.4479
G01 X22.1113 Y8.4644
G01 X22.0651 Y8.4810
G01 X22.0271 Y8.4907
G01 X22.0079 Y8.4946
G01 X21.9690 Y8.5001
G01 X21.9249 Y8.5024
G01 X21.9102 Y8.5023
G01 X21.8710 Y8.5001
G01 X21.8321 Y8.4946
G01 X21.8177 Y8.4919
G01 X21.7843 Y8.4836
G01 X21.7702 Y8.4795
G01 X21.7287 Y8.4644
G01 X21.7031 Y8.4526
G01 X20.0275 Y8.4526
G01 X20.0275 Y8.9200
G01 X20.0258 Y8.9543
G01 X20.0217 Y8.9835
G01 X20.0186 Y8.9979
G01 X20.0124 Y9.0216
G01 X20.0027 Y9.0494
G01 X19.9989 Y9.0585
G01 X19.9906 Y9.0762
G01 X19.9838 Y9.0893
G01 X19.9685 Y9.1144
G01 X19.9541 Y9.1343
G01 X19.9449 Y9.1458
G01 X19.9250 Y9.1675
G01 X19.9070 Y9.1841
G01 X19.8957 Y9.1936
G01 X19.8760 Y9.2082
G01 X19.8637 Y9.2163
G01 X19.8425 Y9.2287
G01 X19.8204 Y9.2394
G01 X19.8069 Y9.2452
G01 X19.7840 Y9.2534
G01 X19.7706 Y9.2573
G01 X19.7458 Y9.2633
G01 X19.7215 Y9.2671
G01 X19.7069 Y9.2687
G01 X19.6824 Y9.2699
G01 X19.6649 Y9.2700
G01 X19.6513 Y9.2929
G01 X19.6429 Y9.3050
G01 X19.6281 Y9.3246
G01 X19.6085 Y9.3465
G01 X18.9265 Y10.0285
G01 X18.9083 Y10.0450
G01 X18.8968 Y10.0542
G01 X18.8770 Y10.0686
G01 X18.8518 Y10.0839
G01 X18.8388 Y10.0907
G01 X18.8165 Y10.1009
G01 X18.7888 Y10.1110
G01 X18.7747 Y10.1151
G01 X18.7508 Y10.1208
G01 X18.7217 Y10.1253
G01 X18.7070 Y10.1266
G01 X18.6825 Y10.1276
G01 X16.2126 Y10.1275
G01 X16.1832 Y10.1259
G01 X16.1492 Y10.1208
G01 X16.1159 Y10.1125
G01 X16.0881 Y10.1028
G01 X16.0790 Y10.0990
G01 X16.0612 Y10.0907
G01 X16.0439 Y10.0814
G01 X16.0271 Y10.0713
G01 X16.0190 Y10.0658
G01 X15.9992 Y10.0512
G01 X15.9917 Y10.0450
G01 X15.9700 Y10.0250
G01 X15.3000 Y9.3550
G01 X15.2833 Y9.3370
G01 X15.2738 Y9.3258
G01 X15.2564 Y9.3020
G01 X15.2436 Y9.2811
G01 X15.2365 Y9.2682
G01 X15.2241 Y9.2415
G01 X15.2156 Y9.2184
G01 X15.2111 Y9.2044
G01 X15.2042 Y9.1758
G01 X15.1997 Y9.1467
G01 X15.1987 Y9.1369
G01 X15.1977 Y9.1173
G01 X15.1975 Y9.1026
G01 X15.1991 Y9.0732
G01 X15.2033 Y9.0440
G01 X15.2063 Y9.0296
G01 X15.2125 Y9.0059
G01 X15.2224 Y8.9777
G01 X15.2197 Y8.9592
G01 X15.2188 Y8.9494
G01 X15.2175 Y8.9200
G01 X15.2175 Y7.2700
G01 X15.2188 Y7.2406
G01 X15.2204 Y7.2260
G01 X15.2242 Y7.2017
G01 X15.2326 Y7.1684
G01 X15.2441 Y7.1361
G01 X15.2588 Y7.1050
G01 X15.2765 Y7.0756
G01 X15.2971 Y7.0478
G01 X15.3200 Y7.0225
G01 X15.3380 Y7.0059
G01 X15.3493 Y6.9964
G01 X15.3731 Y6.9790
G01 X15.3940 Y6.9662
G01 X15.4064 Y6.9593
G01 X15.4336 Y6.9466
G01 X15.4612 Y6.9366
G01 X15.4754 Y6.9325
G01 X15.4992 Y6.9267
G01 X15.5283 Y6.9222
G01 X15.5430 Y6.9210
G01 X15.5675 Y6.9200
G01 X15.8675 Y6.9200
G01 X15.9018 Y6.9217
G01 X15.9310 Y6.9258
G01 X15.9454 Y6.9289
G01 X15.9691 Y6.9351
G01 X15.9969 Y6.9448
G01 X16.0104 Y6.9506
G01 X16.0325 Y6.9613
G01 X16.0578 Y6.9763
G01 X16.0700 Y6.9846
G01 X16.0897 Y6.9996
G01 X16.1079 Y7.0157
G01 X16.1184 Y7.0260
G01 X16.1381 Y7.0480
G01 X16.1529 Y7.0675
G01 X16.1612 Y7.0797
G01 X16.1737 Y7.1006
G01 X16.1803 Y7.1131
G01 X16.1909 Y7.1361
G01 X16.2024 Y7.1684
G01 X16.2108 Y7.2017
G01 X16.2158 Y7.2357
G01 X16.2174 Y7.2651
G01 X16.2173 Y8.9298
G01 X16.2162 Y8.9494
G01 X16.2153 Y8.9592
G01 X16.2117 Y8.9835
G01 X16.2098 Y8.9931
G01 X16.2038 Y9.0169
G01 X16.2009 Y9.0263
G01 X16.1927 Y9.0494
G01 X16.1889 Y9.0585
G01 X16.1784 Y9.0806
G01 X16.1738 Y9.0893
G01 X16.1612 Y9.1103
G01 X16.1557 Y9.1185
G01 X16.1411 Y9.1382
G01 X16.1349 Y9.1458
G01 X16.1184 Y9.1640
G01 X16.1086 Y9.1736
G01 X16.3625 Y9.4274
G01 X18.5375 Y9.4274
G01 X19.0281 Y8.9368
G01 X19.0275 Y8.9200
G01 X19.0276 Y7.2651
G01 X19.0292 Y7.2357
G01 X19.0325 Y7.2114
G01 X19.0352 Y7.1969
G01 X19.0426 Y7.1684
G01 X19.0506 Y7.1452
G01 X19.0561 Y7.1315
G01 X19.0688 Y7.1050
G01 X19.0812 Y7.0838
G01 X19.0893 Y7.0715
G01 X19.1040 Y7.0517
G01 X19.1104 Y7.0439
G01 X19.1266 Y7.0260
G01 X19.1371 Y7.0157
G01 X19.1555 Y6.9994
G01 X19.1831 Y6.9790
G01 X19.2122 Y6.9615
G01 X19.2346 Y6.9506
G01 X19.2481 Y6.9448
G01 X19.2712 Y6.9366
G01 X19.2806 Y6.9337
G01 X19.3044 Y6.9277
G01 X19.3189 Y6.9250
G01 X19.3383 Y6.9222
G01 X19.3481 Y6.9213
G01 X19.3775 Y6.9200
G01 X19.6775 Y6.9200
G01 X19.7069 Y6.9213
G01 X19.7215 Y6.9229
G01 X19.7458 Y6.9267
G01 X19.7791 Y6.9351
G01 X19.8114 Y6.9466
G01 X19.8337 Y6.9569
G01 X19.8468 Y6.9637
G01 X19.8719 Y6.9790
G01 X19.8997 Y6.9996
G01 X19.9250 Y7.0225
G01 X19.9449 Y7.0442
G01 X19.9511 Y7.0518
G01 X19.9657 Y7.0715
G01 X19.9712 Y7.0797
G01 X19.9813 Y7.0965
G01 X19.9903 Y7.1131
G01 X19.9989 Y7.1315
G01 X20.0027 Y7.1406
G01 X20.0124 Y7.1684
G01 X20.0208 Y7.2017
G01 X20.0253 Y7.2308
G01 X20.0262 Y7.2406
G01 X20.0273 Y7.2602
G01 X20.0275 Y7.6524
G01 X20.1099 Y7.6524
G01 X20.1099 Y6.8332
G01 X18.4967 Y5.2200
G01 X18.1602 Y5.2198
G01 X18.1271 Y5.2179
G01 X18.0943 Y5.2133
G01 X18.0798 Y5.2106
G01 X18.0430 Y5.2012
G01 X18.0026 Y5.1867
G01 X17.9638 Y5.1683
G01 X17.9269 Y5.1463
G01 X17.9002 Y5.1267
G01 X17.8887 Y5.1175
G01 X17.8678 Y5.0986
G01 X17.8539 Y5.0847
G01 X17.8350 Y5.0638
G01 X17.8287 Y5.0562
G01 X17.8090 Y5.0296
G01 X17.8010 Y5.0173
G01 X17.7842 Y4.9887
G01 X17.7698 Y4.9589
G01 X17.7640 Y4.9454
G01 X17.7544 Y4.9188
G01 X17.7500 Y4.9048
G01 X17.7419 Y4.8727
G01 X17.7392 Y4.8582
G01 X17.7346 Y4.8254
G01 X17.7325 Y4.7825
G01 X17.7325 Y4.3075
G01 X17.7342 Y4.2695
G01 X17.7358 Y4.2549
G01 X17.7409 Y4.2221
G01 X17.7500 Y4.1852
G01 X17.7544 Y4.1712
G01 X17.7658 Y4.1401
G01 X17.7797 Y4.1100
G01 X17.7865 Y4.0970
G01 X17.8036 Y4.0686
G01 X17.8119 Y4.0564
G01 X17.8318 Y4.0300
G01 X17.8539 Y4.0053
G01 X17.8642 Y3.9947
G01 X17.8850 Y3.9757
G01 X17.8963 Y3.9662
G01 X17.9229 Y3.9465
G01 X17.9312 Y3.9410
G01 X17.9449 Y3.9327
G01 X17.9449 Y3.1573
G01 X17.9311 Y3.1489
G01 X17.9229 Y3.1435
G01 X17.9002 Y3.1267
G01 X17.8887 Y3.1175
G01 X17.8606 Y3.0919
G01 X17.8382 Y3.0675
G01 X17.8287 Y3.0562
G01 X17.8062 Y3.0256
G01 X17.7842 Y2.9887
G01 X17.7658 Y2.9499
G01 X17.7513 Y2.9095
G01 X17.7419 Y2.8727
G01 X17.7392 Y2.8582
G01 X17.7346 Y2.8254
G01 X17.7327 Y2.7923
G01 X17.7325 Y2.4558
G01 X17.0543 Y1.7776
G01 X14.3307 Y1.7776
G01 X13.1625 Y2.9458
G01 X13.1625 Y3.3150
G01 X13.1611 Y3.3481
G01 X13.1592 Y3.3676
G01 X13.1550 Y3.3955
G01 X13.1531 Y3.4052
G01 X13.1437 Y3.4420
G01 X13.1327 Y3.4733
G01 X13.1273 Y3.4869
G01 X13.1131 Y3.5169
G01 X13.1060 Y3.5298
G01 X13.0888 Y3.5581
G01 X13.0632 Y3.5925
G01 X13.0344 Y3.6244
G01 X13.0025 Y3.6532
G01 X12.9681 Y3.6788
G01 X12.9398 Y3.6960
G01 X12.9269 Y3.7031
G01 X12.8969 Y3.7173
G01 X12.8833 Y3.7227
G01 X12.8520 Y3.7337
G01 X12.8104 Y3.7441
G01 X12.7679 Y3.7504
G01 X12.7299 Y3.7524
G01 X12.2451 Y3.7524
G01 X12.2169 Y3.7511
G01 X12.2022 Y3.7499
G01 X12.1695 Y3.7450
G01 X12.1551 Y3.7419
G01 X12.1230 Y3.7337
G01 X12.0917 Y3.7227
G01 X12.0781 Y3.7173
G01 X12.0481 Y3.7031
G01 X12.0352 Y3.6960
G01 X12.0069 Y3.6788
G01 X11.9802 Y3.6592
G01 X11.9687 Y3.6500
G01 X11.9442 Y3.6278
G01 X11.9339 Y3.6172
G01 X11.9118 Y3.5925
G01 X11.8890 Y3.5621
G01 X11.8810 Y3.5498
G01 X11.8642 Y3.5212
G01 X11.8477 Y3.4869
G01 X11.8420 Y3.4726
G01 X9.6864 Y3.4726
G01 X5.5375 Y7.6216
G01 X5.5373 Y8.9048
G01 X5.5353 Y8.9243
G01 X5.5315 Y8.9436
G01 X5.5258 Y8.9624
G01 X5.5183 Y8.9805
G01 X5.5090 Y8.9978
G01 X5.4981 Y9.0141
G01 X5.4857 Y9.0293
G01 X5.4754 Y9.0398
G01 X5.4605 Y9.0527
G01 X5.4445 Y9.0640
G01 X5.4274 Y9.0736
G01 X5.4140 Y9.0798
G01 X5.4002 Y9.0849
G01 X5.3813 Y9.0901
G01 X5.3620 Y9.0935
G01 X5.3424 Y9.0949
G01 X3.8319 Y9.0950
G01 X1.4801 Y11.4749
G01 X1.4787 Y27.5812
G01 X3.4375 Y27.5870
G01 X3.4375 Y27.1950
G01 X3.4385 Y27.1754
G01 X3.4404 Y27.1608
G01 X3.4424 Y27.1512
G01 X3.4461 Y27.1369
G01 X3.4492 Y27.1276
G01 X3.4547 Y27.1140
G01 X3.4589 Y27.1051
G01 X3.4660 Y27.0922
G01 X3.4712 Y27.0839
G01 X3.4769 Y27.0759
G01 X3.4861 Y27.0644
G01 X3.4927 Y27.0571
G01 X3.5032 Y27.0468
G01 X3.5145 Y27.0373
G01 X3.5223 Y27.0315
G01 X3.5347 Y27.0235
G01 X3.5432 Y27.0186
G01 X3.5565 Y27.0122
G01 X3.5655 Y27.0084
G01 X3.5842 Y27.0022
G01 X3.6033 Y26.9979
G01 X3.6228 Y26.9955
G01 X3.6375 Y26.9950
G01 X4.9617 Y26.9950
G01 X9.2171 Y22.7396
G01 X9.2462 Y22.7132
G01 X9.2777 Y22.6898
G01 X9.3111 Y22.6698
G01 X9.3202 Y22.6652
G01 X9.3469 Y22.6529
G01 X9.3839 Y22.6396
G01 X9.4219 Y22.6301
G01 X9.4510 Y22.6255
G01 X9.4615 Y22.6243
G01 X9.5000 Y22.6224
G01 X11.8574 Y22.6224
G01 X11.8665 Y22.6045
G01 X11.8836 Y22.5761
G01 X11.8919 Y22.5639
G01 X11.9087 Y22.5413
G01 X11.9182 Y22.5300
G01 X11.9406 Y22.5056
G01 X11.9687 Y22.4800
G01 X11.9802 Y22.4708
G01 X12.0070 Y22.4512
G01 X12.0438 Y22.4292
G01 X12.0826 Y22.4108
G01 X12.1183 Y22.3978
G01 X12.1325 Y22.3937
G01 X12.1598 Y22.3869
G01 X12.1695 Y22.3850
G01 X12.2071 Y22.3796
G01 X12.2402 Y22.3777
G01 X12.5992 Y22.3775
G01 X13.8856 Y21.0912
G01 X13.9112 Y21.0682
G01 X13.9347 Y21.0505
G01 X13.9468 Y21.0422
G01 X13.9761 Y21.0248
G01 X14.0074 Y21.0098
G01 X14.0210 Y21.0043
G01 X14.0489 Y20.9946
G01 X14.0821 Y20.9861
G01 X14.0966 Y20.9834
G01 X14.1265 Y20.9793
G01 X14.1650 Y20.9774
G01 X17.2249 Y20.9775
G01 X17.2592 Y20.9793
G01 X17.2981 Y20.9851
G01 X17.3361 Y20.9946
G01 X17.3640 Y21.0043
G01 X17.3776 Y21.0098
G01 X17.3998 Y21.0202
G01 X17.4171 Y21.0295
G01 X17.4382 Y21.0422
G01 X17.4463 Y21.0476
G01 X17.4661 Y21.0622
G01 X17.4776 Y21.0714
G01 X17.5029 Y21.0946
G01 X18.2783 Y21.8700
G01 X18.6749 Y21.8701
G01 X18.7129 Y21.8721
G01 X18.7457 Y21.8767
G01 X18.7602 Y21.8794
G01 X18.7970 Y21.8888
G01 X18.8374 Y21.9033
G01 X18.8762 Y21.9217
G01 X18.9131 Y21.9437
G01 X18.9475 Y21.9693
G01 X18.9794 Y21.9981
G01 X19.0082 Y22.0300
G01 X19.0338 Y22.0645
G01 X19.0535 Y22.0970
G01 X19.0603 Y22.1100
G01 X19.0742 Y22.1401
G01 X19.0887 Y22.1805
G01 X19.0969 Y22.2126
G01 X19.1000 Y22.2270
G01 X19.1049 Y22.2597
G01 X19.1061 Y22.2744
G01 X19.1075 Y22.3075
G01 X19.1075 Y22.7825
G01 X19.1054 Y22.8254
G01 X19.1000 Y22.8630
G01 X19.0981 Y22.8727
G01 X19.0913 Y22.9000
G01 X19.0856 Y22.9188
G01 X19.0742 Y22.9499
G01 X19.0558 Y22.9887
G01 X19.0364 Y23.0214
G01 X19.0281 Y23.0336
G01 X19.0082 Y23.0600
G01 X18.9794 Y23.0919
G01 X18.9475 Y23.1207
G01 X18.9211 Y23.1406
G01 X18.9048 Y23.1515
G01 X18.8805 Y23.1660
G01 X18.8719 Y23.1706
G01 X18.8374 Y23.1867
G01 X18.8017 Y23.1997
G01 X18.7923 Y23.2025
G01 X18.7649 Y23.2094
G01 X18.7554 Y23.2116
G01 X18.7451 Y23.2134
G01 X18.7451 Y23.8766
G01 X18.7602 Y23.8794
G01 X18.7970 Y23.8888
G01 X18.8283 Y23.8998
G01 X18.8419 Y23.9052
G01 X18.8719 Y23.9194
G01 X18.8848 Y23.9265
G01 X18.9131 Y23.9437
G01 X18.9437 Y23.9662
G01 X18.9550 Y23.9757
G01 X18.9794 Y23.9981
G01 X19.0050 Y24.0262
G01 X19.0142 Y24.0377
G01 X19.0338 Y24.0645
G01 X19.0510 Y24.0927
G01 X19.0581 Y24.1056
G01 X19.0723 Y24.1356
G01 X19.0760 Y24.1446
G01 X19.0856 Y24.1712
G01 X19.0913 Y24.1900
G01 X19.0981 Y24.2173
G01 X19.1000 Y24.2270
G01 X19.1042 Y24.2549
G01 X19.1058 Y24.2695
G01 X19.1075 Y24.3075
G01 X19.1075 Y24.6992
G01 X20.7929 Y26.3846
G01 X20.8161 Y26.4099
G01 X20.8253 Y26.4214
G01 X20.8427 Y26.4452
G01 X20.8604 Y26.4744
G01 X20.8670 Y26.4870
G01 X20.8796 Y26.5144
G01 X20.8898 Y26.5420
G01 X20.8942 Y26.5561
G01 X20.9014 Y26.5846
G01 X20.9041 Y26.5991
G01 X20.9082 Y26.6290
G01 X20.9099 Y26.6577
G01 X20.9101 Y27.6524
G01 X21.5631 Y27.6524
G01 X21.5736 Y27.6422
G01 X21.5954 Y27.6224
G01 X21.6105 Y27.6100
G01 X21.6423 Y27.5867
G01 X21.6798 Y27.5640
G01 X21.6931 Y27.5571
G01 X21.7241 Y27.5425
G01 X21.7332 Y27.5387
G01 X21.7744 Y27.5242
G01 X21.8129 Y27.5143
G01 X21.8321 Y27.5104
G01 X21.8710 Y27.5049
G01 X21.9102 Y27.5027
G01 X21.9298 Y27.5027
G01 X21.9690 Y27.5049
G01 X22.0127 Y27.5112
G01 X22.0223 Y27.5131
G01 X22.0557 Y27.5214
G01 X22.0698 Y27.5255
G01 X22.1113 Y27.5406
G01 X22.1557 Y27.5615
G01 X22.1978 Y27.5868
G01 X22.2372 Y27.6160
G01 X22.2736 Y27.6489
G01 X22.3065 Y27.6853
G01 X22.3358 Y27.7248
G01 X22.3608 Y27.7665
G01 X22.3654 Y27.7756
G01 X22.3819 Y27.8112
G01 X22.3983 Y27.8569
G01 X22.4011 Y27.8668
G01 X22.4104 Y27.9050
G01 X22.4176 Y27.9535
G01 X22.4200 Y28.0025
G01 X22.4176 Y28.0515
G01 X22.4104 Y28.1000
G01 X22.4011 Y28.1382
G01 X22.3970 Y28.1523
G01 X22.3819 Y28.1938
G01 X22.3654 Y28.2294
G01 X22.3561 Y28.2467
G01 X22.3357 Y28.2803
G01 X22.3065 Y28.3197
G01 X22.2803 Y28.3489
G01 X22.2664 Y28.3628
G01 X22.2372 Y28.3890
G01 X22.1978 Y28.4182
G01 X22.1642 Y28.4386
G01 X22.1469 Y28.4479
G01 X22.1113 Y28.4644
G01 X22.0745 Y28.4779
G01 X22.0557 Y28.4836
G01 X22.0175 Y28.4929
G01 X21.9739 Y28.4996
G01 X21.9641 Y28.5005
G01 X21.9298 Y28.5023
G01 X21.9102 Y28.5023
G01 X21.8710 Y28.5001
G01 X21.8273 Y28.4938
G01 X21.8177 Y28.4919
G01 X21.7843 Y28.4836
G01 X21.7702 Y28.4795
G01 X21.7287 Y28.4644
G01 X21.7031 Y28.4526
G01 X20.0275 Y28.4526
G01 X20.0275 Y28.9200
G01 X20.0258 Y28.9543
G01 X20.0217 Y28.9835
G01 X20.0186 Y28.9979
G01 X20.0124 Y29.0216
G01 X20.0027 Y29.0494
G01 X19.9989 Y29.0585
G01 X19.9906 Y29.0762
G01 X19.9838 Y29.0893
G01 X19.9685 Y29.1144
G01 X19.9541 Y29.1343
G01 X19.9449 Y29.1458
G01 X19.9250 Y29.1675
G01 X19.9070 Y29.1841
G01 X19.8957 Y29.1936
G01 X19.8760 Y29.2082
G01 X19.8637 Y29.2163
G01 X19.8425 Y29.2287
G01 X19.8204 Y29.2394
G01 X19.8069 Y29.2452
G01 X19.7840 Y29.2534
G01 X19.7706 Y29.2573
G01 X19.7458 Y29.2633
G01 X19.7215 Y29.2671
G01 X19.7069 Y29.2687
G01 X19.6824 Y29.2699
G01 X19.6649 Y29.2700
G01 X19.6513 Y29.2929
G01 X19.6429 Y29.3050
G01 X19.6281 Y29.3246
G01 X19.6085 Y29.3465
G01 X18.9265 Y30.0285
G01 X18.9083 Y30.0450
G01 X18.8968 Y30.0542
G01 X18.8770 Y30.0686
G01 X18.8561 Y30.0814
G01 X18.8432 Y30.0885
G01 X18.8210 Y30.0990
G01 X18.8073 Y30.1045
G01 X18.7841 Y30.1125
G01 X18.7556 Y30.1198
G01 X18.7460 Y30.1217
G01 X18.7266 Y30.1247
G01 X18.7119 Y30.1263
G01 X18.6825 Y30.1276
G01 X16.2126 Y30.1275
G01 X16.1832 Y30.1259
G01 X16.1540 Y30.1217
G01 X16.1444 Y30.1198
G01 X16.1253 Y30.1151
G01 X16.1066 Y30.1094
G01 X16.0881 Y30.1028
G01 X16.0790 Y30.0990
G01 X16.0525 Y30.0862
G01 X16.0230 Y30.0686
G01 X15.9992 Y30.0512
G01 X15.9880 Y30.0417
G01 X15.9700 Y30.0250
G01 X15.2932 Y29.3479
G01 X15.2769 Y29.3296
G01 X15.2592 Y29.3060
G01 X15.2512 Y29.2937
G01 X15.2388 Y29.2725
G01 X15.2260 Y29.2460
G01 X15.2205 Y29.2323
G01 X15.2125 Y29.2091
G01 X15.2052 Y29.1806
G01 X15.2025 Y29.1661
G01 X15.1997 Y29.1467
G01 X15.1987 Y29.1369
G01 X15.1974 Y29.1075
G01 X15.1987 Y29.0781
G01 X15.1997 Y29.0683
G01 X15.2025 Y29.0489
G01 X15.2052 Y29.0344
G01 X15.2125 Y29.0059
G01 X15.2224 Y28.9777
G01 X15.2197 Y28.9592
G01 X15.2188 Y28.9494
G01 X15.2175 Y28.9200
G01 X15.2175 Y27.2700
G01 X15.2188 Y27.2406
G01 X15.2204 Y27.2260
G01 X15.2242 Y27.2017
G01 X15.2326 Y27.1684
G01 X15.2441 Y27.1361
G01 X15.2588 Y27.1050
G01 X15.2765 Y27.0756
G01 X15.2971 Y27.0478
G01 X15.3200 Y27.0225
G01 X15.3380 Y27.0059
G01 X15.3493 Y26.9964
G01 X15.3731 Y26.9790
G01 X15.3940 Y26.9662
G01 X15.4064 Y26.9593
G01 X15.4336 Y26.9466
G01 X15.4612 Y26.9366
G01 X15.4754 Y26.9325
G01 X15.4992 Y26.9267
G01 X15.5283 Y26.9222
G01 X15.5430 Y26.9210
G01 X15.5675 Y26.9200
G01 X15.8675 Y26.9200
G01 X15.9018 Y26.9217
G01 X15.9310 Y26.9258
G01 X15.9454 Y26.9289
G01 X15.9691 Y26.9351
G01 X15.9969 Y26.9448
G01 X16.0104 Y26.9506
G01 X16.0325 Y26.9613
G01 X16.0578 Y26.9763
G01 X16.0700 Y26.9846
G01 X16.0897 Y26.9996
G01 X16.1079 Y27.0157
G01 X16.1184 Y27.0260
G01 X16.1381 Y27.0480
G01 X16.1529 Y27.0675
G01 X16.1612 Y27.0797
G01 X16.1737 Y27.1006
G01 X16.1803 Y27.1131
G01 X16.1909 Y27.1361
G01 X16.2024 Y27.1684
G01 X16.2108 Y27.2017
G01 X16.2158 Y27.2357
G01 X16.2174 Y27.2651
G01 X16.2173 Y28.9298
G01 X16.2162 Y28.9494
G01 X16.2153 Y28.9592
G01 X16.2117 Y28.9835
G01 X16.2098 Y28.9931
G01 X16.2038 Y29.0169
G01 X16.2009 Y29.0263
G01 X16.1927 Y29.0494
G01 X16.1889 Y29.0585
G01 X16.1784 Y29.0806
G01 X16.1738 Y29.0893
G01 X16.1612 Y29.1103
G01 X16.1557 Y29.1185
G01 X16.1411 Y29.1382
G01 X16.1349 Y29.1458
G01 X16.1184 Y29.1640
G01 X16.1086 Y29.1736
G01 X16.3625 Y29.4274
G01 X18.5375 Y29.4274
G01 X19.0281 Y28.9368
G01 X19.0275 Y28.9200
G01 X19.0276 Y27.2651
G01 X19.0292 Y27.2357
G01 X19.0325 Y27.2114
G01 X19.0352 Y27.1969
G01 X19.0426 Y27.1684
G01 X19.0506 Y27.1452
G01 X19.0561 Y27.1315
G01 X19.0688 Y27.1050
G01 X19.0812 Y27.0838
G01 X19.0893 Y27.0715
G01 X19.1040 Y27.0517
G01 X19.1104 Y27.0439
G01 X19.1266 Y27.0260
G01 X19.1371 Y27.0157
G01 X19.1555 Y26.9994
G01 X19.1831 Y26.9790
G01 X19.2122 Y26.9615
G01 X19.2346 Y26.9506
G01 X19.2481 Y26.9448
G01 X19.2712 Y26.9366
G01 X19.2806 Y26.9337
G01 X19.3044 Y26.9277
G01 X19.3189 Y26.9250
G01 X19.3383 Y26.9222
G01 X19.3481 Y26.9213
G01 X19.3775 Y26.9200
G01 X19.6775 Y26.9200
G01 X19.7069 Y26.9213
G01 X19.7215 Y26.9229
G01 X19.7458 Y26.9267
G01 X19.7791 Y26.9351
G01 X19.8114 Y26.9466
G01 X19.8337 Y26.9569
G01 X19.8468 Y26.9637
G01 X19.8719 Y26.9790
G01 X19.8997 Y26.9996
G01 X19.9250 Y27.0225
G01 X19.9449 Y27.0442
G01 X19.9511 Y27.0518
G01 X19.9657 Y27.0715
G01 X19.9712 Y27.0797
G01 X19.9813 Y27.0965
G01 X19.9903 Y27.1131
G01 X19.9989 Y27.1315
G01 X20.0027 Y27.1406
G01 X20.0124 Y27.1684
G01 X20.0208 Y27.2017
G01 X20.0253 Y27.2308
G01 X20.0262 Y27.2406
G01 X20.0273 Y27.2602
G01 X20.0275 Y27.6524
G01 X20.1099 Y27.6524
G01 X20.1099 Y26.8332
G01 X18.4967 Y25.2200
G01 X18.1602 Y25.2198
G01 X18.1271 Y25.2179
G01 X18.0943 Y25.2133
G01 X18.0798 Y25.2106
G01 X18.0430 Y25.2012
G01 X18.0026 Y25.1867
G01 X17.9638 Y25.1683
G01 X17.9269 Y25.1463
G01 X17.9002 Y25.1267
G01 X17.8887 Y25.1175
G01 X17.8678 Y25.0986
G01 X17.8539 Y25.0847
G01 X17.8350 Y25.0638
G01 X17.8287 Y25.0562
G01 X17.8090 Y25.0296
G01 X17.8010 Y25.0173
G01 X17.7842 Y24.9887
G01 X17.7698 Y24.9589
G01 X17.7640 Y24.9454
G01 X17.7544 Y24.9188
G01 X17.7500 Y24.9048
G01 X17.7419 Y24.8727
G01 X17.7392 Y24.8582
G01 X17.7346 Y24.8254
G01 X17.7325 Y24.7825
G01 X17.7325 Y24.3075
G01 X17.7342 Y24.2695
G01 X17.7358 Y24.2549
G01 X17.7409 Y24.2221
G01 X17.7500 Y24.1852
G01 X17.7544 Y24.1712
G01 X17.7658 Y24.1401
G01 X17.7797 Y24.1100
G01 X17.7865 Y24.0970
G01 X17.8036 Y24.0686
G01 X17.8119 Y24.0564
G01 X17.8318 Y24.0300
G01 X17.8539 Y24.0053
G01 X17.8642 Y23.9947
G01 X17.8850 Y23.9757
G01 X17.8963 Y23.9662
G01 X17.9229 Y23.9465
G01 X17.9312 Y23.9410
G01 X17.9449 Y23.9327
G01 X17.9449 Y23.1573
G01 X17.9311 Y23.1489
G01 X17.9229 Y23.1435
G01 X17.9002 Y23.1267
G01 X17.8887 Y23.1175
G01 X17.8606 Y23.0919
G01 X17.8382 Y23.0675
G01 X17.8287 Y23.0562
G01 X17.8062 Y23.0256
G01 X17.7842 Y22.9887
G01 X17.7658 Y22.9499
G01 X17.7513 Y22.9095
G01 X17.7419 Y22.8727
G01 X17.7392 Y22.8582
G01 X17.7346 Y22.8254
G01 X17.7327 Y22.7923
G01 X17.7325 Y22.4558
G01 X17.0543 Y21.7776
G01 X14.3307 Y21.7776
G01 X13.1625 Y22.9458
G01 X13.1625 Y23.3150
G01 X13.1611 Y23.3481
G01 X13.1592 Y23.3676
G01 X13.1550 Y23.3955
G01 X13.1531 Y23.4052
G01 X13.1437 Y23.4420
G01 X13.1310 Y23.4779
G01 X13.1252 Y23.4914
G01 X13.1108 Y23.5212
G01 X13.0888 Y23.5581
G01 X13.0632 Y23.5925
G01 X13.0411 Y23.6172
G01 X13.0308 Y23.6278
G01 X13.0100 Y23.6468
G01 X12.9987 Y23.6563
G01 X12.9721 Y23.6760
G01 X12.9598 Y23.6840
G01 X12.9312 Y23.7008
G01 X12.9014 Y23.7152
G01 X12.8879 Y23.7210
G01 X12.8613 Y23.7306
G01 X12.8425 Y23.7363
G01 X12.8152 Y23.7431
G01 X12.8007 Y23.7458
G01 X12.7679 Y23.7504
G01 X12.7250 Y23.7525
G01 X12.2451 Y23.7524
G01 X12.2071 Y23.7504
G01 X12.1743 Y23.7458
G01 X12.1598 Y23.7431
G01 X12.1230 Y23.7337
G01 X12.0871 Y23.7210
G01 X12.0736 Y23.7152
G01 X12.0438 Y23.7008
G01 X12.0152 Y23.6840
G01 X12.0029 Y23.6760
G01 X11.9725 Y23.6532
G01 X11.9478 Y23.6311
G01 X11.9372 Y23.6208
G01 X11.9118 Y23.5925
G01 X11.8919 Y23.5661
G01 X11.8836 Y23.5539
G01 X11.8665 Y23.5255
G01 X11.8597 Y23.5125
G01 X11.8477 Y23.4869
G01 X11.8440 Y23.4779
G01 X11.8328 Y23.4467
G01 X11.8300 Y23.4373
G01 X11.8262 Y23.4226
G01 X9.6657 Y23.4226
G01 X5.5375 Y27.5508
G01 X5.5375 Y28.8950
G01 X5.5370 Y28.9097
G01 X5.5360 Y28.9195
G01 X5.5337 Y28.9340
G01 X5.5315 Y28.9436
G01 X5.5274 Y28.9577
G01 X5.5241 Y28.9670
G01 X5.5183 Y28.9805
G01 X5.5115 Y28.9936
G01 X5.5065 Y29.0020
G01 X5.5010 Y29.0102
G01 X5.4921 Y29.0219
G01 X5.4823 Y29.0329
G01 X5.4754 Y29.0398
G01 X5.4681 Y29.0464
G01 X5.4566 Y29.0556
G01 X5.4445 Y29.0640
G01 X5.4318 Y29.0714
G01 X5.4185 Y29.0778
G01 X5.4095 Y29.0816
G01 X5.3956 Y29.0864
G01 X5.3861 Y29.0890
G01 X5.3765 Y29.0912
G01 X5.3620 Y29.0935
G01 X5.3522 Y29.0945
G01 X5.3375 Y29.0950
G01 X3.6375 Y29.0950
G01 X3.6228 Y29.0945
G01 X3.6082 Y29.0928
G01 X3.5937 Y29.0901
G01 X3.5794 Y29.0864
G01 X3.5701 Y29.0833
G01 X3.5565 Y29.0778
G01 X3.5432 Y29.0714
G01 X3.5305 Y29.0640
G01 X3.5184 Y29.0556
G01 X3.5069 Y29.0464
G01 X3.4961 Y29.0364
G01 X3.4861 Y29.0256
G01 X3.4769 Y29.0141
G01 X3.4685 Y29.0020
G01 X3.4611 Y28.9893
G01 X3.4547 Y28.9760
G01 X3.4492 Y28.9624
G01 X3.4447 Y28.9483
G01 X3.4413 Y28.9340
G01 X3.4397 Y28.9243
G01 X3.4380 Y28.9097
G01 X3.4376 Y28.8999
G01 X3.4375 Y28.4873
G01 X1.4786 Y28.4815
G01 X1.4769 Y47.5485
G01 X3.4375 Y47.5427
G01 X3.4376 Y47.1901
G01 X3.4385 Y47.1754
G01 X3.4397 Y47.1657
G01 X3.4435 Y47.1464
G01 X3.4476 Y47.1323
G01 X3.4509 Y47.1230
G01 X3.4547 Y47.1140
G01 X3.4611 Y47.1007
G01 X3.4685 Y47.0880
G01 X3.4740 Y47.0798
G01 X3.4829 Y47.0681
G01 X3.4893 Y47.0607
G01 X3.4996 Y47.0502
G01 X3.5069 Y47.0436
G01 X3.5145 Y47.0373
G01 X3.5264 Y47.0287
G01 X3.5347 Y47.0235
G01 X3.5476 Y47.0164
G01 X3.5565 Y47.0122
G01 X3.5701 Y47.0067
G01 X3.5842 Y47.0022
G01 X3.6033 Y46.9979
G01 X3.6179 Y46.9960
G01 X3.6375 Y46.9950
G01 X4.9617 Y46.9950
G01 X9.2171 Y42.7396
G01 X9.2462 Y42.7132
G01 X9.2777 Y42.6898
G01 X9.3111 Y42.6698
G01 X9.3202 Y42.6652
G01 X9.3469 Y42.6529
G01 X9.3839 Y42.6396
G01 X9.4219 Y42.6301
G01 X9.4510 Y42.6255
G01 X9.4615 Y42.6243
G01 X9.5000 Y42.6224
G01 X11.8574 Y42.6224
G01 X11.8665 Y42.6045
G01 X11.8836 Y42.5761
G01 X11.8919 Y42.5639
G01 X11.9087 Y42.5413
G01 X11.9182 Y42.5300
G01 X11.9406 Y42.5056
G01 X11.9687 Y42.4800
G01 X11.9802 Y42.4708
G01 X12.0070 Y42.4512
G01 X12.0438 Y42.4292
G01 X12.0826 Y42.4108
G01 X12.1183 Y42.3978
G01 X12.1325 Y42.3937
G01 X12.1598 Y42.3869
G01 X12.1695 Y42.3850
G01 X12.2071 Y42.3796
G01 X12.2402 Y42.3777
G01 X12.5992 Y42.3775
G01 X13.8856 Y41.0912
G01 X13.9112 Y41.0682
G01 X13.9347 Y41.0505
G01 X13.9468 Y41.0422
G01 X13.9761 Y41.0248
G01 X14.0074 Y41.0098
G01 X14.0210 Y41.0043
G01 X14.0489 Y40.9946
G01 X14.0821 Y40.9861
G01 X14.0966 Y40.9834
G01 X14.1265 Y40.9793
G01 X14.1650 Y40.9774
G01 X17.2249 Y40.9775
G01 X17.2592 Y40.9793
G01 X17.2981 Y40.9851
G01 X17.3361 Y40.9946
G01 X17.3640 Y41.0043
G01 X17.3776 Y41.0098
G01 X17.3998 Y41.0202
G01 X17.4171 Y41.0295
G01 X17.4382 Y41.0422
G01 X17.4463 Y41.0476
G01 X17.4661 Y41.0622
G01 X17.4776 Y41.0714
G01 X17.5029 Y41.0946
G01 X18.2783 Y41.8700
G01 X18.6749 Y41.8701
G01 X18.7129 Y41.8721
G01 X18.7457 Y41.8767
G01 X18.7602 Y41.8794
G01 X18.7970 Y41.8888
G01 X18.8374 Y41.9033
G01 X18.8762 Y41.9217
G01 X18.9131 Y41.9437
G01 X18.9475 Y41.9693
G01 X18.9794 Y41.9981
G01 X19.0082 Y42.0300
G01 X19.0338 Y42.0645
G01 X19.0558 Y42.1013
G01 X19.0742 Y42.1401
G01 X19.0887 Y42.1805
G01 X19.0969 Y42.2126
G01 X19.1000 Y42.2270
G01 X19.1049 Y42.2597
G01 X19.1061 Y42.2744
G01 X19.1075 Y42.3075
G01 X19.1075 Y42.7825
G01 X19.1054 Y42.8254
G01 X19.1000 Y42.8630
G01 X19.0981 Y42.8727
G01 X19.0913 Y42.9000
G01 X19.0856 Y42.9188
G01 X19.0742 Y42.9499
G01 X19.0558 Y42.9887
G01 X19.0364 Y43.0214
G01 X19.0281 Y43.0336
G01 X19.0082 Y43.0600
G01 X18.9794 Y43.0919
G01 X18.9475 Y43.1207
G01 X18.9211 Y43.1406
G01 X18.9048 Y43.1515
G01 X18.8805 Y43.1660
G01 X18.8719 Y43.1706
G01 X18.8374 Y43.1867
G01 X18.8017 Y43.1997
G01 X18.7923 Y43.2025
G01 X18.7649 Y43.2094
G01 X18.7554 Y43.2116
G01 X18.7451 Y43.2134
G01 X18.7451 Y43.8766
G01 X18.7602 Y43.8794
G01 X18.7970 Y43.8888
G01 X18.8283 Y43.8998
G01 X18.8419 Y43.9052
G01 X18.8762 Y43.9217
G01 X18.9048 Y43.9385
G01 X18.9171 Y43.9465
G01 X18.9475 Y43.9693
G01 X18.9758 Y43.9947
G01 X18.9861 Y44.0053
G01 X19.0082 Y44.0300
G01 X19.0281 Y44.0564
G01 X19.0365 Y44.0687
G01 X19.0535 Y44.0970
G01 X19.0603 Y44.1100
G01 X19.0742 Y44.1401
G01 X19.0887 Y44.1805
G01 X19.0969 Y44.2126
G01 X19.1000 Y44.2270
G01 X19.1042 Y44.2549
G01 X19.1061 Y44.2744
G01 X19.1075 Y44.3075
G01 X19.1075 Y44.7699
G01 X20.7575 Y46.4200
G01 X20.7775 Y46.4417
G01 X20.7867 Y46.4532
G01 X20.8011 Y46.4730
G01 X20.8164 Y46.4982
G01 X20.8232 Y46.5112
G01 X20.8334 Y46.5335
G01 X20.8419 Y46.5566
G01 X20.8464 Y46.5706
G01 X20.8533 Y46.5992
G01 X20.8572 Y46.6234
G01 X20.8588 Y46.6381
G01 X20.8600 Y46.6626
G01 X20.8601 Y47.7024
G01 X21.5205 Y47.7024
G01 X21.5304 Y47.6891
G01 X21.5367 Y47.6815
G01 X21.5597 Y47.6561
G01 X21.5700 Y47.6455
G01 X21.6028 Y47.6160
G01 X21.6382 Y47.5895
G01 X21.6464 Y47.5840
G01 X21.6758 Y47.5664
G01 X21.6922 Y47.5575
G01 X21.7287 Y47.5406
G01 X21.7699 Y47.5256
G01 X21.7833 Y47.5217
G01 X21.8129 Y47.5143
G01 X21.8321 Y47.5104
G01 X21.8710 Y47.5049
G01 X21.9151 Y47.5026
G01 X21.9249 Y47.5026
G01 X21.9592 Y47.5042
G01 X21.9739 Y47.5054
G01 X22.0175 Y47.5121
G01 X22.0557 Y47.5214
G01 X22.0698 Y47.5255
G01 X22.1068 Y47.5387
G01 X22.1159 Y47.5425
G01 X22.1469 Y47.5571
G01 X22.1642 Y47.5664
G01 X22.1937 Y47.5841
G01 X22.2058 Y47.5924
G01 X22.2334 Y47.6129
G01 X22.2410 Y47.6192
G01 X22.2664 Y47.6422
G01 X22.2770 Y47.6525
G01 X22.3001 Y47.6779
G01 X22.3096 Y47.6891
G01 X22.3330 Y47.7207
G01 X22.3410 Y47.7330
G01 X22.3561 Y47.7583
G01 X22.3630 Y47.7707
G01 X22.3780 Y47.8022
G01 X22.3838 Y47.8157
G01 X22.3985 Y47.8574
G01 X22.4082 Y47.8954
G01 X22.4113 Y47.9098
G01 X22.4176 Y47.9535
G01 X22.4200 Y48.0025
G01 X22.4176 Y48.0515
G01 X22.4121 Y48.0904
G01 X22.4094 Y48.1048
G01 X22.3985 Y48.1476
G01 X22.3855 Y48.1847
G01 X22.3780 Y48.2028
G01 X22.3632 Y48.2338
G01 X22.3586 Y48.2425
G01 X22.3357 Y48.2803
G01 X22.3096 Y48.3159
G01 X22.3033 Y48.3235
G01 X22.2803 Y48.3489
G01 X22.2664 Y48.3628
G01 X22.2372 Y48.3890
G01 X22.1978 Y48.4182
G01 X22.1557 Y48.4435
G01 X22.1203 Y48.4605
G01 X22.1022 Y48.4680
G01 X22.0698 Y48.4795
G01 X22.0604 Y48.4823
G01 X22.0175 Y48.4929
G01 X21.9739 Y48.4996
G01 X21.9592 Y48.5008
G01 X21.9200 Y48.5025
G01 X21.8710 Y48.5001
G01 X21.8225 Y48.4929
G01 X21.7796 Y48.4823
G01 X21.7655 Y48.4779
G01 X21.7287 Y48.4644
G01 X21.6887 Y48.4457
G01 X21.6758 Y48.4386
G01 X21.6463 Y48.4209
G01 X21.6382 Y48.4155
G01 X21.6207 Y48.4026
G01 X20.0275 Y48.4026
G01 X20.0275 Y48.9200
G01 X20.0258 Y48.9543
G01 X20.0225 Y48.9786
G01 X20.0198 Y48.9931
G01 X20.0124 Y49.0216
G01 X20.0044 Y49.0448
G01 X19.9989 Y49.0585
G01 X19.9862 Y49.0850
G01 X19.9738 Y49.1062
G01 X19.9657 Y49.1185
G01 X19.9511 Y49.1382
G01 X19.9449 Y49.1458
G01 X19.9284 Y49.1640
G01 X19.9179 Y49.1743
G01 X19.9033 Y49.1874
G01 X19.8918 Y49.1966
G01 X19.8719 Y49.2110
G01 X19.8510 Y49.2238
G01 X19.8381 Y49.2309
G01 X19.8160 Y49.2414
G01 X19.8069 Y49.2452
G01 X19.7840 Y49.2534
G01 X19.7706 Y49.2573
G01 X19.7506 Y49.2623
G01 X19.7410 Y49.2642
G01 X19.7161 Y49.2678
G01 X19.7013 Y49.2929
G01 X19.6929 Y49.3050
G01 X19.6781 Y49.3246
G01 X19.6585 Y49.3465
G01 X18.9765 Y50.0285
G01 X18.9583 Y50.0450
G01 X18.9468 Y50.0542
G01 X18.9270 Y50.0686
G01 X18.9061 Y50.0814
G01 X18.8932 Y50.0885
G01 X18.8710 Y50.0990
G01 X18.8573 Y50.1045
G01 X18.8341 Y50.1125
G01 X18.8056 Y50.1198
G01 X18.7960 Y50.1217
G01 X18.7766 Y50.1247
G01 X18.7619 Y50.1263
G01 X18.7325 Y50.1276
G01 X16.2626 Y50.1275
G01 X16.2332 Y50.1259
G01 X16.2040 Y50.1217
G01 X16.1944 Y50.1198
G01 X16.1753 Y50.1151
G01 X16.1566 Y50.1094
G01 X16.1381 Y50.1028
G01 X16.1290 Y50.0990
G01 X16.1025 Y50.0862
G01 X16.0730 Y50.0686
G01 X16.0492 Y50.0512
G01 X16.0380 Y50.0417
G01 X16.0200 Y50.0250
G01 X15.3432 Y49.3479
G01 X15.3269 Y49.3296
G01 X15.3092 Y49.3060
G01 X15.3012 Y49.2937
G01 X15.2888 Y49.2725
G01 X15.2760 Y49.2460
G01 X15.2705 Y49.2323
G01 X15.2625 Y49.2091
G01 X15.2552 Y49.1806
G01 X15.2533 Y49.1710
G01 X15.2497 Y49.1467
G01 X15.2487 Y49.1369
G01 X15.2477 Y49.1173
G01 X15.2477 Y49.0977
G01 X15.2487 Y49.0781
G01 X15.2499 Y49.0666
G01 X15.2423 Y49.0494
G01 X15.2341 Y49.0265
G01 X15.2302 Y49.0131
G01 X15.2252 Y48.9931
G01 X15.2233 Y48.9835
G01 X15.2197 Y48.9592
G01 X15.2188 Y48.9494
G01 X15.2176 Y48.9249
G01 X15.2177 Y47.2602
G01 X15.2188 Y47.2406
G01 X15.2204 Y47.2260
G01 X15.2242 Y47.2017
G01 X15.2300 Y47.1779
G01 X15.2341 Y47.1637
G01 X15.2423 Y47.1406
G01 X15.2461 Y47.1315
G01 X15.2566 Y47.1094
G01 X15.2637 Y47.0965
G01 X15.2765 Y47.0756
G01 X15.2971 Y47.0478
G01 X15.3200 Y47.0225
G01 X15.3380 Y47.0059
G01 X15.3493 Y46.9964
G01 X15.3731 Y46.9790
G01 X15.3940 Y46.9662
G01 X15.4064 Y46.9593
G01 X15.4336 Y46.9466
G01 X15.4612 Y46.9366
G01 X15.4754 Y46.9325
G01 X15.4992 Y46.9267
G01 X15.5283 Y46.9222
G01 X15.5430 Y46.9210
G01 X15.5675 Y46.9200
G01 X15.8675 Y46.9200
G01 X15.9018 Y46.9217
G01 X15.9310 Y46.9258
G01 X15.9454 Y46.9289
G01 X15.9691 Y46.9351
G01 X15.9923 Y46.9431
G01 X16.0060 Y46.9486
G01 X16.0325 Y46.9613
G01 X16.0537 Y46.9737
G01 X16.0660 Y46.9818
G01 X16.0858 Y46.9965
G01 X16.0970 Y47.0059
G01 X16.1150 Y47.0225
G01 X16.1316 Y47.0405
G01 X16.1411 Y47.0518
G01 X16.1585 Y47.0756
G01 X16.1713 Y47.0965
G01 X16.1782 Y47.1089
G01 X16.1889 Y47.1315
G01 X16.1944 Y47.1452
G01 X16.2023 Y47.1679
G01 X16.2098 Y47.1969
G01 X16.2117 Y47.2065
G01 X16.2153 Y47.2308
G01 X16.2162 Y47.2406
G01 X16.2174 Y47.2651
G01 X16.2174 Y48.9249
G01 X16.2158 Y48.9543
G01 X16.2108 Y48.9883
G01 X16.2024 Y49.0216
G01 X16.1927 Y49.0494
G01 X16.1889 Y49.0585
G01 X16.1784 Y49.0806
G01 X16.1738 Y49.0893
G01 X16.1638 Y49.1062
G01 X16.1529 Y49.1225
G01 X16.1411 Y49.1382
G01 X16.1330 Y49.1479
G01 X16.4125 Y49.4274
G01 X18.5875 Y49.4274
G01 X19.0330 Y48.9817
G01 X19.0292 Y48.9543
G01 X19.0275 Y48.9200
G01 X19.0276 Y47.2651
G01 X19.0292 Y47.2357
G01 X19.0325 Y47.2114
G01 X19.0352 Y47.1969
G01 X19.0426 Y47.1684
G01 X19.0506 Y47.1452
G01 X19.0561 Y47.1315
G01 X19.0688 Y47.1050
G01 X19.0812 Y47.0838
G01 X19.0893 Y47.0715
G01 X19.1040 Y47.0517
G01 X19.1104 Y47.0439
G01 X19.1266 Y47.0260
G01 X19.1371 Y47.0157
G01 X19.1555 Y46.9994
G01 X19.1831 Y46.9790
G01 X19.2122 Y46.9615
G01 X19.2346 Y46.9506
G01 X19.2481 Y46.9448
G01 X19.2712 Y46.9366
G01 X19.2806 Y46.9337
G01 X19.3044 Y46.9277
G01 X19.3189 Y46.9250
G01 X19.3383 Y46.9222
G01 X19.3481 Y46.9213
G01 X19.3775 Y46.9200
G01 X19.6775 Y46.9200
G01 X19.7069 Y46.9213
G01 X19.7215 Y46.9229
G01 X19.7458 Y46.9267
G01 X19.7791 Y46.9351
G01 X19.8114 Y46.9466
G01 X19.8337 Y46.9569
G01 X19.8468 Y46.9637
G01 X19.8678 Y46.9763
G01 X19.8760 Y46.9818
G01 X19.8958 Y46.9965
G01 X19.9036 Y47.0029
G01 X19.9215 Y47.0191
G01 X19.9284 Y47.0260
G01 X19.9449 Y47.0442
G01 X19.9541 Y47.0557
G01 X19.9685 Y47.0756
G01 X19.9813 Y47.0965
G01 X19.9882 Y47.1089
G01 X19.9969 Y47.1271
G01 X20.0027 Y47.1406
G01 X20.0109 Y47.1635
G01 X20.0136 Y47.1724
G01 X20.0186 Y47.1921
G01 X20.0217 Y47.2065
G01 X20.0253 Y47.2308
G01 X20.0262 Y47.2406
G01 X20.0274 Y47.2651
G01 X20.0275 Y47.7024
G01 X20.1599 Y47.7024
G01 X20.1599 Y46.8125
G01 X18.5674 Y45.2200
G01 X18.1651 Y45.2199
G01 X18.1320 Y45.2183
G01 X18.1174 Y45.2167
G01 X18.0846 Y45.2116
G01 X18.0525 Y45.2038
G01 X18.0383 Y45.1997
G01 X18.0071 Y45.1885
G01 X17.9981 Y45.1848
G01 X17.9725 Y45.1728
G01 X17.9595 Y45.1660
G01 X17.9352 Y45.1515
G01 X17.9189 Y45.1406
G01 X17.8963 Y45.1238
G01 X17.8887 Y45.1175
G01 X17.8678 Y45.0986
G01 X17.8572 Y45.0883
G01 X17.8318 Y45.0600
G01 X17.8119 Y45.0336
G01 X17.8036 Y45.0214
G01 X17.7865 Y44.9930
G01 X17.7797 Y44.9800
G01 X17.7658 Y44.9499
G01 X17.7544 Y44.9188
G01 X17.7500 Y44.9048
G01 X17.7419 Y44.8727
G01 X17.7392 Y44.8582
G01 X17.7346 Y44.8254
G01 X17.7325 Y44.7825
G01 X17.7325 Y44.3075
G01 X17.7342 Y44.2695
G01 X17.7358 Y44.2549
G01 X17.7409 Y44.2221
G01 X17.7500 Y44.1852
G01 X17.7544 Y44.1712
G01 X17.7658 Y44.1401
G01 X17.7797 Y44.1100
G01 X17.7865 Y44.0970
G01 X17.8036 Y44.0686
G01 X17.8119 Y44.0564
G01 X17.8318 Y44.0300
G01 X17.8539 Y44.0053
G01 X17.8642 Y43.9947
G01 X17.8850 Y43.9757
G01 X17.8963 Y43.9662
G01 X17.9229 Y43.9465
G01 X17.9312 Y43.9410
G01 X17.9449 Y43.9327
G01 X17.9449 Y43.1573
G01 X17.9311 Y43.1489
G01 X17.9229 Y43.1435
G01 X17.9002 Y43.1267
G01 X17.8887 Y43.1175
G01 X17.8606 Y43.0919
G01 X17.8382 Y43.0675
G01 X17.8287 Y43.0562
G01 X17.8062 Y43.0256
G01 X17.7842 Y42.9887
G01 X17.7658 Y42.9499
G01 X17.7513 Y42.9095
G01 X17.7419 Y42.8727
G01 X17.7392 Y42.8582
G01 X17.7346 Y42.8254
G01 X17.7327 Y42.7923
G01 X17.7325 Y42.4558
G01 X17.0543 Y41.7776
G01 X14.3307 Y41.7776
G01 X13.1625 Y42.9458
G01 X13.1625 Y43.3150
G01 X13.1611 Y43.3481
G01 X13.1592 Y43.3676
G01 X13.1550 Y43.3955
G01 X13.1531 Y43.4052
G01 X13.1437 Y43.4420
G01 X13.1310 Y43.4779
G01 X13.1252 Y43.4914
G01 X13.1108 Y43.5212
G01 X13.0888 Y43.5581
G01 X13.0632 Y43.5925
G01 X13.0411 Y43.6172
G01 X13.0308 Y43.6278
G01 X13.0100 Y43.6468
G01 X12.9987 Y43.6563
G01 X12.9721 Y43.6760
G01 X12.9598 Y43.6840
G01 X12.9312 Y43.7008
G01 X12.9014 Y43.7152
G01 X12.8879 Y43.7210
G01 X12.8613 Y43.7306
G01 X12.8425 Y43.7363
G01 X12.8152 Y43.7431
G01 X12.8007 Y43.7458
G01 X12.7679 Y43.7504
G01 X12.7250 Y43.7525
G01 X12.2451 Y43.7524
G01 X12.2071 Y43.7504
G01 X12.1743 Y43.7458
G01 X12.1598 Y43.7431
G01 X12.1230 Y43.7337
G01 X12.0871 Y43.7210
G01 X12.0736 Y43.7152
G01 X12.0438 Y43.7008
G01 X12.0152 Y43.6840
G01 X12.0029 Y43.6760
G01 X11.9725 Y43.6532
G01 X11.9478 Y43.6311
G01 X11.9372 Y43.6208
G01 X11.9118 Y43.5925
G01 X11.8919 Y43.5661
G01 X11.8836 Y43.5539
G01 X11.8665 Y43.5255
G01 X11.8597 Y43.5125
G01 X11.8477 Y43.4869
G01 X11.8440 Y43.4779
G01 X11.8328 Y43.4467
G01 X11.8300 Y43.4373
G01 X11.8262 Y43.4226
G01 X9.6657 Y43.4226
G01 X5.5375 Y47.5508
G01 X5.5375 Y48.8950
G01 X5.5370 Y48.9097
G01 X5.5353 Y48.9243
G01 X5.5337 Y48.9340
G01 X5.5315 Y48.9436
G01 X5.5274 Y48.9577
G01 X5.5223 Y48.9715
G01 X5.5183 Y48.9805
G01 X5.5139 Y48.9893
G01 X5.5065 Y49.0020
G01 X5.4981 Y49.0141
G01 X5.4921 Y49.0219
G01 X5.4823 Y49.0329
G01 X5.4718 Y49.0432
G01 X5.4644 Y49.0496
G01 X5.4527 Y49.0585
G01 X5.4445 Y49.0640
G01 X5.4318 Y49.0714
G01 X5.4230 Y49.0758
G01 X5.4095 Y49.0816
G01 X5.4002 Y49.0849
G01 X5.3861 Y49.0890
G01 X5.3717 Y49.0921
G01 X5.3620 Y49.0935
G01 X5.3522 Y49.0945
G01 X5.3375 Y49.0950
G01 X3.6375 Y49.0950
G01 X3.6228 Y49.0945
G01 X3.6082 Y49.0928
G01 X3.5937 Y49.0901
G01 X3.5794 Y49.0864
G01 X3.5655 Y49.0816
G01 X3.5520 Y49.0758
G01 X3.5389 Y49.0690
G01 X3.5305 Y49.0640
G01 X3.5223 Y49.0585
G01 X3.5106 Y49.0496
G01 X3.4996 Y49.0398
G01 X3.4893 Y49.0293
G01 X3.4829 Y49.0219
G01 X3.4740 Y49.0102
G01 X3.4685 Y49.0020
G01 X3.4611 Y48.9893
G01 X3.4547 Y48.9760
G01 X3.4492 Y48.9624
G01 X3.4461 Y48.9531
G01 X3.4424 Y48.9388
G01 X3.4390 Y48.9195
G01 X3.4380 Y48.9097
G01 X3.4375 Y48.8950
G01 X3.4375 Y48.4430
G01 X1.4768 Y48.4488
G01 X1.4752 Y67.5499
G01 X3.4375 Y67.5499
G01 X3.4376 Y67.1901
G01 X3.4390 Y67.1705
G01 X3.4413 Y67.1560
G01 X3.4435 Y67.1464
G01 X3.4476 Y67.1323
G01 X3.4509 Y67.1230
G01 X3.4547 Y67.1140
G01 X3.4611 Y67.1007
G01 X3.4685 Y67.0880
G01 X3.4740 Y67.0798
G01 X3.4829 Y67.0681
G01 X3.4893 Y67.0607
G01 X3.4961 Y67.0536
G01 X3.5069 Y67.0436
G01 X3.5145 Y67.0373
G01 X3.5264 Y67.0287
G01 X3.5389 Y67.0210
G01 X3.5476 Y67.0164
G01 X3.5565 Y67.0122
G01 X3.5701 Y67.0067
G01 X3.5842 Y67.0022
G01 X3.6033 Y66.9979
G01 X3.6179 Y66.9960
G01 X3.6375 Y66.9950
G01 X4.9617 Y66.9950
G01 X9.2171 Y62.7396
G01 X9.2462 Y62.7132
G01 X9.2777 Y62.6898
G01 X9.3111 Y62.6698
G01 X9.3202 Y62.6652
G01 X9.3469 Y62.6529
G01 X9.3839 Y62.6396
G01 X9.4219 Y62.6301
G01 X9.4510 Y62.6255
G01 X9.4615 Y62.6243
G01 X9.5000 Y62.6224
G01 X11.8574 Y62.6224
G01 X11.8665 Y62.6045
G01 X11.8836 Y62.5761
G01 X11.8919 Y62.5639
G01 X11.9087 Y62.5413
G01 X11.9182 Y62.5300
G01 X11.9406 Y62.5056
G01 X11.9687 Y62.4800
G01 X11.9802 Y62.4708
G01 X12.0070 Y62.4512
G01 X12.0438 Y62.4292
G01 X12.0826 Y62.4108
G01 X12.1183 Y62.3978
G01 X12.1325 Y62.3937
G01 X12.1598 Y62.3869
G01 X12.1695 Y62.3850
G01 X12.2071 Y62.3796
G01 X12.2402 Y62.3777
G01 X12.5992 Y62.3775
G01 X13.8856 Y61.0912
G01 X13.9112 Y61.0682
G01 X13.9347 Y61.0505
G01 X13.9468 Y61.0422
G01 X13.9761 Y61.0248
G01 X14.0074 Y61.0098
G01 X14.0210 Y61.0043
G01 X14.0489 Y60.9946
G01 X14.0821 Y60.9861
G01 X14.0966 Y60.9834
G01 X14.1265 Y60.9793
G01 X14.1650 Y60.9774
G01 X17.2249 Y60.9775
G01 X17.2592 Y60.9793
G01 X17.2981 Y60.9851
G01 X17.3361 Y60.9946
G01 X17.3640 Y61.0043
G01 X17.3776 Y61.0098
G01 X17.3998 Y61.0202
G01 X17.4171 Y61.0295
G01 X17.4382 Y61.0422
G01 X17.4463 Y61.0476
G01 X17.4661 Y61.0622
G01 X17.4776 Y61.0714
G01 X17.5029 Y61.0946
G01 X18.2783 Y61.8700
G01 X18.6749 Y61.8701
G01 X18.7129 Y61.8721
G01 X18.7457 Y61.8767
G01 X18.7602 Y61.8794
G01 X18.7970 Y61.8888
G01 X18.8374 Y61.9033
G01 X18.8762 Y61.9217
G01 X18.9131 Y61.9437
G01 X18.9475 Y61.9693
G01 X18.9794 Y61.9981
G01 X19.0082 Y62.0300
G01 X19.0338 Y62.0645
G01 X19.0558 Y62.1013
G01 X19.0742 Y62.1401
G01 X19.0887 Y62.1805
G01 X19.0969 Y62.2126
G01 X19.1000 Y62.2270
G01 X19.1049 Y62.2597
G01 X19.1061 Y62.2744
G01 X19.1075 Y62.3075
G01 X19.1075 Y62.7825
G01 X19.1054 Y62.8254
G01 X19.1000 Y62.8630
G01 X19.0981 Y62.8727
G01 X19.0913 Y62.9000
G01 X19.0856 Y62.9188
G01 X19.0742 Y62.9499
G01 X19.0558 Y62.9887
G01 X19.0364 Y63.0214
G01 X19.0281 Y63.0336
G01 X19.0082 Y63.0600
G01 X18.9794 Y63.0919
G01 X18.9475 Y63.1207
G01 X18.9211 Y63.1406
G01 X18.9048 Y63.1515
G01 X18.8805 Y63.1660
G01 X18.8719 Y63.1706
G01 X18.8374 Y63.1867
G01 X18.8017 Y63.1997
G01 X18.7923 Y63.2025
G01 X18.7649 Y63.2094
G01 X18.7554 Y63.2116
G01 X18.7451 Y63.2134
G01 X18.7451 Y63.8766
G01 X18.7602 Y63.8794
G01 X18.7970 Y63.8888
G01 X18.8283 Y63.8998
G01 X18.8419 Y63.9052
G01 X18.8762 Y63.9217
G01 X18.9048 Y63.9385
G01 X18.9171 Y63.9465
G01 X18.9475 Y63.9693
G01 X18.9758 Y63.9947
G01 X18.9861 Y64.0053
G01 X19.0082 Y64.0300
G01 X19.0281 Y64.0564
G01 X19.0365 Y64.0687
G01 X19.0535 Y64.0970
G01 X19.0603 Y64.1100
G01 X19.0742 Y64.1401
G01 X19.0887 Y64.1805
G01 X19.0969 Y64.2126
G01 X19.1000 Y64.2270
G01 X19.1042 Y64.2549
G01 X19.1061 Y64.2744
G01 X19.1075 Y64.3075
G01 X19.1075 Y64.7699
G01 X20.7575 Y66.4200
G01 X20.7775 Y66.4417
G01 X20.7867 Y66.4532
G01 X20.8011 Y66.4730
G01 X20.8164 Y66.4982
G01 X20.8232 Y66.5112
G01 X20.8334 Y66.5335
G01 X20.8419 Y66.5566
G01 X20.8464 Y66.5706
G01 X20.8533 Y66.5992
G01 X20.8572 Y66.6234
G01 X20.8588 Y66.6381
G01 X20.8600 Y66.6626
G01 X20.8601 Y67.7024
G01 X21.5205 Y67.7024
G01 X21.5304 Y67.6891
G01 X21.5367 Y67.6815
G01 X21.5597 Y67.6561
G01 X21.5700 Y67.6455
G01 X21.6028 Y67.6160
G01 X21.6382 Y67.5895
G01 X21.6464 Y67.5840
G01 X21.6758 Y67.5664
G01 X21.6922 Y67.5575
G01 X21.7287 Y67.5406
G01 X21.7699 Y67.5256
G01 X21.7833 Y67.5217
G01 X21.8129 Y67.5143
G01 X21.8321 Y67.5104
G01 X21.8710 Y67.5049
G01 X21.9151 Y67.5026
G01 X21.9249 Y67.5026
G01 X21.9592 Y67.5042
G01 X21.9739 Y67.5054
G01 X22.0175 Y67.5121
G01 X22.0557 Y67.5214
G01 X22.0698 Y67.5255
G01 X22.1068 Y67.5387
G01 X22.1159 Y67.5425
G01 X22.1469 Y67.5571
G01 X22.1642 Y67.5664
G01 X22.1937 Y67.5841
G01 X22.2058 Y67.5924
G01 X22.2334 Y67.6129
G01 X22.2410 Y67.6192
G01 X22.2664 Y67.6422
G01 X22.2770 Y67.6525
G01 X22.3065 Y67.6853
G01 X22.3301 Y67.7167
G01 X22.3384 Y67.7288
G01 X22.3608 Y67.7665
G01 X22.3654 Y67.7756
G01 X22.3819 Y67.8112
G01 X22.3985 Y67.8574
G01 X22.4104 Y67.9050
G01 X22.4176 Y67.9535
G01 X22.4200 Y68.0025
G01 X22.4176 Y68.0515
G01 X22.4113 Y68.0952
G01 X22.4094 Y68.1048
G01 X22.4011 Y68.1382
G01 X22.3954 Y68.1570
G01 X22.3819 Y68.1938
G01 X22.3610 Y68.2382
G01 X22.3357 Y68.2803
G01 X22.3125 Y68.3120
G01 X22.3033 Y68.3235
G01 X22.2803 Y68.3489
G01 X22.2664 Y68.3628
G01 X22.2372 Y68.3890
G01 X22.1978 Y68.4182
G01 X22.1557 Y68.4435
G01 X22.1203 Y68.4605
G01 X22.1022 Y68.4680
G01 X22.0698 Y68.4795
G01 X22.0604 Y68.4823
G01 X22.0175 Y68.4929
G01 X21.9739 Y68.4996
G01 X21.9592 Y68.5008
G01 X21.9200 Y68.5025
G01 X21.8710 Y68.5001
G01 X21.8225 Y68.4929
G01 X21.7796 Y68.4823
G01 X21.7655 Y68.4779
G01 X21.7287 Y68.4644
G01 X21.6887 Y68.4457
G01 X21.6758 Y68.4386
G01 X21.6463 Y68.4209
G01 X21.6382 Y68.4155
G01 X21.6207 Y68.4026
G01 X20.0275 Y68.4026
G01 X20.0275 Y68.9200
G01 X20.0258 Y68.9543
G01 X20.0225 Y68.9786
G01 X20.0198 Y68.9931
G01 X20.0124 Y69.0216
G01 X20.0044 Y69.0448
G01 X19.9989 Y69.0585
G01 X19.9862 Y69.0850
G01 X19.9738 Y69.1062
G01 X19.9657 Y69.1185
G01 X19.9511 Y69.1382
G01 X19.9449 Y69.1458
G01 X19.9284 Y69.1640
G01 X19.9179 Y69.1743
G01 X19.9033 Y69.1874
G01 X19.8918 Y69.1966
G01 X19.8719 Y69.2110
G01 X19.8510 Y69.2238
G01 X19.8381 Y69.2309
G01 X19.8160 Y69.2414
G01 X19.8069 Y69.2452
G01 X19.7840 Y69.2534
G01 X19.7706 Y69.2573
G01 X19.7506 Y69.2623
G01 X19.7410 Y69.2642
G01 X19.7161 Y69.2678
G01 X19.7013 Y69.2929
G01 X19.6929 Y69.3050
G01 X19.6781 Y69.3246
G01 X19.6585 Y69.3465
G01 X18.9765 Y70.0285
G01 X18.9583 Y70.0450
G01 X18.9468 Y70.0542
G01 X18.9270 Y70.0686
G01 X18.9061 Y70.0814
G01 X18.8932 Y70.0885
G01 X18.8710 Y70.0990
G01 X18.8573 Y70.1045
G01 X18.8341 Y70.1125
G01 X18.8056 Y70.1198
G01 X18.7960 Y70.1217
G01 X18.7766 Y70.1247
G01 X18.7619 Y70.1263
G01 X18.7325 Y70.1276
G01 X16.2626 Y70.1275
G01 X16.2332 Y70.1259
G01 X16.2040 Y70.1217
G01 X16.1944 Y70.1198
G01 X16.1753 Y70.1151
G01 X16.1566 Y70.1094
G01 X16.1381 Y70.1028
G01 X16.1290 Y70.0990
G01 X16.1025 Y70.0862
G01 X16.0730 Y70.0686
G01 X16.0492 Y70.0512
G01 X16.0380 Y70.0417
G01 X16.0200 Y70.0250
G01 X15.3432 Y69.3479
G01 X15.3269 Y69.3296
G01 X15.3092 Y69.3060
G01 X15.3012 Y69.2937
G01 X15.2888 Y69.2725
G01 X15.2760 Y69.2460
G01 X15.2705 Y69.2323
G01 X15.2625 Y69.2091
G01 X15.2552 Y69.1806
G01 X15.2533 Y69.1710
G01 X15.2497 Y69.1467
G01 X15.2487 Y69.1369
G01 X15.2477 Y69.1173
G01 X15.2477 Y69.0977
G01 X15.2487 Y69.0781
G01 X15.2499 Y69.0666
G01 X15.2423 Y69.0494
G01 X15.2341 Y69.0265
G01 X15.2302 Y69.0131
G01 X15.2252 Y68.9931
G01 X15.2233 Y68.9835
G01 X15.2197 Y68.9592
G01 X15.2188 Y68.9494
G01 X15.2176 Y68.9249
G01 X15.2177 Y67.2602
G01 X15.2188 Y67.2406
G01 X15.2204 Y67.2260
G01 X15.2242 Y67.2017
G01 X15.2300 Y67.1779
G01 X15.2341 Y67.1637
G01 X15.2423 Y67.1406
G01 X15.2461 Y67.1315
G01 X15.2566 Y67.1094
G01 X15.2637 Y67.0965
G01 X15.2765 Y67.0756
G01 X15.2971 Y67.0478
G01 X15.3200 Y67.0225
G01 X15.3380 Y67.0059
G01 X15.3493 Y66.9964
G01 X15.3731 Y66.9790
G01 X15.3940 Y66.9662
G01 X15.4064 Y66.9593
G01 X15.4336 Y66.9466
G01 X15.4612 Y66.9366
G01 X15.4754 Y66.9325
G01 X15.4992 Y66.9267
G01 X15.5283 Y66.9222
G01 X15.5430 Y66.9210
G01 X15.5675 Y66.9200
G01 X15.8675 Y66.9200
G01 X15.9018 Y66.9217
G01 X15.9310 Y66.9258
G01 X15.9454 Y66.9289
G01 X15.9691 Y66.9351
G01 X15.9923 Y66.9431
G01 X16.0060 Y66.9486
G01 X16.0325 Y66.9613
G01 X16.0537 Y66.9737
G01 X16.0660 Y66.9818
G01 X16.0858 Y66.9965
G01 X16.0970 Y67.0059
G01 X16.1150 Y67.0225
G01 X16.1316 Y67.0405
G01 X16.1411 Y67.0518
G01 X16.1585 Y67.0756
G01 X16.1713 Y67.0965
G01 X16.1782 Y67.1089
G01 X16.1889 Y67.1315
G01 X16.1944 Y67.1452
G01 X16.2023 Y67.1679
G01 X16.2098 Y67.1969
G01 X16.2117 Y67.2065
G01 X16.2153 Y67.2308
G01 X16.2162 Y67.2406
G01 X16.2174 Y67.2651
G01 X16.2174 Y68.9249
G01 X16.2158 Y68.9543
G01 X16.2108 Y68.9883
G01 X16.2024 Y69.0216
G01 X16.1927 Y69.0494
G01 X16.1889 Y69.0585
G01 X16.1784 Y69.0806
G01 X16.1738 Y69.0893
G01 X16.1638 Y69.1062
G01 X16.1529 Y69.1225
G01 X16.1411 Y69.1382
G01 X16.1330 Y69.1479
G01 X16.4125 Y69.4274
G01 X18.5875 Y69.4274
G01 X19.0330 Y68.9817
G01 X19.0292 Y68.9543
G01 X19.0275 Y68.9200
G01 X19.0276 Y67.2651
G01 X19.0292 Y67.2357
G01 X19.0325 Y67.2114
G01 X19.0352 Y67.1969
G01 X19.0426 Y67.1684
G01 X19.0506 Y67.1452
G01 X19.0561 Y67.1315
G01 X19.0688 Y67.1050
G01 X19.0812 Y67.0838
G01 X19.0893 Y67.0715
G01 X19.1040 Y67.0517
G01 X19.1104 Y67.0439
G01 X19.1266 Y67.0260
G01 X19.1371 Y67.0157
G01 X19.1555 Y66.9994
G01 X19.1831 Y66.9790
G01 X19.2122 Y66.9615
G01 X19.2346 Y66.9506
G01 X19.2481 Y66.9448
G01 X19.2712 Y66.9366
G01 X19.2806 Y66.9337
G01 X19.3044 Y66.9277
G01 X19.3189 Y66.9250
G01 X19.3383 Y66.9222
G01 X19.3481 Y66.9213
G01 X19.3775 Y66.9200
G01 X19.6775 Y66.9200
G01 X19.7069 Y66.9213
G01 X19.7215 Y66.9229
G01 X19.7458 Y66.9267
G01 X19.7791 Y66.9351
G01 X19.8114 Y66.9466
G01 X19.8337 Y66.9569
G01 X19.8468 Y66.9637
G01 X19.8678 Y66.9763
G01 X19.8760 Y66.9818
G01 X19.8958 Y66.9965
G01 X19.9036 Y67.0029
G01 X19.9215 Y67.0191
G01 X19.9284 Y67.0260
G01 X19.9449 Y67.0442
G01 X19.9541 Y67.0557
G01 X19.9685 Y67.0756
G01 X19.9813 Y67.0965
G01 X19.9882 Y67.1089
G01 X19.9969 Y67.1271
G01 X20.0027 Y67.1406
G01 X20.0109 Y67.1635
G01 X20.0136 Y67.1724
G01 X20.0186 Y67.1921
G01 X20.0217 Y67.2065
G01 X20.0253 Y67.2308
G01 X20.0262 Y67.2406
G01 X20.0274 Y67.2651
G01 X20.0275 Y67.7024
G01 X20.1599 Y67.7024
G01 X20.1599 Y66.8125
G01 X18.5674 Y65.2200
G01 X18.1651 Y65.2199
G01 X18.1320 Y65.2183
G01 X18.1174 Y65.2167
G01 X18.0846 Y65.2116
G01 X18.0525 Y65.2038
G01 X18.0383 Y65.1997
G01 X18.0071 Y65.1885
G01 X17.9981 Y65.1848
G01 X17.9725 Y65.1728
G01 X17.9595 Y65.1660
G01 X17.9352 Y65.1515
G01 X17.9189 Y65.1406
G01 X17.8963 Y65.1238
G01 X17.8887 Y65.1175
G01 X17.8678 Y65.0986
G01 X17.8572 Y65.0883
G01 X17.8318 Y65.0600
G01 X17.8119 Y65.0336
G01 X17.8036 Y65.0214
G01 X17.7865 Y64.9930
G01 X17.7797 Y64.9800
G01 X17.7658 Y64.9499
G01 X17.7544 Y64.9188
G01 X17.7500 Y64.9048
G01 X17.7419 Y64.8727
G01 X17.7392 Y64.8582
G01 X17.7346 Y64.8254
G01 X17.7325 Y64.7825
G01 X17.7325 Y64.3075
G01 X17.7342 Y64.2695
G01 X17.7358 Y64.2549
G01 X17.7409 Y64.2221
G01 X17.7500 Y64.1852
G01 X17.7544 Y64.1712
G01 X17.7658 Y64.1401
G01 X17.7797 Y64.1100
G01 X17.7865 Y64.0970
G01 X17.8036 Y64.0686
G01 X17.8119 Y64.0564
G01 X17.8318 Y64.0300
G01 X17.8539 Y64.0053
G01 X17.8642 Y63.9947
G01 X17.8850 Y63.9757
G01 X17.8963 Y63.9662
G01 X17.9229 Y63.9465
G01 X17.9312 Y63.9410
G01 X17.9449 Y63.9327
G01 X17.9449 Y63.1573
G01 X17.9311 Y63.1489
G01 X17.9229 Y63.1435
G01 X17.9002 Y63.1267
G01 X17.8887 Y63.1175
G01 X17.8606 Y63.0919
G01 X17.8382 Y63.0675
G01 X17.8287 Y63.0562
G01 X17.8062 Y63.0256
G01 X17.7842 Y62.9887
G01 X17.7658 Y62.9499
G01 X17.7513 Y62.9095
G01 X17.7419 Y62.8727
G01 X17.7392 Y62.8582
G01 X17.7346 Y62.8254
G01 X17.7327 Y62.7923
G01 X17.7325 Y62.4558
G01 X17.0543 Y61.7776
G01 X14.3307 Y61.7776
G01 X13.1625 Y62.9458
G01 X13.1625 Y63.3150
G01 X13.1611 Y63.3481
G01 X13.1592 Y63.3676
G01 X13.1550 Y63.3955
G01 X13.1531 Y63.4052
G01 X13.1437 Y63.4420
G01 X13.1310 Y63.4779
G01 X13.1252 Y63.4914
G01 X13.1108 Y63.5212
G01 X13.0888 Y63.5581
G01 X13.0632 Y63.5925
G01 X13.0411 Y63.6172
G01 X13.0308 Y63.6278
G01 X13.0100 Y63.6468
G01 X12.9987 Y63.6563
G01 X12.9721 Y63.6760
G01 X12.9598 Y63.6840
G01 X12.9312 Y63.7008
G01 X12.9014 Y63.7152
G01 X12.8879 Y63.7210
G01 X12.8613 Y63.7306
G01 X12.8425 Y63.7363
G01 X12.8152 Y63.7431
G01 X12.8007 Y63.7458
G01 X12.7679 Y63.7504
G01 X12.7250 Y63.7525
G01 X12.2451 Y63.7524
G01 X12.2071 Y63.7504
G01 X12.1743 Y63.7458
G01 X12.1598 Y63.7431
G01 X12.1230 Y63.7337
G01 X12.0871 Y63.7210
G01 X12.0736 Y63.7152
G01 X12.0438 Y63.7008
G01 X12.0152 Y63.6840
G01 X12.0029 Y63.6760
G01 X11.9725 Y63.6532
G01 X11.9478 Y63.6311
G01 X11.9372 Y63.6208
G01 X11.9118 Y63.5925
G01 X11.8919 Y63.5661
G01 X11.8836 Y63.5539
G01 X11.8665 Y63.5255
G01 X11.8597 Y63.5125
G01 X11.8477 Y63.4869
G01 X11.8440 Y63.4779
G01 X11.8328 Y63.4467
G01 X11.8300 Y63.4373
G01 X11.8262 Y63.4226
G01 X9.6657 Y63.4226
G01 X5.5375 Y67.5508
G01 X5.5375 Y68.8950
G01 X5.5370 Y68.9097
G01 X5.5360 Y68.9195
G01 X5.5337 Y68.9340
G01 X5.5303 Y68.9483
G01 X5.5274 Y68.9577
G01 X5.5223 Y68.9715
G01 X5.5161 Y68.9849
G01 X5.5115 Y68.9936
G01 X5.5038 Y69.0061
G01 X5.4981 Y69.0141
G01 X5.4889 Y69.0256
G01 X5.4823 Y69.0329
G01 X5.4718 Y69.0432
G01 X5.4644 Y69.0496
G01 X5.4527 Y69.0585
G01 X5.4403 Y69.0665
G01 X5.4318 Y69.0714
G01 X5.4230 Y69.0758
G01 X5.4095 Y69.0816
G01 X5.3956 Y69.0864
G01 X5.3861 Y69.0890
G01 X5.3717 Y69.0921
G01 X5.3620 Y69.0935
G01 X5.3522 Y69.0945
G01 X5.3375 Y69.0950
G01 X3.6375 Y69.0950
G01 X3.6228 Y69.0945
G01 X3.6082 Y69.0928
G01 X3.5937 Y69.0901
G01 X3.5794 Y69.0864
G01 X3.5655 Y69.0816
G01 X3.5520 Y69.0758
G01 X3.5389 Y69.0690
G01 X3.5305 Y69.0640
G01 X3.5184 Y69.0556
G01 X3.5069 Y69.0464
G01 X3.4996 Y69.0398
G01 X3.4893 Y69.0293
G01 X3.4829 Y69.0219
G01 X3.4740 Y69.0102
G01 X3.4660 Y68.9978
G01 X3.4611 Y68.9893
G01 X3.4547 Y68.9760
G01 X3.4492 Y68.9624
G01 X3.4461 Y68.9531
G01 X3.4424 Y68.9388
G01 X3.4404 Y68.9292
G01 X3.4385 Y68.9146
G01 X3.4375 Y68.8950
G01 X3.4375 Y68.4501
G01 X1.4751 Y68.4501
G01 X1.4734 Y87.5299
G01 X3.4375 Y87.5299
G01 X3.4376 Y87.1901
G01 X3.4390 Y87.1705
G01 X3.4413 Y87.1560
G01 X3.4435 Y87.1464
G01 X3.4476 Y87.1323
G01 X3.4509 Y87.1230
G01 X3.4547 Y87.1140
G01 X3.4611 Y87.1007
G01 X3.4685 Y87.0880
G01 X3.4740 Y87.0798
G01 X3.4829 Y87.0681
G01 X3.4893 Y87.0607
G01 X3.4961 Y87.0536
G01 X3.5069 Y87.0436
G01 X3.5145 Y87.0373
G01 X3.5264 Y87.0287
G01 X3.5389 Y87.0210
G01 X3.5476 Y87.0164
G01 X3.5565 Y87.0122
G01 X3.5701 Y87.0067
G01 X3.5842 Y87.0022
G01 X3.6033 Y86.9979
G01 X3.6179 Y86.9960
G01 X3.6375 Y86.9950
G01 X4.9617 Y86.9950
G01 X9.2171 Y82.7396
G01 X9.2462 Y82.7132
G01 X9.2777 Y82.6898
G01 X9.3111 Y82.6698
G01 X9.3202 Y82.6652
G01 X9.3469 Y82.6529
G01 X9.3839 Y82.6396
G01 X9.4219 Y82.6301
G01 X9.4510 Y82.6255
G01 X9.4615 Y82.6243
G01 X9.5000 Y82.6224
G01 X11.8574 Y82.6224
G01 X11.8665 Y82.6045
G01 X11.8836 Y82.5761
G01 X11.8919 Y82.5639
G01 X11.9087 Y82.5413
G01 X11.9182 Y82.5300
G01 X11.9406 Y82.5056
G01 X11.9687 Y82.4800
G01 X11.9802 Y82.4708
G01 X12.0070 Y82.4512
G01 X12.0438 Y82.4292
G01 X12.0826 Y82.4108
G01 X12.1183 Y82.3978
G01 X12.1325 Y82.3937
G01 X12.1598 Y82.3869
G01 X12.1695 Y82.3850
G01 X12.2071 Y82.3796
G01 X12.2402 Y82.3777
G01 X12.5992 Y82.3775
G01 X13.8856 Y81.0912
G01 X13.9112 Y81.0682
G01 X13.9347 Y81.0505
G01 X13.9468 Y81.0422
G01 X13.9761 Y81.0248
G01 X14.0074 Y81.0098
G01 X14.0210 Y81.0043
G01 X14.0489 Y80.9946
G01 X14.0821 Y80.9861
G01 X14.0966 Y80.9834
G01 X14.1265 Y80.9793
G01 X14.1650 Y80.9774
G01 X17.2249 Y80.9775
G01 X17.2592 Y80.9793
G01 X17.2981 Y80.9851
G01 X17.3361 Y80.9946
G01 X17.3640 Y81.0043
G01 X17.3776 Y81.0098
G01 X17.3998 Y81.0202
G01 X17.4171 Y81.0295
G01 X17.4382 Y81.0422
G01 X17.4463 Y81.0476
G01 X17.4661 Y81.0622
G01 X17.4776 Y81.0714
G01 X17.5029 Y81.0946
G01 X18.2783 Y81.8700
G01 X18.6749 Y81.8701
G01 X18.7129 Y81.8721
G01 X18.7457 Y81.8767
G01 X18.7602 Y81.8794
G01 X18.7970 Y81.8888
G01 X18.8374 Y81.9033
G01 X18.8762 Y81.9217
G01 X18.9131 Y81.9437
G01 X18.9475 Y81.9693
G01 X18.9794 Y81.9981
G01 X19.0082 Y82.0300
G01 X19.0338 Y82.0645
G01 X19.0558 Y82.1013
G01 X19.0742 Y82.1401
G01 X19.0887 Y82.1805
G01 X19.0969 Y82.2126
G01 X19.1000 Y82.2270
G01 X19.1049 Y82.2597
G01 X19.1061 Y82.2744
G01 X19.1075 Y82.3075
G01 X19.1075 Y82.7825
G01 X19.1054 Y82.8254
G01 X19.1000 Y82.8630
G01 X19.0981 Y82.8727
G01 X19.0913 Y82.9000
G01 X19.0856 Y82.9188
G01 X19.0742 Y82.9499
G01 X19.0558 Y82.9887
G01 X19.0364 Y83.0214
G01 X19.0281 Y83.0336
G01 X19.0082 Y83.0600
G01 X18.9794 Y83.0919
G01 X18.9475 Y83.1207
G01 X18.9211 Y83.1406
G01 X18.9048 Y83.1515
G01 X18.8805 Y83.1660
G01 X18.8719 Y83.1706
G01 X18.8374 Y83.1867
G01 X18.8017 Y83.1997
G01 X18.7923 Y83.2025
G01 X18.7649 Y83.2094
G01 X18.7554 Y83.2116
G01 X18.7451 Y83.2134
G01 X18.7451 Y83.8766
G01 X18.7602 Y83.8794
G01 X18.7970 Y83.8888
G01 X18.8283 Y83.8998
G01 X18.8419 Y83.9052
G01 X18.8762 Y83.9217
G01 X18.9048 Y83.9385
G01 X18.9171 Y83.9465
G01 X18.9475 Y83.9693
G01 X18.9758 Y83.9947
G01 X18.9861 Y84.0053
G01 X19.0082 Y84.0300
G01 X19.0281 Y84.0564
G01 X19.0365 Y84.0687
G01 X19.0535 Y84.0970
G01 X19.0603 Y84.1100
G01 X19.0742 Y84.1401
G01 X19.0887 Y84.1805
G01 X19.0969 Y84.2126
G01 X19.1000 Y84.2270
G01 X19.1042 Y84.2549
G01 X19.1061 Y84.2744
G01 X19.1075 Y84.3075
G01 X19.1075 Y84.7699
G01 X20.7575 Y86.4200
G01 X20.7775 Y86.4417
G01 X20.7867 Y86.4532
G01 X20.8011 Y86.4730
G01 X20.8164 Y86.4982
G01 X20.8232 Y86.5112
G01 X20.8334 Y86.5335
G01 X20.8419 Y86.5566
G01 X20.8464 Y86.5706
G01 X20.8533 Y86.5992
G01 X20.8572 Y86.6234
G01 X20.8588 Y86.6381
G01 X20.8600 Y86.6626
G01 X20.8601 Y87.7024
G01 X21.5205 Y87.7024
G01 X21.5304 Y87.6891
G01 X21.5367 Y87.6815
G01 X21.5630 Y87.6525
G01 X21.5736 Y87.6422
G01 X21.5990 Y87.6192
G01 X21.6066 Y87.6129
G01 X21.6423 Y87.5867
G01 X21.6758 Y87.5664
G01 X21.6924 Y87.5574
G01 X21.7197 Y87.5445
G01 X21.7332 Y87.5387
G01 X21.7744 Y87.5242
G01 X21.8129 Y87.5143
G01 X21.8321 Y87.5104
G01 X21.8710 Y87.5049
G01 X21.9200 Y87.5025
G01 X21.9592 Y87.5042
G01 X21.9788 Y87.5061
G01 X22.0127 Y87.5112
G01 X22.0223 Y87.5131
G01 X22.0651 Y87.5240
G01 X22.1113 Y87.5406
G01 X22.1557 Y87.5615
G01 X22.1978 Y87.5868
G01 X22.2372 Y87.6160
G01 X22.2736 Y87.6489
G01 X22.3065 Y87.6853
G01 X22.3330 Y87.7207
G01 X22.3410 Y87.7330
G01 X22.3608 Y87.7665
G01 X22.3800 Y87.8066
G01 X22.3855 Y87.8203
G01 X22.3971 Y87.8529
G01 X22.4000 Y87.8627
G01 X22.4082 Y87.8954
G01 X22.4113 Y87.9098
G01 X22.4164 Y87.9437
G01 X22.4183 Y87.9633
G01 X22.4199 Y87.9976
G01 X22.4199 Y88.0074
G01 X22.4180 Y88.0466
G01 X22.4164 Y88.0613
G01 X22.4104 Y88.1000
G01 X22.3985 Y88.1476
G01 X22.3819 Y88.1938
G01 X22.3654 Y88.2294
G01 X22.3561 Y88.2467
G01 X22.3384 Y88.2762
G01 X22.3301 Y88.2883
G01 X22.3065 Y88.3197
G01 X22.2736 Y88.3561
G01 X22.2372 Y88.3890
G01 X22.2058 Y88.4126
G01 X22.1937 Y88.4209
G01 X22.1642 Y88.4386
G01 X22.1469 Y88.4479
G01 X22.1113 Y88.4644
G01 X22.0651 Y88.4810
G01 X22.0175 Y88.4929
G01 X21.9788 Y88.4989
G01 X21.9641 Y88.5005
G01 X21.9249 Y88.5024
G01 X21.9102 Y88.5023
G01 X21.8759 Y88.5005
G01 X21.8612 Y88.4989
G01 X21.8225 Y88.4929
G01 X21.7796 Y88.4823
G01 X21.7655 Y88.4779
G01 X21.7287 Y88.4644
G01 X21.6887 Y88.4457
G01 X21.6758 Y88.4386
G01 X21.6463 Y88.4209
G01 X21.6382 Y88.4155
G01 X21.6207 Y88.4026
G01 X20.0275 Y88.4026
G01 X20.0275 Y88.9200
G01 X20.0258 Y88.9543
G01 X20.0217 Y88.9835
G01 X20.0186 Y88.9979
G01 X20.0124 Y89.0216
G01 X20.0027 Y89.0494
G01 X19.9969 Y89.0629
G01 X19.9862 Y89.0850
G01 X19.9712 Y89.1103
G01 X19.9629 Y89.1225
G01 X19.9481 Y89.1420
G01 X19.9318 Y89.1604
G01 X19.9215 Y89.1709
G01 X19.9033 Y89.1874
G01 X19.8918 Y89.1966
G01 X19.8719 Y89.2110
G01 X19.8510 Y89.2238
G01 X19.8381 Y89.2309
G01 X19.8114 Y89.2434
G01 X19.7884 Y89.2518
G01 X19.7751 Y89.2561
G01 X19.7506 Y89.2623
G01 X19.7361 Y89.2650
G01 X19.7118 Y89.2683
G01 X19.6824 Y89.2699
G01 X19.6649 Y89.2700
G01 X19.6513 Y89.2929
G01 X19.6429 Y89.3050
G01 X19.6281 Y89.3246
G01 X19.6085 Y89.3465
G01 X18.9265 Y90.0285
G01 X18.9083 Y90.0450
G01 X18.8968 Y90.0542
G01 X18.8770 Y90.0686
G01 X18.8561 Y90.0814
G01 X18.8432 Y90.0885
G01 X18.8210 Y90.0990
G01 X18.8073 Y90.1045
G01 X18.7841 Y90.1125
G01 X18.7556 Y90.1198
G01 X18.7460 Y90.1217
G01 X18.7266 Y90.1247
G01 X18.7119 Y90.1263
G01 X18.6825 Y90.1276
G01 X16.2126 Y90.1275
G01 X16.1832 Y90.1259
G01 X16.1540 Y90.1217
G01 X16.1444 Y90.1198
G01 X16.1253 Y90.1151
G01 X16.1066 Y90.1094
G01 X16.0881 Y90.1028
G01 X16.0790 Y90.0990
G01 X16.0525 Y90.0862
G01 X16.0230 Y90.0686
G01 X15.9992 Y90.0512
G01 X15.9880 Y90.0417
G01 X15.9700 Y90.0250
G01 X15.2932 Y89.3479
G01 X15.2769 Y89.3296
G01 X15.2592 Y89.3060
G01 X15.2512 Y89.2937
G01 X15.2388 Y89.2725
G01 X15.2260 Y89.2460
G01 X15.2205 Y89.2323
G01 X15.2125 Y89.2091
G01 X15.2052 Y89.1806
G01 X15.2025 Y89.1661
G01 X15.1997 Y89.1467
G01 X15.1987 Y89.1369
G01 X15.1974 Y89.1075
G01 X15.1987 Y89.0781
G01 X15.1997 Y89.0683
G01 X15.2025 Y89.0489
G01 X15.2052 Y89.0344
G01 X15.2125 Y89.0059
G01 X15.2224 Y88.9777
G01 X15.2197 Y88.9592
G01 X15.2188 Y88.9494
G01 X15.2175 Y88.9200
G01 X15.2175 Y87.2700
G01 X15.2188 Y87.2406
G01 X15.2204 Y87.2260
G01 X15.2242 Y87.2017
G01 X15.2326 Y87.1684
G01 X15.2441 Y87.1361
G01 X15.2588 Y87.1050
G01 X15.2765 Y87.0756
G01 X15.2971 Y87.0478
G01 X15.3200 Y87.0225
G01 X15.3380 Y87.0059
G01 X15.3493 Y86.9964
G01 X15.3731 Y86.9790
G01 X15.3940 Y86.9662
G01 X15.4064 Y86.9593
G01 X15.4336 Y86.9466
G01 X15.4612 Y86.9366
G01 X15.4754 Y86.9325
G01 X15.4992 Y86.9267
G01 X15.5283 Y86.9222
G01 X15.5430 Y86.9210
G01 X15.5675 Y86.9200
G01 X15.8675 Y86.9200
G01 X15.9018 Y86.9217
G01 X15.9310 Y86.9258
G01 X15.9454 Y86.9289
G01 X15.9691 Y86.9351
G01 X15.9969 Y86.9448
G01 X16.0104 Y86.9506
G01 X16.0325 Y86.9613
G01 X16.0578 Y86.9763
G01 X16.0700 Y86.9846
G01 X16.0897 Y86.9996
G01 X16.1079 Y87.0157
G01 X16.1184 Y87.0260
G01 X16.1381 Y87.0480
G01 X16.1529 Y87.0675
G01 X16.1612 Y87.0797
G01 X16.1737 Y87.1006
G01 X16.1803 Y87.1131
G01 X16.1909 Y87.1361
G01 X16.2024 Y87.1684
G01 X16.2108 Y87.2017
G01 X16.2158 Y87.2357
G01 X16.2174 Y87.2651
G01 X16.2173 Y88.9298
G01 X16.2162 Y88.9494
G01 X16.2153 Y88.9592
G01 X16.2117 Y88.9835
G01 X16.2098 Y88.9931
G01 X16.2038 Y89.0169
G01 X16.2009 Y89.0263
G01 X16.1927 Y89.0494
G01 X16.1889 Y89.0585
G01 X16.1784 Y89.0806
G01 X16.1738 Y89.0893
G01 X16.1612 Y89.1103
G01 X16.1557 Y89.1185
G01 X16.1411 Y89.1382
G01 X16.1349 Y89.1458
G01 X16.1184 Y89.1640
G01 X16.1086 Y89.1736
G01 X16.3625 Y89.4274
G01 X18.5375 Y89.4274
G01 X19.0281 Y88.9368
G01 X19.0275 Y88.9200
G01 X19.0276 Y87.2651
G01 X19.0292 Y87.2357
G01 X19.0325 Y87.2114
G01 X19.0352 Y87.1969
G01 X19.0426 Y87.1684
G01 X19.0523 Y87.1406
G01 X19.0581 Y87.1271
G01 X19.0688 Y87.1050
G01 X19.0838 Y87.0797
G01 X19.0921 Y87.0675
G01 X19.1071 Y87.0478
G01 X19.1300 Y87.0225
G01 X19.1555 Y86.9994
G01 X19.1831 Y86.9790
G01 X19.2122 Y86.9615
G01 X19.2346 Y86.9506
G01 X19.2481 Y86.9448
G01 X19.2712 Y86.9366
G01 X19.2806 Y86.9337
G01 X19.3044 Y86.9277
G01 X19.3189 Y86.9250
G01 X19.3383 Y86.9222
G01 X19.3481 Y86.9213
G01 X19.3775 Y86.9200
G01 X19.6775 Y86.9200
G01 X19.7069 Y86.9213
G01 X19.7215 Y86.9229
G01 X19.7458 Y86.9267
G01 X19.7791 Y86.9351
G01 X19.8114 Y86.9466
G01 X19.8337 Y86.9569
G01 X19.8468 Y86.9637
G01 X19.8678 Y86.9763
G01 X19.8760 Y86.9818
G01 X19.8958 Y86.9965
G01 X19.9036 Y87.0029
G01 X19.9215 Y87.0191
G01 X19.9284 Y87.0260
G01 X19.9449 Y87.0442
G01 X19.9541 Y87.0557
G01 X19.9685 Y87.0756
G01 X19.9813 Y87.0965
G01 X19.9882 Y87.1089
G01 X19.9969 Y87.1271
G01 X20.0027 Y87.1406
G01 X20.0109 Y87.1637
G01 X20.0138 Y87.1731
G01 X20.0186 Y87.1921
G01 X20.0217 Y87.2065
G01 X20.0253 Y87.2308
G01 X20.0262 Y87.2406
G01 X20.0274 Y87.2651
G01 X20.0275 Y87.7024
G01 X20.1599 Y87.7024
G01 X20.1599 Y86.8125
G01 X18.5674 Y85.2200
G01 X18.1651 Y85.2199
G01 X18.1320 Y85.2183
G01 X18.1174 Y85.2167
G01 X18.0846 Y85.2116
G01 X18.0525 Y85.2038
G01 X18.0383 Y85.1997
G01 X18.0071 Y85.1885
G01 X17.9981 Y85.1848
G01 X17.9725 Y85.1728
G01 X17.9595 Y85.1660
G01 X17.9352 Y85.1515
G01 X17.9189 Y85.1406
G01 X17.8963 Y85.1238
G01 X17.8887 Y85.1175
G01 X17.8678 Y85.0986
G01 X17.8572 Y85.0883
G01 X17.8318 Y85.0600
G01 X17.8119 Y85.0336
G01 X17.8036 Y85.0214
G01 X17.7865 Y84.9930
G01 X17.7797 Y84.9800
G01 X17.7658 Y84.9499
G01 X17.7544 Y84.9188
G01 X17.7500 Y84.9048
G01 X17.7419 Y84.8727
G01 X17.7392 Y84.8582
G01 X17.7346 Y84.8254
G01 X17.7325 Y84.7825
G01 X17.7325 Y84.3075
G01 X17.7342 Y84.2695
G01 X17.7358 Y84.2549
G01 X17.7409 Y84.2221
G01 X17.7500 Y84.1852
G01 X17.7544 Y84.1712
G01 X17.7658 Y84.1401
G01 X17.7797 Y84.1100
G01 X17.7865 Y84.0970
G01 X17.8036 Y84.0686
G01 X17.8119 Y84.0564
G01 X17.8318 Y84.0300
G01 X17.8539 Y84.0053
G01 X17.8642 Y83.9947
G01 X17.8850 Y83.9757
G01 X17.8963 Y83.9662
G01 X17.9229 Y83.9465
G01 X17.9312 Y83.9410
G01 X17.9449 Y83.9327
G01 X17.9449 Y83.1573
G01 X17.9311 Y83.1489
G01 X17.9229 Y83.1435
G01 X17.9002 Y83.1267
G01 X17.8887 Y83.1175
G01 X17.8606 Y83.0919
G01 X17.8382 Y83.0675
G01 X17.8287 Y83.0562
G01 X17.8062 Y83.0256
G01 X17.7842 Y82.9887
G01 X17.7658 Y82.9499
G01 X17.7513 Y82.9095
G01 X17.7419 Y82.8727
G01 X17.7392 Y82.8582
G01 X17.7346 Y82.8254
G01 X17.7327 Y82.7923
G01 X17.7325 Y82.4558
G01 X17.0543 Y81.7776
G01 X14.3307 Y81.7776
G01 X13.1625 Y82.9458
G01 X13.1625 Y83.3150
G01 X13.1611 Y83.3481
G01 X13.1592 Y83.3676
G01 X13.1550 Y83.3955
G01 X13.1531 Y83.4052
G01 X13.1437 Y83.4420
G01 X13.1310 Y83.4779
G01 X13.1252 Y83.4914
G01 X13.1108 Y83.5212
G01 X13.0888 Y83.5581
G01 X13.0632 Y83.5925
G01 X13.0411 Y83.6172
G01 X13.0308 Y83.6278
G01 X13.0100 Y83.6468
G01 X12.9987 Y83.6563
G01 X12.9721 Y83.6760
G01 X12.9598 Y83.6840
G01 X12.9312 Y83.7008
G01 X12.9014 Y83.7152
G01 X12.8879 Y83.7210
G01 X12.8613 Y83.7306
G01 X12.8425 Y83.7363
G01 X12.8152 Y83.7431
G01 X12.8007 Y83.7458
G01 X12.7679 Y83.7504
G01 X12.7250 Y83.7525
G01 X12.2451 Y83.7524
G01 X12.2071 Y83.7504
G01 X12.1743 Y83.7458
G01 X12.1598 Y83.7431
G01 X12.1230 Y83.7337
G01 X12.0871 Y83.7210
G01 X12.0736 Y83.7152
G01 X12.0438 Y83.7008
G01 X12.0152 Y83.6840
G01 X12.0029 Y83.6760
G01 X11.9725 Y83.6532
G01 X11.9478 Y83.6311
G01 X11.9372 Y83.6208
G01 X11.9118 Y83.5925
G01 X11.8919 Y83.5661
G01 X11.8836 Y83.5539
G01 X11.8665 Y83.5255
G01 X11.8597 Y83.5125
G01 X11.8477 Y83.4869
G01 X11.8440 Y83.4779
G01 X11.8328 Y83.4467
G01 X11.8300 Y83.4373
G01 X11.8262 Y83.4226
G01 X9.6657 Y83.4226
G01 X5.5375 Y87.5508
G01 X5.5375 Y88.8950
G01 X5.5370 Y88.9097
G01 X5.5360 Y88.9195
G01 X5.5337 Y88.9340
G01 X5.5303 Y88.9483
G01 X5.5274 Y88.9577
G01 X5.5223 Y88.9715
G01 X5.5161 Y88.9849
G01 X5.5115 Y88.9936
G01 X5.5038 Y89.0061
G01 X5.4981 Y89.0141
G01 X5.4889 Y89.0256
G01 X5.4823 Y89.0329
G01 X5.4718 Y89.0432
G01 X5.4605 Y89.0527
G01 X5.4486 Y89.0613
G01 X5.4403 Y89.0665
G01 X5.4274 Y89.0736
G01 X5.4140 Y89.0798
G01 X5.4049 Y89.0833
G01 X5.3956 Y89.0864
G01 X5.3813 Y89.0901
G01 X5.3668 Y89.0928
G01 X5.3571 Y89.0940
G01 X5.3375 Y89.0950
G01 X3.6375 Y89.0950
G01 X3.6228 Y89.0945
G01 X3.6082 Y89.0928
G01 X3.5937 Y89.0901
G01 X3.5748 Y89.0849
G01 X3.5610 Y89.0798
G01 X3.5476 Y89.0736
G01 X3.5347 Y89.0665
G01 X3.5264 Y89.0613
G01 X3.5184 Y89.0556
G01 X3.5069 Y89.0464
G01 X3.4961 Y89.0364
G01 X3.4893 Y89.0293
G01 X3.4829 Y89.0219
G01 X3.4740 Y89.0102
G01 X3.4660 Y88.9978
G01 X3.4589 Y88.9849
G01 X3.4527 Y88.9715
G01 X3.4476 Y88.9577
G01 X3.4447 Y88.9483
G01 X3.4413 Y88.9340
G01 X3.4385 Y88.9146
G01 X3.4375 Y88.8950
G01 X3.4375 Y88.4301
G01 X1.4733 Y88.4301
G01 X1.4716 Y107.5599
G01 X3.4375 Y107.5599
G01 X3.4376 Y107.1901
G01 X3.4390 Y107.1705
G01 X3.4413 Y107.1560
G01 X3.4435 Y107.1464
G01 X3.4476 Y107.1323
G01 X3.4509 Y107.1230
G01 X3.4547 Y107.1140
G01 X3.4611 Y107.1007
G01 X3.4685 Y107.0880
G01 X3.4740 Y107.0798
G01 X3.4829 Y107.0681
G01 X3.4893 Y107.0607
G01 X3.4961 Y107.0536
G01 X3.5069 Y107.0436
G01 X3.5145 Y107.0373
G01 X3.5264 Y107.0287
G01 X3.5389 Y107.0210
G01 X3.5476 Y107.0164
G01 X3.5565 Y107.0122
G01 X3.5701 Y107.0067
G01 X3.5842 Y107.0022
G01 X3.6033 Y106.9979
G01 X3.6179 Y106.9960
G01 X3.6375 Y106.9950
G01 X4.9617 Y106.9950
G01 X9.2171 Y102.7396
G01 X9.2462 Y102.7132
G01 X9.2777 Y102.6898
G01 X9.3111 Y102.6698
G01 X9.3202 Y102.6652
G01 X9.3469 Y102.6529
G01 X9.3839 Y102.6396
G01 X9.4219 Y102.6301
G01 X9.4510 Y102.6255
G01 X9.4615 Y102.6243
G01 X9.5000 Y102.6224
G01 X11.8574 Y102.6224
G01 X11.8665 Y102.6045
G01 X11.8836 Y102.5761
G01 X11.8919 Y102.5639
G01 X11.9087 Y102.5413
G01 X11.9182 Y102.5300
G01 X11.9406 Y102.5056
G01 X11.9687 Y102.4800
G01 X11.9802 Y102.4708
G01 X12.0070 Y102.4512
G01 X12.0438 Y102.4292
G01 X12.0826 Y102.4108
G01 X12.1183 Y102.3978
G01 X12.1325 Y102.3937
G01 X12.1598 Y102.3869
G01 X12.1695 Y102.3850
G01 X12.2071 Y102.3796
G01 X12.2402 Y102.3777
G01 X12.5992 Y102.3775
G01 X13.8856 Y101.0912
G01 X13.9112 Y101.0682
G01 X13.9347 Y101.0505
G01 X13.9468 Y101.0422
G01 X13.9761 Y101.0248
G01 X14.0074 Y101.0098
G01 X14.0210 Y101.0043
G01 X14.0489 Y100.9946
G01 X14.0821 Y100.9861
G01 X14.0966 Y100.9834
G01 X14.1265 Y100.9793
G01 X14.1650 Y100.9774
G01 X17.2249 Y100.9775
G01 X17.2592 Y100.9793
G01 X17.2981 Y100.9851
G01 X17.3361 Y100.9946
G01 X17.3640 Y101.0043
G01 X17.3776 Y101.0098
G01 X17.3998 Y101.0202
G01 X17.4171 Y101.0295
G01 X17.4382 Y101.0422
G01 X17.4463 Y101.0476
G01 X17.4661 Y101.0622
G01 X17.4776 Y101.0714
G01 X17.5029 Y101.0946
G01 X18.2783 Y101.8700
G01 X18.6749 Y101.8701
G01 X18.7129 Y101.8721
G01 X18.7457 Y101.8767
G01 X18.7602 Y101.8794
G01 X18.7970 Y101.8888
G01 X18.8374 Y101.9033
G01 X18.8762 Y101.9217
G01 X18.9131 Y101.9437
G01 X18.9475 Y101.9693
G01 X18.9794 Y101.9981
G01 X19.0082 Y102.0300
G01 X19.0338 Y102.0645
G01 X19.0535 Y102.0970
G01 X19.0603 Y102.1100
G01 X19.0742 Y102.1401
G01 X19.0887 Y102.1805
G01 X19.0969 Y102.2126
G01 X19.1000 Y102.2270
G01 X19.1049 Y102.2597
G01 X19.1061 Y102.2744
G01 X19.1075 Y102.3075
G01 X19.1075 Y102.7825
G01 X19.1054 Y102.8254
G01 X19.1000 Y102.8630
G01 X19.0981 Y102.8727
G01 X19.0913 Y102.9000
G01 X19.0856 Y102.9188
G01 X19.0742 Y102.9499
G01 X19.0558 Y102.9887
G01 X19.0364 Y103.0214
G01 X19.0281 Y103.0336
G01 X19.0082 Y103.0600
G01 X18.9794 Y103.0919
G01 X18.9475 Y103.1207
G01 X18.9211 Y103.1406
G01 X18.9048 Y103.1515
G01 X18.8805 Y103.1660
G01 X18.8719 Y103.1706
G01 X18.8374 Y103.1867
G01 X18.8017 Y103.1997
G01 X18.7923 Y103.2025
G01 X18.7649 Y103.2094
G01 X18.7554 Y103.2116
G01 X18.7451 Y103.2134
G01 X18.7451 Y103.8766
G01 X18.7602 Y103.8794
G01 X18.7970 Y103.8888
G01 X18.8283 Y103.8998
G01 X18.8419 Y103.9052
G01 X18.8719 Y103.9194
G01 X18.8848 Y103.9265
G01 X18.9131 Y103.9437
G01 X18.9437 Y103.9662
G01 X18.9550 Y103.9757
G01 X18.9794 Y103.9981
G01 X19.0050 Y104.0262
G01 X19.0142 Y104.0377
G01 X19.0338 Y104.0645
G01 X19.0510 Y104.0927
G01 X19.0581 Y104.1056
G01 X19.0723 Y104.1356
G01 X19.0760 Y104.1446
G01 X19.0856 Y104.1712
G01 X19.0913 Y104.1900
G01 X19.0981 Y104.2173
G01 X19.1000 Y104.2270
G01 X19.1042 Y104.2549
G01 X19.1058 Y104.2695
G01 X19.1075 Y104.3075
G01 X19.1075 Y104.6992
G01 X20.7929 Y106.3846
G01 X20.8161 Y106.4099
G01 X20.8253 Y106.4214
G01 X20.8427 Y106.4452
G01 X20.8604 Y106.4744
G01 X20.8670 Y106.4870
G01 X20.8796 Y106.5144
G01 X20.8898 Y106.5420
G01 X20.8942 Y106.5561
G01 X20.9014 Y106.5846
G01 X20.9041 Y106.5991
G01 X20.9082 Y106.6290
G01 X20.9099 Y106.6577
G01 X20.9101 Y107.6524
G01 X21.5631 Y107.6524
G01 X21.5736 Y107.6422
G01 X21.5954 Y107.6224
G01 X21.6066 Y107.6129
G01 X21.6423 Y107.5867
G01 X21.6758 Y107.5664
G01 X21.6924 Y107.5574
G01 X21.7287 Y107.5406
G01 X21.7655 Y107.5271
G01 X21.7833 Y107.5217
G01 X21.8225 Y107.5121
G01 X21.8612 Y107.5061
G01 X21.8808 Y107.5042
G01 X21.9200 Y107.5025
G01 X21.9592 Y107.5042
G01 X21.9788 Y107.5061
G01 X22.0175 Y107.5121
G01 X22.0604 Y107.5227
G01 X22.0745 Y107.5271
G01 X22.1068 Y107.5387
G01 X22.1159 Y107.5425
G01 X22.1469 Y107.5571
G01 X22.1642 Y107.5664
G01 X22.1937 Y107.5841
G01 X22.2058 Y107.5924
G01 X22.2372 Y107.6160
G01 X22.2736 Y107.6489
G01 X22.3065 Y107.6853
G01 X22.3358 Y107.7248
G01 X22.3608 Y107.7665
G01 X22.3654 Y107.7756
G01 X22.3819 Y107.8112
G01 X22.3954 Y107.8480
G01 X22.3986 Y107.8578
G01 X22.4082 Y107.8954
G01 X22.4113 Y107.9098
G01 X22.4164 Y107.9437
G01 X22.4183 Y107.9633
G01 X22.4199 Y107.9976
G01 X22.4199 Y108.0074
G01 X22.4183 Y108.0417
G01 X22.4171 Y108.0564
G01 X22.4104 Y108.1000
G01 X22.3985 Y108.1476
G01 X22.3819 Y108.1938
G01 X22.3654 Y108.2294
G01 X22.3561 Y108.2467
G01 X22.3384 Y108.2762
G01 X22.3330 Y108.2843
G01 X22.3065 Y108.3197
G01 X22.2770 Y108.3525
G01 X22.2700 Y108.3595
G01 X22.2446 Y108.3826
G01 X22.2295 Y108.3950
G01 X22.1978 Y108.4182
G01 X22.1557 Y108.4435
G01 X22.1113 Y108.4644
G01 X22.0745 Y108.4779
G01 X22.0557 Y108.4836
G01 X22.0223 Y108.4919
G01 X22.0079 Y108.4946
G01 X21.9690 Y108.5001
G01 X21.9249 Y108.5024
G01 X21.9151 Y108.5024
G01 X21.8808 Y108.5008
G01 X21.8612 Y108.4989
G01 X21.8225 Y108.4929
G01 X21.7749 Y108.4810
G01 X21.7332 Y108.4663
G01 X21.7241 Y108.4625
G01 X21.7031 Y108.4526
G01 X19.8925 Y108.4526
G01 X19.8925 Y108.9200
G01 X19.8912 Y108.9494
G01 X19.8896 Y108.9640
G01 X19.8858 Y108.9883
G01 X19.8800 Y109.0121
G01 X19.8759 Y109.0263
G01 X19.8659 Y109.0539
G01 X19.8556 Y109.0762
G01 X19.8488 Y109.0893
G01 X19.8362 Y109.1103
G01 X19.8307 Y109.1185
G01 X19.8161 Y109.1382
G01 X19.8099 Y109.1458
G01 X19.7934 Y109.1640
G01 X19.7865 Y109.1709
G01 X19.7683 Y109.1874
G01 X19.7607 Y109.1936
G01 X19.7413 Y109.2081
G01 X19.7327 Y109.2319
G01 X19.7269 Y109.2454
G01 X19.7162 Y109.2675
G01 X19.7038 Y109.2887
G01 X19.6958 Y109.3010
G01 X19.6812 Y109.3208
G01 X19.6717 Y109.3320
G01 X19.6550 Y109.3500
G01 X18.9729 Y110.0318
G01 X18.9546 Y110.0481
G01 X18.9350 Y110.0629
