(G-CODE GENERATED BY FLATCAM v8.994 - www.flatcam.org - Version Date: 2020/11/7)

(Name: Beecounter-User_2.gbr_edit_iso_combined_ncc_1_cnc)
(Type: G-code from Geometry)
(Units: MM)

(Created on Monday, 16 December 2024 at 15:07)

(This preprocessor is the default preprocessor used by FlatCAM.)
(It is made to work with MACH3 compatible motion controllers.)

(TOOL DIAMETER: 1.5 mm)
(Feedrate_XY: 120.0 mm/min)
(Feedrate_Z: 60.0 mm/min)
(Feedrate rapids 1500.0 mm/min)

(Z_Cut: -0.8 mm)
(Z_Move: 2.0 mm)
(Z Start: None mm)
(Z End: 15.0 mm)
(X,Y End: None mm)
(Steps per circle: 64)
(Preprocessor Geometry: default)

(X range:   23.9437 ...   35.8436  mm)
(Y range:    9.6927 ...  136.5927  mm)

(Spindle Speed: 0.0 RPM)
G21
G90
G94

G01 F120.00

M5
G00 Z15.0000
G00 X0.0000 Y0.0000
T1
M6    
(MSG, Change to Tool Dia = 1.5000)
M0
G00 Z15.0000

M03
G01 F120.00
G00 X24.0922 Y9.6927
G01 F60.00
G01 Z-0.8000
G01 F120.00
G01 X24.0205 Y9.8156
G01 X23.9437 Y9.9553
G01 X25.1697 Y9.6927
G01 X25.1108 Y9.7742
G01 X25.0295 Y9.8926
G01 X24.9512 Y10.0130
G01 X24.8759 Y10.1352
G01 X24.8036 Y10.2592
G01 X24.7344 Y10.3850
G01 X24.6683 Y10.5125
G01 X24.6053 Y10.6415
G01 X24.5455 Y10.7720
G01 X24.4889 Y10.9040
G01 X24.4356 Y11.0373
G01 X24.3856 Y11.1719
G01 X24.3389 Y11.3077
G01 X24.2955 Y11.4445
G01 X24.2555 Y11.5824
G01 X24.2190 Y11.7213
G01 X24.1858 Y11.8610
G01 X24.1560 Y12.0014
G01 X24.1298 Y12.1426
G01 X24.1070 Y12.2843
G01 X24.0876 Y12.4266
G01 X24.0718 Y12.5693
G01 X24.0595 Y12.7123
G01 X24.0507 Y12.8557
G01 X24.0454 Y12.9991
G01 X24.0436 Y13.1427
G01 X24.0454 Y13.2863
G01 X24.0507 Y13.4297
G01 X24.0595 Y13.5731
G01 X24.0718 Y13.7161
G01 X24.0876 Y13.8588
G01 X24.1070 Y14.0011
G01 X24.1298 Y14.1428
G01 X24.1560 Y14.2840
G01 X24.1858 Y14.4244
G01 X24.2190 Y14.5641
G01 X24.2555 Y14.7030
G01 X24.2955 Y14.8409
G01 X24.3389 Y14.9777
G01 X24.3856 Y15.1135
G01 X24.4356 Y15.2481
G01 X24.4889 Y15.3814
G01 X24.5455 Y15.5134
G01 X24.6053 Y15.6439
G01 X24.6683 Y15.7729
G01 X24.7344 Y15.9004
G01 X24.8036 Y16.0262
G01 X24.8759 Y16.1502
G01 X24.9512 Y16.2724
G01 X25.0295 Y16.3928
G01 X25.1108 Y16.5112
G01 X25.1697 Y16.5927
G00 Z2.0000
G00 X24.0922 Y16.5927
G01 F60.00
G01 Z-0.8000
G01 F120.00
G01 X24.0205 Y16.4698
G01 X23.9437 Y16.3301
G01 X23.9437 Y16.5927
G01 X35.8436 Y16.5927
G01 X35.8436 Y9.6927
G01 X23.9437 Y9.6927
G01 X23.9437 Y16.5927
G01 X26.3445 Y16.5927
G01 X26.3086 Y16.5559
G01 X26.2259 Y16.4669
G01 X26.1455 Y16.3759
G01 X26.0672 Y16.2829
G01 X25.9913 Y16.1881
G01 X25.9178 Y16.0914
G01 X25.8466 Y15.9929
G01 X25.7779 Y15.8928
G01 X25.7116 Y15.7909
G01 X25.6479 Y15.6875
G01 X25.5867 Y15.5825
G01 X25.5281 Y15.4761
G01 X25.4722 Y15.3683
G01 X25.4189 Y15.2591
G01 X25.3683 Y15.1486
G01 X25.3204 Y15.0370
G01 X25.2753 Y14.9242
G01 X25.2330 Y14.8103
G01 X25.1935 Y14.6954
G01 X25.1568 Y14.5796
G01 X25.1229 Y14.4629
G01 X25.0920 Y14.3454
G01 X25.0639 Y14.2272
G01 X25.0387 Y14.1084
G01 X25.0165 Y13.9890
G01 X24.9972 Y13.8690
G01 X24.9809 Y13.7486
G01 X24.9675 Y13.6279
G01 X24.9570 Y13.5068
G01 X24.9496 Y13.3856
G01 X24.9451 Y13.2642
G01 X24.9436 Y13.1427
G01 X24.9451 Y13.0212
G01 X24.9496 Y12.8998
G01 X24.9570 Y12.7786
G01 X24.9675 Y12.6575
G01 X24.9809 Y12.5368
G01 X24.9972 Y12.4164
G01 X25.0165 Y12.2964
G01 X25.0387 Y12.1770
G01 X25.0639 Y12.0581
G01 X25.0920 Y11.9399
G01 X25.1229 Y11.8225
G01 X25.1568 Y11.7058
G01 X25.1935 Y11.5900
G01 X25.2330 Y11.4751
G01 X25.2753 Y11.3612
G01 X25.3204 Y11.2484
G01 X25.3683 Y11.1368
G01 X25.4189 Y11.0263
G01 X25.4722 Y10.9171
G01 X25.5281 Y10.8093
G01 X25.5867 Y10.7029
G01 X25.6479 Y10.5979
G01 X25.7116 Y10.4945
G01 X25.7779 Y10.3926
G01 X25.8466 Y10.2924
G01 X25.9178 Y10.1940
G01 X25.9913 Y10.0973
G01 X26.0672 Y10.0025
G01 X26.1455 Y9.9095
G01 X26.2259 Y9.8185
G01 X26.3086 Y9.7295
G01 X26.3445 Y9.6927
G00 Z2.0000
G00 X27.7729 Y9.6927
G01 F60.00
G01 Z-0.8000
G01 F120.00
G01 X27.7269 Y9.7210
G01 X27.6436 Y9.7752
G01 X27.5616 Y9.8315
G01 X27.4811 Y9.8897
G01 X27.4019 Y9.9499
G01 X27.3243 Y10.0120
G01 X27.2483 Y10.0760
G01 X27.1738 Y10.1418
G01 X27.1010 Y10.2095
G01 X27.0299 Y10.2789
G01 X26.9604 Y10.3501
G01 X26.8928 Y10.4229
G01 X26.8269 Y10.4973
G01 X26.7629 Y10.5734
G01 X26.7008 Y10.6510
G01 X26.6406 Y10.7301
G01 X26.5824 Y10.8107
G01 X26.5262 Y10.8926
G01 X26.4720 Y10.9760
G01 X26.4198 Y11.0606
G01 X26.3698 Y11.1465
G01 X26.3219 Y11.2335
G01 X26.2761 Y11.3218
G01 X26.2325 Y11.4111
G01 X26.1911 Y11.5015
G01 X26.1519 Y11.5928
G01 X26.1150 Y11.6851
G01 X26.0804 Y11.7783
G01 X26.0480 Y11.8723
G01 X26.0180 Y11.9670
G01 X25.9903 Y12.0625
G01 X25.9650 Y12.1586
G01 X25.9420 Y12.2553
G01 X25.9215 Y12.3526
G01 X25.9033 Y12.4503
G01 X25.8875 Y12.5484
G01 X25.8741 Y12.6469
G01 X25.8631 Y12.7457
G01 X25.8546 Y12.8448
G01 X25.8485 Y12.9440
G01 X25.8449 Y13.0433
G01 X25.8436 Y13.1427
G01 X25.8449 Y13.2421
G01 X25.8485 Y13.3414
G01 X25.8546 Y13.4406
G01 X25.8631 Y13.5397
G01 X25.8741 Y13.6385
G01 X25.8875 Y13.7370
G01 X25.9033 Y13.8351
G01 X25.9215 Y13.9328
G01 X25.9420 Y14.0301
G01 X25.9650 Y14.1268
G01 X25.9903 Y14.2229
G01 X26.0180 Y14.3184
G01 X26.0480 Y14.4131
G01 X26.0804 Y14.5071
G01 X26.1150 Y14.6003
G01 X26.1519 Y14.6926
G01 X26.1911 Y14.7839
G01 X26.2325 Y14.8743
G01 X26.2761 Y14.9636
G01 X26.3219 Y15.0519
G01 X26.3698 Y15.1389
G01 X26.4198 Y15.2248
G01 X26.4720 Y15.3094
G01 X26.5262 Y15.3928
G01 X26.5824 Y15.4747
G01 X26.6406 Y15.5553
G01 X26.7008 Y15.6344
G01 X26.7629 Y15.7120
G01 X26.8269 Y15.7880
G01 X26.8928 Y15.8625
G01 X26.9604 Y15.9353
G01 X27.0299 Y16.0065
G01 X27.1010 Y16.0759
G01 X27.1738 Y16.1435
G01 X27.2483 Y16.2094
G01 X27.3243 Y16.2734
G01 X27.4019 Y16.3355
G01 X27.4811 Y16.3957
G01 X27.5616 Y16.4539
G01 X27.6436 Y16.5101
G01 X27.7269 Y16.5644
G01 X27.7729 Y16.5927
G00 Z2.0000
G00 X32.0144 Y16.5927
G01 F60.00
G01 Z-0.8000
G01 F120.00
G01 X32.0604 Y16.5644
G01 X32.1437 Y16.5101
G01 X32.2257 Y16.4539
G01 X32.3062 Y16.3957
G01 X32.3853 Y16.3355
G01 X32.4629 Y16.2734
G01 X32.5390 Y16.2094
G01 X32.6134 Y16.1435
G01 X32.6863 Y16.0759
G01 X32.7574 Y16.0065
G01 X32.8268 Y15.9353
G01 X32.8945 Y15.8625
G01 X32.9603 Y15.7880
G01 X33.0243 Y15.7120
G01 X33.0864 Y15.6344
G01 X33.1466 Y15.5553
G01 X33.2049 Y15.4747
G01 X33.2611 Y15.3928
G01 X33.3153 Y15.3094
G01 X33.3674 Y15.2248
G01 X33.4175 Y15.1389
G01 X33.4654 Y15.0519
G01 X33.5112 Y14.9636
G01 X33.5548 Y14.8743
G01 X33.5962 Y14.7839
G01 X33.6353 Y14.6926
G01 X33.6723 Y14.6003
G01 X33.7069 Y14.5071
G01 X33.7392 Y14.4131
G01 X33.7692 Y14.3184
G01 X33.7969 Y14.2229
G01 X33.8223 Y14.1268
G01 X33.8452 Y14.0301
G01 X33.8658 Y13.9328
G01 X33.8840 Y13.8351
G01 X33.8998 Y13.7370
G01 X33.9132 Y13.6385
G01 X33.9241 Y13.5397
G01 X33.9327 Y13.4406
G01 X33.9388 Y13.3414
G01 X33.9424 Y13.2421
G01 X33.9436 Y13.1427
G01 X33.9424 Y13.0433
G01 X33.9388 Y12.9440
G01 X33.9327 Y12.8448
G01 X33.9241 Y12.7457
G01 X33.9132 Y12.6469
G01 X33.8998 Y12.5484
G01 X33.8840 Y12.4503
G01 X33.8658 Y12.3526
G01 X33.8452 Y12.2553
G01 X33.8223 Y12.1586
G01 X33.7969 Y12.0625
G01 X33.7692 Y11.9670
G01 X33.7392 Y11.8723
G01 X33.7069 Y11.7783
G01 X33.6723 Y11.6851
G01 X33.6353 Y11.5928
G01 X33.5962 Y11.5015
G01 X33.5548 Y11.4111
G01 X33.5112 Y11.3218
G01 X33.4654 Y11.2335
G01 X33.4175 Y11.1465
G01 X33.3674 Y11.0606
G01 X33.3153 Y10.9760
G01 X33.2611 Y10.8926
G01 X33.2049 Y10.8107
G01 X33.1466 Y10.7301
G01 X33.0864 Y10.6510
G01 X33.0243 Y10.5734
G01 X32.9603 Y10.4973
G01 X32.8945 Y10.4229
G01 X32.8268 Y10.3501
G01 X32.7574 Y10.2789
G01 X32.6863 Y10.2095
G01 X32.6134 Y10.1418
G01 X32.5390 Y10.0760
G01 X32.4629 Y10.0120
G01 X32.3853 Y9.9499
G01 X32.3062 Y9.8897
G01 X32.2257 Y9.8315
G01 X32.1437 Y9.7752
G01 X32.0604 Y9.7210
G01 X32.0144 Y9.6927
G00 Z2.0000
G00 X33.4428 Y9.6927
G01 F60.00
G01 Z-0.8000
G01 F120.00
G01 X33.4787 Y9.7295
G01 X33.5613 Y9.8185
G01 X33.6418 Y9.9095
G01 X33.7200 Y10.0025
G01 X33.7959 Y10.0973
G01 X33.8695 Y10.1940
G01 X33.9407 Y10.2924
G01 X34.0094 Y10.3926
G01 X34.0757 Y10.4945
G01 X34.1394 Y10.5979
G01 X34.2006 Y10.7029
G01 X34.2591 Y10.8093
G01 X34.3151 Y10.9171
G01 X34.3684 Y11.0263
G01 X34.4190 Y11.1368
G01 X34.4668 Y11.2484
G01 X34.5119 Y11.3612
G01 X34.5543 Y11.4751
G01 X34.5938 Y11.5900
G01 X34.6305 Y11.7058
G01 X34.6643 Y11.8225
G01 X34.6953 Y11.9399
G01 X34.7234 Y12.0581
G01 X34.7485 Y12.1770
G01 X34.7708 Y12.2964
G01 X34.7901 Y12.4164
G01 X34.8064 Y12.5368
G01 X34.8198 Y12.6575
G01 X34.8302 Y12.7786
G01 X34.8377 Y12.8998
G01 X34.8421 Y13.0212
G01 X34.8436 Y13.1427
G01 X34.8421 Y13.2642
G01 X34.8377 Y13.3856
G01 X34.8302 Y13.5068
G01 X34.8198 Y13.6279
G01 X34.8064 Y13.7486
G01 X34.7901 Y13.8690
G01 X34.7708 Y13.9890
G01 X34.7485 Y14.1084
G01 X34.7234 Y14.2272
G01 X34.6953 Y14.3454
G01 X34.6643 Y14.4629
G01 X34.6305 Y14.5796
G01 X34.5938 Y14.6954
G01 X34.5543 Y14.8103
G01 X34.5119 Y14.9242
G01 X34.4668 Y15.0370
G01 X34.4190 Y15.1486
G01 X34.3684 Y15.2591
G01 X34.3151 Y15.3683
G01 X34.2591 Y15.4761
G01 X34.2006 Y15.5825
G01 X34.1394 Y15.6875
G01 X34.0757 Y15.7909
G01 X34.0094 Y15.8928
G01 X33.9407 Y15.9929
G01 X33.8695 Y16.0914
G01 X33.7959 Y16.1881
G01 X33.7200 Y16.2829
G01 X33.6418 Y16.3759
G01 X33.5613 Y16.4669
G01 X33.4787 Y16.5559
G01 X33.4428 Y16.5927
G00 Z2.0000
G00 X34.6176 Y16.5927
G01 F60.00
G01 Z-0.8000
G01 F120.00
G01 X34.6765 Y16.5112
G01 X34.7577 Y16.3928
G01 X34.8360 Y16.2724
G01 X34.9113 Y16.1502
G01 X34.9836 Y16.0262
G01 X35.0529 Y15.9004
G01 X35.1190 Y15.7729
G01 X35.1820 Y15.6439
G01 X35.2418 Y15.5134
G01 X35.2983 Y15.3814
G01 X35.3516 Y15.2481
G01 X35.4017 Y15.1135
G01 X35.4484 Y14.9777
G01 X35.4917 Y14.8409
G01 X35.5317 Y14.7030
G01 X35.5683 Y14.5641
G01 X35.6015 Y14.4244
G01 X35.6312 Y14.2840
G01 X35.6575 Y14.1428
G01 X35.6803 Y14.0011
G01 X35.6996 Y13.8588
G01 X35.7155 Y13.7161
G01 X35.7278 Y13.5731
G01 X35.7366 Y13.4297
G01 X35.7419 Y13.2863
G01 X35.7436 Y13.1427
G01 X35.7419 Y12.9991
G01 X35.7366 Y12.8557
G01 X35.7278 Y12.7123
G01 X35.7155 Y12.5693
G01 X35.6996 Y12.4266
G01 X35.6803 Y12.2843
G01 X35.6575 Y12.1426
G01 X35.6312 Y12.0014
G01 X35.6015 Y11.8610
G01 X35.5683 Y11.7213
G01 X35.5317 Y11.5824
G01 X35.4917 Y11.4445
G01 X35.4484 Y11.3077
G01 X35.4017 Y11.1719
G01 X35.3516 Y11.0373
G01 X35.2983 Y10.9040
G01 X35.2418 Y10.7720
G01 X35.1820 Y10.6415
G01 X35.1190 Y10.5125
G01 X35.0529 Y10.3850
G01 X34.9836 Y10.2592
G01 X34.9113 Y10.1352
G01 X34.8360 Y10.0130
G01 X34.7577 Y9.8926
G01 X34.6765 Y9.7742
G01 X34.6176 Y9.6927
G00 Z2.0000
G00 X35.6951 Y9.6927
G01 F60.00
G01 Z-0.8000
G01 F120.00
G01 X35.7667 Y9.8156
G01 X35.8436 Y9.9553
G01 X33.0436 Y13.1427
G01 X33.0427 Y13.0654
G01 X33.0398 Y12.9881
G01 X33.0351 Y12.9110
G01 X33.0285 Y12.8339
G01 X33.0199 Y12.7571
G01 X33.0095 Y12.6805
G01 X32.9973 Y12.6042
G01 X32.9831 Y12.5282
G01 X32.9671 Y12.4525
G01 X32.9492 Y12.3773
G01 X32.9295 Y12.3026
G01 X32.9080 Y12.2283
G01 X32.8846 Y12.1546
G01 X32.8595 Y12.0815
G01 X32.8326 Y12.0090
G01 X32.8039 Y11.9372
G01 X32.7734 Y11.8662
G01 X32.7412 Y11.7959
G01 X32.7073 Y11.7264
G01 X32.6717 Y11.6578
G01 X32.6344 Y11.5901
G01 X32.5955 Y11.5233
G01 X32.5549 Y11.4575
G01 X32.5128 Y11.3927
G01 X32.4690 Y11.3289
G01 X32.4237 Y11.2662
G01 X32.3769 Y11.2047
G01 X32.3286 Y11.1444
G01 X32.2788 Y11.0852
G01 X32.2276 Y11.0273
G01 X32.1750 Y10.9706
G01 X32.1210 Y10.9153
G01 X32.0657 Y10.8613
G01 X32.0090 Y10.8087
G01 X31.9511 Y10.7575
G01 X31.8920 Y10.7077
G01 X31.8316 Y10.6594
G01 X31.7701 Y10.6126
G01 X31.7074 Y10.5673
G01 X31.6437 Y10.5236
G01 X31.5789 Y10.4814
G01 X31.5131 Y10.4409
G01 X31.4463 Y10.4019
G01 X31.3785 Y10.3646
G01 X31.3099 Y10.3290
G01 X31.2404 Y10.2951
G01 X31.1701 Y10.2629
G01 X31.0991 Y10.2325
G01 X31.0273 Y10.2038
G01 X30.9548 Y10.1768
G01 X30.8817 Y10.1517
G01 X30.8080 Y10.1283
G01 X30.7338 Y10.1068
G01 X30.6590 Y10.0871
G01 X30.5838 Y10.0692
G01 X30.5082 Y10.0532
G01 X30.4322 Y10.0391
G01 X30.3558 Y10.0268
G01 X30.2792 Y10.0164
G01 X30.2024 Y10.0079
G01 X30.1254 Y10.0012
G01 X30.0482 Y9.9965
G01 X29.9709 Y9.9936
G01 X29.8936 Y9.9927
G01 X29.8163 Y9.9936
G01 X29.7391 Y9.9965
G01 X29.6619 Y10.0012
G01 X29.5849 Y10.0079
G01 X29.5080 Y10.0164
G01 X29.4314 Y10.0268
G01 X29.3551 Y10.0391
G01 X29.2791 Y10.0532
G01 X29.2035 Y10.0692
G01 X29.1282 Y10.0871
G01 X29.0535 Y10.1068
G01 X28.9792 Y10.1283
G01 X28.9055 Y10.1517
G01 X28.8324 Y10.1768
G01 X28.7600 Y10.2038
G01 X28.6882 Y10.2325
G01 X28.6171 Y10.2629
G01 X28.5468 Y10.2951
G01 X28.4774 Y10.3290
G01 X28.4087 Y10.3646
G01 X28.3410 Y10.4019
G01 X28.2742 Y10.4409
G01 X28.2084 Y10.4814
G01 X28.1436 Y10.5236
G01 X28.0798 Y10.5673
G01 X28.0172 Y10.6126
G01 X27.9557 Y10.6594
G01 X27.8953 Y10.7077
G01 X27.8361 Y10.7575
G01 X27.7782 Y10.8087
G01 X27.7216 Y10.8613
G01 X27.6662 Y10.9153
G01 X27.6123 Y10.9706
G01 X27.5596 Y11.0273
G01 X27.5084 Y11.0852
G01 X27.4587 Y11.1444
G01 X27.4103 Y11.2047
G01 X27.3635 Y11.2662
G01 X27.3182 Y11.3289
G01 X27.2745 Y11.3927
G01 X27.2323 Y11.4575
G01 X27.1918 Y11.5233
G01 X27.1529 Y11.5901
G01 X27.1156 Y11.6578
G01 X27.0800 Y11.7264
G01 X27.0461 Y11.7959
G01 X27.0139 Y11.8662
G01 X26.9834 Y11.9372
G01 X26.9547 Y12.0090
G01 X26.9278 Y12.0815
G01 X26.9026 Y12.1546
G01 X26.8793 Y12.2283
G01 X26.8577 Y12.3026
G01 X26.8380 Y12.3773
G01 X26.8202 Y12.4525
G01 X26.8042 Y12.5282
G01 X26.7900 Y12.6042
G01 X26.7777 Y12.6805
G01 X26.7673 Y12.7571
G01 X26.7588 Y12.8339
G01 X26.7522 Y12.9110
G01 X26.7474 Y12.9881
G01 X26.7446 Y13.0654
G01 X26.7436 Y13.1427
G01 X26.7446 Y13.2200
G01 X26.7474 Y13.2973
G01 X26.7522 Y13.3744
G01 X26.7588 Y13.4515
G01 X26.7673 Y13.5283
G01 X26.7777 Y13.6049
G01 X26.7900 Y13.6812
G01 X26.8042 Y13.7572
G01 X26.8202 Y13.8329
G01 X26.8380 Y13.9081
G01 X26.8577 Y13.9828
G01 X26.8793 Y14.0571
G01 X26.9026 Y14.1308
G01 X26.9278 Y14.2039
G01 X26.9547 Y14.2764
G01 X26.9834 Y14.3482
G01 X27.0139 Y14.4192
G01 X27.0461 Y14.4895
G01 X27.0800 Y14.5590
G01 X27.1156 Y14.6276
G01 X27.1529 Y14.6953
G01 X27.1918 Y14.7621
G01 X27.2323 Y14.8279
G01 X27.2745 Y14.8927
G01 X27.3182 Y14.9565
G01 X27.3635 Y15.0192
G01 X27.4103 Y15.0807
G01 X27.4587 Y15.1410
G01 X27.5084 Y15.2002
G01 X27.5596 Y15.2581
G01 X27.6123 Y15.3148
G01 X27.6662 Y15.3701
G01 X27.7216 Y15.4241
G01 X27.7782 Y15.4767
G01 X27.8361 Y15.5279
G01 X27.8953 Y15.5777
G01 X27.9557 Y15.6260
G01 X28.0172 Y15.6728
G01 X28.0798 Y15.7181
G01 X28.1436 Y15.7618
G01 X28.2084 Y15.8040
G01 X28.2742 Y15.8445
G01 X28.3410 Y15.8835
G01 X28.4087 Y15.9207
G01 X28.4774 Y15.9564
G01 X28.5468 Y15.9903
G01 X28.6171 Y16.0225
G01 X28.6882 Y16.0529
G01 X28.7600 Y16.0816
G01 X28.8324 Y16.1086
G01 X28.9055 Y16.1337
G01 X28.9792 Y16.1571
G01 X29.0535 Y16.1786
G01 X29.1282 Y16.1983
G01 X29.2035 Y16.2162
G01 X29.2791 Y16.2322
G01 X29.3551 Y16.2463
G01 X29.4314 Y16.2586
G01 X29.5080 Y16.2690
G01 X29.5849 Y16.2775
G01 X29.6619 Y16.2842
G01 X29.7391 Y16.2889
G01 X29.8163 Y16.2917
G01 X29.8936 Y16.2927
G01 X29.9709 Y16.2917
G01 X30.0482 Y16.2889
G01 X30.1254 Y16.2842
G01 X30.2024 Y16.2775
G01 X30.2792 Y16.2690
G01 X30.3558 Y16.2586
G01 X30.4322 Y16.2463
G01 X30.5082 Y16.2322
G01 X30.5838 Y16.2162
G01 X30.6590 Y16.1983
G01 X30.7338 Y16.1786
G01 X30.8080 Y16.1571
G01 X30.8817 Y16.1337
G01 X30.9548 Y16.1086
G01 X31.0273 Y16.0816
G01 X31.0991 Y16.0529
G01 X31.1701 Y16.0225
G01 X31.2404 Y15.9903
G01 X31.3099 Y15.9564
G01 X31.3785 Y15.9207
G01 X31.4463 Y15.8835
G01 X31.5131 Y15.8445
G01 X31.5789 Y15.8040
G01 X31.6437 Y15.7618
G01 X31.7074 Y15.7181
G01 X31.7701 Y15.6728
G01 X31.8316 Y15.6260
G01 X31.8920 Y15.5777
G01 X31.9511 Y15.5279
G01 X32.0090 Y15.4767
G01 X32.0657 Y15.4241
G01 X32.1210 Y15.3701
G01 X32.1750 Y15.3148
G01 X32.2276 Y15.2581
G01 X32.2788 Y15.2002
G01 X32.3286 Y15.1410
G01 X32.3769 Y15.0807
G01 X32.4237 Y15.0192
G01 X32.4690 Y14.9565
G01 X32.5128 Y14.8927
G01 X32.5549 Y14.8279
G01 X32.5955 Y14.7621
G01 X32.6344 Y14.6953
G01 X32.6717 Y14.6276
G01 X32.7073 Y14.5590
G01 X32.7412 Y14.4895
G01 X32.7734 Y14.4192
G01 X32.8039 Y14.3482
G01 X32.8326 Y14.2764
G01 X32.8595 Y14.2039
G01 X32.8846 Y14.1308
G01 X32.9080 Y14.0571
G01 X32.9295 Y13.9828
G01 X32.9492 Y13.9081
G01 X32.9671 Y13.8329
G01 X32.9831 Y13.7572
G01 X32.9973 Y13.6812
G01 X33.0095 Y13.6049
G01 X33.0199 Y13.5283
G01 X33.0285 Y13.4515
G01 X33.0351 Y13.3744
G01 X33.0398 Y13.2973
G01 X33.0427 Y13.2200
G01 X33.0436 Y13.1427
G01 X32.1436 Y13.1427
G01 X32.1430 Y13.0875
G01 X32.1409 Y13.0323
G01 X32.1375 Y12.9772
G01 X32.1328 Y12.9222
G01 X32.1267 Y12.8673
G01 X32.1193 Y12.8126
G01 X32.1105 Y12.7580
G01 X32.1004 Y12.7037
G01 X32.0890 Y12.6497
G01 X32.0762 Y12.5960
G01 X32.0621 Y12.5426
G01 X32.0468 Y12.4896
G01 X32.0301 Y12.4369
G01 X32.0121 Y12.3847
G01 X31.9929 Y12.3329
G01 X31.9724 Y12.2817
G01 X31.9506 Y12.2309
G01 X31.9276 Y12.1807
G01 X31.9034 Y12.1311
G01 X31.8780 Y12.0821
G01 X31.8513 Y12.0337
G01 X31.8235 Y11.9860
G01 X31.7946 Y11.9390
G01 X31.7644 Y11.8927
G01 X31.7332 Y11.8471
G01 X31.7009 Y11.8024
G01 X31.6674 Y11.7584
G01 X31.6329 Y11.7153
G01 X31.5974 Y11.6731
G01 X31.5608 Y11.6317
G01 X31.5232 Y11.5912
G01 X31.4846 Y11.5517
G01 X31.4451 Y11.5131
G01 X31.4046 Y11.4756
G01 X31.3633 Y11.4390
G01 X31.3210 Y11.4034
G01 X31.2779 Y11.3689
G01 X31.2340 Y11.3355
G01 X31.1892 Y11.3031
G01 X31.1437 Y11.2719
G01 X31.0974 Y11.2418
G01 X31.0504 Y11.2128
G01 X31.0027 Y11.1850
G01 X30.9543 Y11.1584
G01 X30.9053 Y11.1329
G01 X30.8556 Y11.1087
G01 X30.8054 Y11.0857
G01 X30.7547 Y11.0640
G01 X30.7034 Y11.0435
G01 X30.6516 Y11.0242
G01 X30.5994 Y11.0063
G01 X30.5468 Y10.9896
G01 X30.4937 Y10.9742
G01 X30.4403 Y10.9601
G01 X30.3866 Y10.9474
G01 X30.3326 Y10.9359
G01 X30.2783 Y10.9258
G01 X30.2238 Y10.9171
G01 X30.1691 Y10.9096
G01 X30.1142 Y10.9035
G01 X30.0592 Y10.8988
G01 X30.0040 Y10.8954
G01 X29.9489 Y10.8934
G01 X29.8936 Y10.8927
G01 X29.8384 Y10.8934
G01 X29.7832 Y10.8954
G01 X29.7281 Y10.8988
G01 X29.6731 Y10.9035
G01 X29.6182 Y10.9096
G01 X29.5635 Y10.9171
G01 X29.5090 Y10.9258
G01 X29.4547 Y10.9359
G01 X29.4007 Y10.9474
G01 X29.3469 Y10.9601
G01 X29.2935 Y10.9742
G01 X29.2405 Y10.9896
G01 X29.1879 Y11.0063
G01 X29.1356 Y11.0242
G01 X29.0839 Y11.0435
G01 X29.0326 Y11.0640
G01 X28.9818 Y11.0857
G01 X28.9316 Y11.1087
G01 X28.8820 Y11.1329
G01 X28.8330 Y11.1584
G01 X28.7846 Y11.1850
G01 X28.7369 Y11.2128
G01 X28.6899 Y11.2418
G01 X28.6436 Y11.2719
G01 X28.5981 Y11.3031
G01 X28.5533 Y11.3355
G01 X28.5094 Y11.3689
G01 X28.4662 Y11.4034
G01 X28.4240 Y11.4390
G01 X28.3826 Y11.4756
G01 X28.3422 Y11.5131
G01 X28.3026 Y11.5517
G01 X28.2641 Y11.5912
G01 X28.2265 Y11.6317
G01 X28.1899 Y11.6731
G01 X28.1544 Y11.7153
G01 X28.1199 Y11.7584
G01 X28.0864 Y11.8024
G01 X28.0541 Y11.8471
G01 X28.0228 Y11.8927
G01 X27.9927 Y11.9390
G01 X27.9637 Y11.9860
G01 X27.9359 Y12.0337
G01 X27.9093 Y12.0821
G01 X27.8839 Y12.1311
G01 X27.8597 Y12.1807
G01 X27.8367 Y12.2309
G01 X27.8149 Y12.2817
G01 X27.7944 Y12.3329
G01 X27.7752 Y12.3847
G01 X27.7572 Y12.4369
G01 X27.7405 Y12.4896
G01 X27.7251 Y12.5426
G01 X27.7111 Y12.5960
G01 X27.6983 Y12.6497
G01 X27.6869 Y12.7037
G01 X27.6768 Y12.7580
G01 X27.6680 Y12.8126
G01 X27.6606 Y12.8673
G01 X27.6545 Y12.9222
G01 X27.6497 Y12.9772
G01 X27.6463 Y13.0323
G01 X27.6443 Y13.0875
G01 X27.6436 Y13.1427
G01 X27.6443 Y13.1979
G01 X27.6463 Y13.2531
G01 X27.6497 Y13.3082
G01 X27.6545 Y13.3632
G01 X27.6606 Y13.4181
G01 X27.6680 Y13.4728
G01 X27.6768 Y13.5274
G01 X27.6869 Y13.5817
G01 X27.6983 Y13.6357
G01 X27.7111 Y13.6894
G01 X27.7251 Y13.7428
G01 X27.7405 Y13.7958
G01 X27.7572 Y13.8485
G01 X27.7752 Y13.9007
G01 X27.7944 Y13.9525
G01 X27.8149 Y14.0037
G01 X27.8367 Y14.0545
G01 X27.8597 Y14.1047
G01 X27.8839 Y14.1543
G01 X27.9093 Y14.2033
G01 X27.9359 Y14.2517
G01 X27.9637 Y14.2994
G01 X27.9927 Y14.3464
G01 X28.0228 Y14.3927
G01 X28.0541 Y14.4383
G01 X28.0864 Y14.4830
G01 X28.1199 Y14.5270
G01 X28.1544 Y14.5701
G01 X28.1899 Y14.6123
G01 X28.2265 Y14.6537
G01 X28.2641 Y14.6942
G01 X28.3026 Y14.7337
G01 X28.3422 Y14.7723
G01 X28.3826 Y14.8098
G01 X28.4240 Y14.8464
G01 X28.4662 Y14.8820
G01 X28.5094 Y14.9165
G01 X28.5533 Y14.9499
G01 X28.5981 Y14.9823
G01 X28.6436 Y15.0135
G01 X28.6899 Y15.0436
G01 X28.7369 Y15.0726
G01 X28.7846 Y15.1004
G01 X28.8330 Y15.1270
G01 X28.8820 Y15.1525
G01 X28.9316 Y15.1767
G01 X28.9818 Y15.1997
G01 X29.0326 Y15.2214
G01 X29.0839 Y15.2419
G01 X29.1356 Y15.2612
G01 X29.1879 Y15.2791
G01 X29.2405 Y15.2958
G01 X29.2935 Y15.3112
G01 X29.3469 Y15.3253
G01 X29.4007 Y15.3380
G01 X29.4547 Y15.3495
G01 X29.5090 Y15.3596
G01 X29.5635 Y15.3683
G01 X29.6182 Y15.3758
G01 X29.6731 Y15.3819
G01 X29.7281 Y15.3866
G01 X29.7832 Y15.3900
G01 X29.8384 Y15.3920
G01 X29.8936 Y15.3927
G01 X29.9489 Y15.3920
G01 X30.0040 Y15.3900
G01 X30.0592 Y15.3866
G01 X30.1142 Y15.3819
G01 X30.1691 Y15.3758
G01 X30.2238 Y15.3683
G01 X30.2783 Y15.3596
G01 X30.3326 Y15.3495
G01 X30.3866 Y15.3380
G01 X30.4403 Y15.3253
G01 X30.4937 Y15.3112
G01 X30.5468 Y15.2958
G01 X30.5994 Y15.2791
G01 X30.6516 Y15.2612
G01 X30.7034 Y15.2419
G01 X30.7547 Y15.2214
G01 X30.8054 Y15.1997
G01 X30.8556 Y15.1767
G01 X30.9053 Y15.1525
G01 X30.9543 Y15.1270
G01 X31.0027 Y15.1004
G01 X31.0504 Y15.0726
G01 X31.0974 Y15.0436
G01 X31.1437 Y15.0135
G01 X31.1892 Y14.9823
G01 X31.2340 Y14.9499
G01 X31.2779 Y14.9165
G01 X31.3210 Y14.8820
G01 X31.3633 Y14.8464
G01 X31.4046 Y14.8098
G01 X31.4451 Y14.7723
G01 X31.4846 Y14.7337
G01 X31.5232 Y14.6942
G01 X31.5608 Y14.6537
G01 X31.5974 Y14.6123
G01 X31.6329 Y14.5701
G01 X31.6674 Y14.5270
G01 X31.7009 Y14.4830
G01 X31.7332 Y14.4383
G01 X31.7644 Y14.3927
G01 X31.7946 Y14.3464
G01 X31.8235 Y14.2994
G01 X31.8513 Y14.2517
G01 X31.8780 Y14.2033
G01 X31.9034 Y14.1543
G01 X31.9276 Y14.1047
G01 X31.9506 Y14.0545
G01 X31.9724 Y14.0037
G01 X31.9929 Y13.9525
G01 X32.0121 Y13.9007
G01 X32.0301 Y13.8485
G01 X32.0468 Y13.7958
G01 X32.0621 Y13.7428
G01 X32.0762 Y13.6894
G01 X32.0890 Y13.6357
G01 X32.1004 Y13.5817
G01 X32.1105 Y13.5274
G01 X32.1193 Y13.4728
G01 X32.1267 Y13.4181
G01 X32.1328 Y13.3632
G01 X32.1375 Y13.3082
G01 X32.1409 Y13.2531
G01 X32.1430 Y13.1979
G01 X32.1436 Y13.1427
G01 X31.2436 Y13.1427
G01 X31.2432 Y13.1096
G01 X31.2420 Y13.0765
G01 X31.2400 Y13.0434
G01 X31.2371 Y13.0104
G01 X31.2335 Y12.9774
G01 X31.2290 Y12.9446
G01 X31.2238 Y12.9119
G01 X31.2177 Y12.8793
G01 X31.2108 Y12.8469
G01 X31.2032 Y12.8147
G01 X31.1947 Y12.7826
G01 X31.1855 Y12.7508
G01 X31.1755 Y12.7192
G01 X31.1647 Y12.6879
G01 X31.1532 Y12.6568
G01 X31.1409 Y12.6261
G01 X31.1278 Y12.5956
G01 X31.1140 Y12.5655
G01 X31.0995 Y12.5357
G01 X31.0842 Y12.5063
G01 X31.0683 Y12.4773
G01 X31.0516 Y12.4487
G01 X31.0342 Y12.4205
G01 X31.0161 Y12.3927
G01 X30.9974 Y12.3654
G01 X30.9780 Y12.3385
G01 X30.9579 Y12.3121
G01 X30.9372 Y12.2863
G01 X30.9159 Y12.2609
G01 X30.8939 Y12.2361
G01 X30.8714 Y12.2118
G01 X30.8482 Y12.1881
G01 X30.8245 Y12.1650
G01 X30.8002 Y12.1424
G01 X30.7754 Y12.1205
G01 X30.7501 Y12.0991
G01 X30.7242 Y12.0784
G01 X30.6978 Y12.0584
G01 X30.6710 Y12.0390
G01 X30.6437 Y12.0202
G01 X30.6159 Y12.0021
G01 X30.5877 Y11.9848
G01 X30.5590 Y11.9681
G01 X30.5300 Y11.9521
G01 X30.5006 Y11.9368
G01 X30.4708 Y11.9223
G01 X30.4407 Y11.9085
G01 X30.4103 Y11.8955
G01 X30.3795 Y11.8832
G01 X30.3484 Y11.8716
G01 X30.3171 Y11.8608
G01 X30.2855 Y11.8508
G01 X30.2537 Y11.8416
G01 X30.2217 Y11.8332
G01 X30.1894 Y11.8255
G01 X30.1570 Y11.8186
G01 X30.1244 Y11.8126
G01 X30.0917 Y11.8073
G01 X30.0589 Y11.8029
G01 X30.0260 Y11.7992
G01 X29.9929 Y11.7964
G01 X29.9599 Y11.7943
G01 X29.9268 Y11.7931
G01 X29.8936 Y11.7927
G01 X29.8605 Y11.7931
G01 X29.8274 Y11.7943
G01 X29.7943 Y11.7964
G01 X29.7613 Y11.7992
G01 X29.7284 Y11.8029
G01 X29.6955 Y11.8073
G01 X29.6628 Y11.8126
G01 X29.6303 Y11.8186
G01 X29.5978 Y11.8255
G01 X29.5656 Y11.8332
G01 X29.5336 Y11.8416
G01 X29.5018 Y11.8508
G01 X29.4702 Y11.8608
G01 X29.4388 Y11.8716
G01 X29.4078 Y11.8832
G01 X29.3770 Y11.8955
G01 X29.3466 Y11.9085
G01 X29.3164 Y11.9223
G01 X29.2867 Y11.9368
G01 X29.2572 Y11.9521
G01 X29.2282 Y11.9681
G01 X29.1996 Y11.9848
G01 X29.1714 Y12.0021
G01 X29.1436 Y12.0202
G01 X29.1163 Y12.0390
G01 X29.0894 Y12.0584
G01 X29.0631 Y12.0784
G01 X29.0372 Y12.0991
G01 X29.0119 Y12.1205
G01 X28.9870 Y12.1424
G01 X28.9628 Y12.1650
G01 X28.9390 Y12.1881
G01 X28.9159 Y12.2118
G01 X28.8934 Y12.2361
G01 X28.8714 Y12.2609
G01 X28.8501 Y12.2863
G01 X28.8294 Y12.3121
G01 X28.8093 Y12.3385
G01 X28.7899 Y12.3654
G01 X28.7712 Y12.3927
G01 X28.7531 Y12.4205
G01 X28.7357 Y12.4487
G01 X28.7190 Y12.4773
G01 X28.7030 Y12.5063
G01 X28.6878 Y12.5357
G01 X28.6732 Y12.5655
G01 X28.6595 Y12.5956
G01 X28.6464 Y12.6261
G01 X28.6341 Y12.6568
G01 X28.6225 Y12.6879
G01 X28.6118 Y12.7192
G01 X28.6018 Y12.7508
G01 X28.5925 Y12.7826
G01 X28.5841 Y12.8147
G01 X28.5764 Y12.8469
G01 X28.5696 Y12.8793
G01 X28.5635 Y12.9119
G01 X28.5582 Y12.9446
G01 X28.5538 Y12.9774
G01 X28.5501 Y13.0104
G01 X28.5473 Y13.0434
G01 X28.5453 Y13.0765
G01 X28.5440 Y13.1096
G01 X28.5436 Y13.1427
G01 X28.5440 Y13.1758
G01 X28.5453 Y13.2089
G01 X28.5473 Y13.2420
G01 X28.5501 Y13.2750
G01 X28.5538 Y13.3080
G01 X28.5582 Y13.3408
G01 X28.5635 Y13.3735
G01 X28.5696 Y13.4061
G01 X28.5764 Y13.4385
G01 X28.5841 Y13.4707
G01 X28.5925 Y13.5028
G01 X28.6018 Y13.5346
G01 X28.6118 Y13.5662
G01 X28.6225 Y13.5975
G01 X28.6341 Y13.6286
G01 X28.6464 Y13.6593
G01 X28.6595 Y13.6898
G01 X28.6732 Y13.7199
G01 X28.6878 Y13.7497
G01 X28.7030 Y13.7791
G01 X28.7190 Y13.8081
G01 X28.7357 Y13.8367
G01 X28.7531 Y13.8649
G01 X28.7712 Y13.8927
G01 X28.7899 Y13.9200
G01 X28.8093 Y13.9469
G01 X28.8294 Y13.9733
G01 X28.8501 Y13.9991
G01 X28.8714 Y14.0245
G01 X28.8934 Y14.0493
G01 X28.9159 Y14.0736
G01 X28.9390 Y14.0973
G01 X28.9628 Y14.1204
G01 X28.9870 Y14.1430
G01 X29.0119 Y14.1649
G01 X29.0372 Y14.1863
G01 X29.0631 Y14.2070
G01 X29.0894 Y14.2270
G01 X29.1163 Y14.2464
G01 X29.1436 Y14.2652
G01 X29.1714 Y14.2833
G01 X29.1996 Y14.3006
G01 X29.2282 Y14.3173
G01 X29.2572 Y14.3333
G01 X29.2867 Y14.3486
G01 X29.3164 Y14.3631
G01 X29.3466 Y14.3769
G01 X29.3770 Y14.3899
G01 X29.4078 Y14.4022
G01 X29.4388 Y14.4138
G01 X29.4702 Y14.4246
G01 X29.5018 Y14.4346
G01 X29.5336 Y14.4438
G01 X29.5656 Y14.4522
G01 X29.5978 Y14.4599
G01 X29.6303 Y14.4668
G01 X29.6628 Y14.4728
G01 X29.6955 Y14.4781
G01 X29.7284 Y14.4825
G01 X29.7613 Y14.4862
G01 X29.7943 Y14.4890
G01 X29.8274 Y14.4911
G01 X29.8605 Y14.4923
G01 X29.8936 Y14.4927
G01 X29.9268 Y14.4923
G01 X29.9599 Y14.4911
G01 X29.9929 Y14.4890
G01 X30.0260 Y14.4862
G01 X30.0589 Y14.4825
G01 X30.0917 Y14.4781
G01 X30.1244 Y14.4728
G01 X30.1570 Y14.4668
G01 X30.1894 Y14.4599
G01 X30.2217 Y14.4522
G01 X30.2537 Y14.4438
G01 X30.2855 Y14.4346
G01 X30.3171 Y14.4246
G01 X30.3484 Y14.4138
G01 X30.3795 Y14.4022
G01 X30.4103 Y14.3899
G01 X30.4407 Y14.3769
G01 X30.4708 Y14.3631
G01 X30.5006 Y14.3486
G01 X30.5300 Y14.3333
G01 X30.5590 Y14.3173
G01 X30.5877 Y14.3006
G01 X30.6159 Y14.2833
G01 X30.6437 Y14.2652
G01 X30.6710 Y14.2464
G01 X30.6978 Y14.2270
G01 X30.7242 Y14.2070
G01 X30.7501 Y14.1863
G01 X30.7754 Y14.1649
G01 X30.8002 Y14.1430
G01 X30.8245 Y14.1204
G01 X30.8482 Y14.0973
G01 X30.8714 Y14.0736
G01 X30.8939 Y14.0493
G01 X30.9159 Y14.0245
G01 X30.9372 Y13.9991
G01 X30.9579 Y13.9733
G01 X30.9780 Y13.9469
G01 X30.9974 Y13.9200
G01 X31.0161 Y13.8927
G01 X31.0342 Y13.8649
G01 X31.0516 Y13.8367
G01 X31.0683 Y13.8081
G01 X31.0842 Y13.7791
G01 X31.0995 Y13.7497
G01 X31.1140 Y13.7199
G01 X31.1278 Y13.6898
G01 X31.1409 Y13.6593
G01 X31.1532 Y13.6286
G01 X31.1647 Y13.5975
G01 X31.1755 Y13.5662
G01 X31.1855 Y13.5346
G01 X31.1947 Y13.5028
G01 X31.2032 Y13.4707
G01 X31.2108 Y13.4385
G01 X31.2177 Y13.4061
G01 X31.2238 Y13.3735
G01 X31.2290 Y13.3408
G01 X31.2335 Y13.3080
G01 X31.2371 Y13.2750
G01 X31.2400 Y13.2420
G01 X31.2420 Y13.2089
G01 X31.2432 Y13.1758
G01 X31.2436 Y13.1427
G01 X30.3436 Y13.1427
G01 X30.3431 Y13.1206
G01 X30.3415 Y13.0986
G01 X30.3388 Y13.0767
G01 X30.3350 Y13.0549
G01 X30.3301 Y13.0334
G01 X30.3243 Y13.0121
G01 X30.3173 Y12.9911
G01 X30.3094 Y12.9705
G01 X30.3004 Y12.9503
G01 X30.2905 Y12.9306
G01 X30.2796 Y12.9114
G01 X30.2678 Y12.8927
G01 X30.2551 Y12.8746
G01 X30.2415 Y12.8572
G01 X30.2271 Y12.8405
G01 X30.2118 Y12.8245
G01 X30.1958 Y12.8093
G01 X30.1791 Y12.7948
G01 X30.1617 Y12.7813
G01 X30.1436 Y12.7685
G01 X30.1250 Y12.7567
G01 X30.1058 Y12.7458
G01 X30.0860 Y12.7359
G01 X30.0658 Y12.7270
G01 X30.0452 Y12.7190
G01 X30.0243 Y12.7121
G01 X30.0030 Y12.7062
G01 X29.9814 Y12.7013
G01 X29.9597 Y12.6976
G01 X29.9377 Y12.6949
G01 X29.9157 Y12.6932
G01 X29.8936 Y12.6927
G01 X29.8716 Y12.6932
G01 X29.8495 Y12.6949
G01 X29.8276 Y12.6976
G01 X29.8058 Y12.7013
G01 X29.7843 Y12.7062
G01 X29.7630 Y12.7121
G01 X29.7420 Y12.7190
G01 X29.7214 Y12.7270
G01 X29.7012 Y12.7359
G01 X29.6815 Y12.7458
G01 X29.6623 Y12.7567
G01 X29.6436 Y12.7685
G01 X29.6256 Y12.7813
G01 X29.6082 Y12.7948
G01 X29.5914 Y12.8093
G01 X29.5754 Y12.8245
G01 X29.5602 Y12.8405
G01 X29.5458 Y12.8572
G01 X29.5322 Y12.8746
G01 X29.5195 Y12.8927
G01 X29.5077 Y12.9114
G01 X29.4968 Y12.9306
G01 X29.4868 Y12.9503
G01 X29.4779 Y12.9705
G01 X29.4699 Y12.9911
G01 X29.4630 Y13.0121
G01 X29.4571 Y13.0334
G01 X29.4523 Y13.0549
G01 X29.4485 Y13.0767
G01 X29.4458 Y13.0986
G01 X29.4442 Y13.1206
G01 X29.4436 Y13.1427
G01 X29.4442 Y13.1648
G01 X29.4458 Y13.1868
G01 X29.4485 Y13.2087
G01 X29.4523 Y13.2305
G01 X29.4571 Y13.2520
G01 X29.4630 Y13.2733
G01 X29.4699 Y13.2943
G01 X29.4779 Y13.3149
G01 X29.4868 Y13.3351
G01 X29.4968 Y13.3548
G01 X29.5077 Y13.3740
G01 X29.5195 Y13.3927
G01 X29.5322 Y13.4108
G01 X29.5458 Y13.4282
G01 X29.5602 Y13.4449
G01 X29.5754 Y13.4609
G01 X29.5914 Y13.4761
G01 X29.6082 Y13.4906
G01 X29.6256 Y13.5041
G01 X29.6436 Y13.5169
G01 X29.6623 Y13.5287
G01 X29.6815 Y13.5396
G01 X29.7012 Y13.5495
G01 X29.7214 Y13.5584
G01 X29.7420 Y13.5664
G01 X29.7630 Y13.5733
G01 X29.7843 Y13.5792
G01 X29.8058 Y13.5841
G01 X29.8276 Y13.5878
G01 X29.8495 Y13.5905
G01 X29.8716 Y13.5922
G01 X29.8936 Y13.5927
G01 X29.9157 Y13.5922
G01 X29.9377 Y13.5905
G01 X29.9597 Y13.5878
G01 X29.9814 Y13.5841
G01 X30.0030 Y13.5792
G01 X30.0243 Y13.5733
G01 X30.0452 Y13.5664
G01 X30.0658 Y13.5584
G01 X30.0860 Y13.5495
G01 X30.1058 Y13.5396
G01 X30.1250 Y13.5287
G01 X30.1436 Y13.5169
G01 X30.1617 Y13.5041
G01 X30.1791 Y13.4906
G01 X30.1958 Y13.4761
G01 X30.2118 Y13.4609
G01 X30.2271 Y13.4449
G01 X30.2415 Y13.4282
G01 X30.2551 Y13.4108
G01 X30.2678 Y13.3927
G01 X30.2796 Y13.3740
G01 X30.2905 Y13.3548
G01 X30.3004 Y13.3351
G01 X30.3094 Y13.3149
G01 X30.3173 Y13.2943
G01 X30.3243 Y13.2733
G01 X30.3301 Y13.2520
G01 X30.3350 Y13.2305
G01 X30.3388 Y13.2087
G01 X30.3415 Y13.1868
G01 X30.3431 Y13.1648
G01 X30.3436 Y13.1427
G01 X35.8436 Y16.3301
G01 X35.7667 Y16.4698
G01 X35.6951 Y16.5927
G00 Z2.0000
G00 X33.4428 Y29.6927
G01 F60.00
G01 Z-0.8000
G01 F120.00
G01 X33.4787 Y29.7295
G01 X33.5613 Y29.8185
G01 X33.6418 Y29.9095
G01 X33.7200 Y30.0025
G01 X33.7959 Y30.0973
G01 X33.8695 Y30.1940
G01 X33.9407 Y30.2924
G01 X34.0094 Y30.3926
G01 X34.0757 Y30.4945
G01 X34.1394 Y30.5979
G01 X34.2006 Y30.7029
G01 X34.2591 Y30.8093
G01 X34.3151 Y30.9171
G01 X34.3684 Y31.0263
G01 X34.4190 Y31.1368
G01 X34.4668 Y31.2484
G01 X34.5119 Y31.3612
G01 X34.5543 Y31.4751
G01 X34.5938 Y31.5900
G01 X34.6305 Y31.7058
G01 X34.6643 Y31.8225
G01 X34.6953 Y31.9399
G01 X34.7234 Y32.0581
G01 X34.7485 Y32.1770
G01 X34.7708 Y32.2964
G01 X34.7901 Y32.4164
G01 X34.8064 Y32.5368
G01 X34.8198 Y32.6575
G01 X34.8302 Y32.7786
G01 X34.8377 Y32.8998
G01 X34.8421 Y33.0212
G01 X34.8436 Y33.1427
G01 X34.8421 Y33.2642
G01 X34.8377 Y33.3856
G01 X34.8302 Y33.5068
G01 X34.8198 Y33.6279
G01 X34.8064 Y33.7486
G01 X34.7901 Y33.8690
G01 X34.7708 Y33.9890
G01 X34.7485 Y34.1084
G01 X34.7234 Y34.2272
G01 X34.6953 Y34.3454
G01 X34.6643 Y34.4629
G01 X34.6305 Y34.5796
G01 X34.5938 Y34.6954
G01 X34.5543 Y34.8103
G01 X34.5119 Y34.9242
G01 X34.4668 Y35.0370
G01 X34.4190 Y35.1486
G01 X34.3684 Y35.2591
G01 X34.3151 Y35.3683
G01 X34.2591 Y35.4761
G01 X34.2006 Y35.5825
G01 X34.1394 Y35.6875
G01 X34.0757 Y35.7909
G01 X34.0094 Y35.8928
G01 X33.9407 Y35.9929
G01 X33.8695 Y36.0914
G01 X33.7959 Y36.1881
G01 X33.7200 Y36.2829
G01 X33.6418 Y36.3759
G01 X33.5613 Y36.4669
G01 X33.4787 Y36.5559
G01 X33.4428 Y36.5927
G00 Z2.0000
G00 X34.6176 Y36.5927
G01 F60.00
G01 Z-0.8000
G01 F120.00
G01 X34.6765 Y36.5112
G01 X34.7577 Y36.3928
G01 X34.8360 Y36.2724
G01 X34.9113 Y36.1502
G01 X34.9836 Y36.0262
G01 X35.0529 Y35.9004
G01 X35.1190 Y35.7729
G01 X35.1820 Y35.6439
G01 X35.2418 Y35.5134
G01 X35.2983 Y35.3814
G01 X35.3516 Y35.2481
G01 X35.4017 Y35.1135
G01 X35.4484 Y34.9777
G01 X35.4917 Y34.8409
G01 X35.5317 Y34.7030
G01 X35.5683 Y34.5641
G01 X35.6015 Y34.4244
G01 X35.6312 Y34.2840
G01 X35.6575 Y34.1428
G01 X35.6803 Y34.0011
G01 X35.6996 Y33.8588
G01 X35.7155 Y33.7161
G01 X35.7278 Y33.5731
G01 X35.7366 Y33.4297
G01 X35.7419 Y33.2863
G01 X35.7436 Y33.1427
G01 X35.7419 Y32.9991
G01 X35.7366 Y32.8557
G01 X35.7278 Y32.7123
G01 X35.7155 Y32.5693
G01 X35.6996 Y32.4266
G01 X35.6803 Y32.2843
G01 X35.6575 Y32.1426
G01 X35.6312 Y32.0014
G01 X35.6015 Y31.8610
G01 X35.5683 Y31.7213
G01 X35.5317 Y31.5824
G01 X35.4917 Y31.4445
G01 X35.4484 Y31.3077
G01 X35.4017 Y31.1719
G01 X35.3516 Y31.0373
G01 X35.2983 Y30.9040
G01 X35.2418 Y30.7720
G01 X35.1820 Y30.6415
G01 X35.1190 Y30.5125
G01 X35.0529 Y30.3850
G01 X34.9836 Y30.2592
G01 X34.9113 Y30.1352
G01 X34.8360 Y30.0130
G01 X34.7577 Y29.8926
G01 X34.6765 Y29.7742
G01 X34.6176 Y29.6927
G01 X35.6951 Y29.6927
G01 X35.7667 Y29.8156
G01 X35.8436 Y29.9553
G01 X33.0436 Y33.1427
G01 X33.0427 Y33.0654
G01 X33.0398 Y32.9881
G01 X33.0351 Y32.9110
G01 X33.0285 Y32.8339
G01 X33.0199 Y32.7571
G01 X33.0095 Y32.6805
G01 X32.9973 Y32.6042
G01 X32.9831 Y32.5282
G01 X32.9671 Y32.4525
G01 X32.9492 Y32.3773
G01 X32.9295 Y32.3026
G01 X32.9080 Y32.2283
G01 X32.8846 Y32.1546
G01 X32.8595 Y32.0815
G01 X32.8326 Y32.0090
G01 X32.8039 Y31.9372
G01 X32.7734 Y31.8662
G01 X32.7412 Y31.7959
G01 X32.7073 Y31.7264
G01 X32.6717 Y31.6578
G01 X32.6344 Y31.5901
G01 X32.5955 Y31.5233
G01 X32.5549 Y31.4575
G01 X32.5128 Y31.3927
G01 X32.4690 Y31.3289
G01 X32.4237 Y31.2662
G01 X32.3769 Y31.2047
G01 X32.3286 Y31.1444
G01 X32.2788 Y31.0852
G01 X32.2276 Y31.0273
G01 X32.1750 Y30.9706
G01 X32.1210 Y30.9153
G01 X32.0657 Y30.8613
G01 X32.0090 Y30.8087
G01 X31.9511 Y30.7575
G01 X31.8920 Y30.7077
G01 X31.8316 Y30.6594
G01 X31.7701 Y30.6126
G01 X31.7074 Y30.5673
G01 X31.6437 Y30.5236
G01 X31.5789 Y30.4814
G01 X31.5131 Y30.4409
G01 X31.4463 Y30.4019
G01 X31.3785 Y30.3646
G01 X31.3099 Y30.3290
G01 X31.2404 Y30.2951
G01 X31.1701 Y30.2629
G01 X31.0991 Y30.2325
G01 X31.0273 Y30.2038
G01 X30.9548 Y30.1768
G01 X30.8817 Y30.1517
G01 X30.8080 Y30.1283
G01 X30.7338 Y30.1068
G01 X30.6590 Y30.0871
G01 X30.5838 Y30.0692
G01 X30.5082 Y30.0532
G01 X30.4322 Y30.0391
G01 X30.3558 Y30.0268
G01 X30.2792 Y30.0164
G01 X30.2024 Y30.0079
G01 X30.1254 Y30.0012
G01 X30.0482 Y29.9965
G01 X29.9709 Y29.9936
G01 X29.8936 Y29.9927
G01 X29.8163 Y29.9936
G01 X29.7391 Y29.9965
G01 X29.6619 Y30.0012
G01 X29.5849 Y30.0079
G01 X29.5080 Y30.0164
G01 X29.4314 Y30.0268
G01 X29.3551 Y30.0391
G01 X29.2791 Y30.0532
G01 X29.2035 Y30.0692
G01 X29.1282 Y30.0871
G01 X29.0535 Y30.1068
G01 X28.9792 Y30.1283
G01 X28.9055 Y30.1517
G01 X28.8324 Y30.1768
G01 X28.7600 Y30.2038
G01 X28.6882 Y30.2325
G01 X28.6171 Y30.2629
G01 X28.5468 Y30.2951
G01 X28.4774 Y30.3290
G01 X28.4087 Y30.3646
G01 X28.3410 Y30.4019
G01 X28.2742 Y30.4409
G01 X28.2084 Y30.4814
G01 X28.1436 Y30.5236
G01 X28.0798 Y30.5673
G01 X28.0172 Y30.6126
G01 X27.9557 Y30.6594
G01 X27.8953 Y30.7077
G01 X27.8361 Y30.7575
G01 X27.7782 Y30.8087
G01 X27.7216 Y30.8613
G01 X27.6662 Y30.9153
G01 X27.6123 Y30.9706
G01 X27.5596 Y31.0273
G01 X27.5084 Y31.0852
G01 X27.4587 Y31.1444
G01 X27.4103 Y31.2047
G01 X27.3635 Y31.2662
G01 X27.3182 Y31.3289
G01 X27.2745 Y31.3927
G01 X27.2323 Y31.4575
G01 X27.1918 Y31.5233
G01 X27.1529 Y31.5901
G01 X27.1156 Y31.6578
G01 X27.0800 Y31.7264
G01 X27.0461 Y31.7959
G01 X27.0139 Y31.8662
G01 X26.9834 Y31.9372
G01 X26.9547 Y32.0090
G01 X26.9278 Y32.0815
G01 X26.9026 Y32.1546
G01 X26.8793 Y32.2283
G01 X26.8577 Y32.3026
G01 X26.8380 Y32.3773
G01 X26.8202 Y32.4525
G01 X26.8042 Y32.5282
G01 X26.7900 Y32.6042
G01 X26.7777 Y32.6805
G01 X26.7673 Y32.7571
G01 X26.7588 Y32.8339
G01 X26.7522 Y32.9110
G01 X26.7474 Y32.9881
G01 X26.7446 Y33.0654
G01 X26.7436 Y33.1427
G01 X26.7446 Y33.2200
G01 X26.7474 Y33.2973
G01 X26.7522 Y33.3744
G01 X26.7588 Y33.4515
G01 X26.7673 Y33.5283
G01 X26.7777 Y33.6049
G01 X26.7900 Y33.6812
G01 X26.8042 Y33.7572
G01 X26.8202 Y33.8329
G01 X26.8380 Y33.9081
G01 X26.8577 Y33.9828
G01 X26.8793 Y34.0571
G01 X26.9026 Y34.1308
G01 X26.9278 Y34.2039
G01 X26.9547 Y34.2764
G01 X26.9834 Y34.3482
G01 X27.0139 Y34.4192
G01 X27.0461 Y34.4895
G01 X27.0800 Y34.5590
G01 X27.1156 Y34.6276
G01 X27.1529 Y34.6953
G01 X27.1918 Y34.7621
G01 X27.2323 Y34.8279
G01 X27.2745 Y34.8927
G01 X27.3182 Y34.9565
G01 X27.3635 Y35.0192
G01 X27.4103 Y35.0807
G01 X27.4587 Y35.1410
G01 X27.5084 Y35.2002
G01 X27.5596 Y35.2581
G01 X27.6123 Y35.3148
G01 X27.6662 Y35.3701
G01 X27.7216 Y35.4241
G01 X27.7782 Y35.4767
G01 X27.8361 Y35.5279
G01 X27.8953 Y35.5777
G01 X27.9557 Y35.6260
G01 X28.0172 Y35.6728
G01 X28.0798 Y35.7181
G01 X28.1436 Y35.7618
G01 X28.2084 Y35.8040
G01 X28.2742 Y35.8445
G01 X28.3410 Y35.8835
G01 X28.4087 Y35.9207
G01 X28.4774 Y35.9564
G01 X28.5468 Y35.9903
G01 X28.6171 Y36.0225
G01 X28.6882 Y36.0529
G01 X28.7600 Y36.0816
G01 X28.8324 Y36.1086
G01 X28.9055 Y36.1337
G01 X28.9792 Y36.1571
G01 X29.0535 Y36.1786
G01 X29.1282 Y36.1983
G01 X29.2035 Y36.2162
G01 X29.2791 Y36.2322
G01 X29.3551 Y36.2463
G01 X29.4314 Y36.2586
G01 X29.5080 Y36.2690
G01 X29.5849 Y36.2775
G01 X29.6619 Y36.2842
G01 X29.7391 Y36.2889
G01 X29.8163 Y36.2917
G01 X29.8936 Y36.2927
G01 X29.9709 Y36.2917
G01 X30.0482 Y36.2889
G01 X30.1254 Y36.2842
G01 X30.2024 Y36.2775
G01 X30.2792 Y36.2690
G01 X30.3558 Y36.2586
G01 X30.4322 Y36.2463
G01 X30.5082 Y36.2322
G01 X30.5838 Y36.2162
G01 X30.6590 Y36.1983
G01 X30.7338 Y36.1786
G01 X30.8080 Y36.1571
G01 X30.8817 Y36.1337
G01 X30.9548 Y36.1086
G01 X31.0273 Y36.0816
G01 X31.0991 Y36.0529
G01 X31.1701 Y36.0225
G01 X31.2404 Y35.9903
G01 X31.3099 Y35.9564
G01 X31.3785 Y35.9207
G01 X31.4463 Y35.8835
G01 X31.5131 Y35.8445
G01 X31.5789 Y35.8040
G01 X31.6437 Y35.7618
G01 X31.7074 Y35.7181
G01 X31.7701 Y35.6728
G01 X31.8316 Y35.6260
G01 X31.8920 Y35.5777
G01 X31.9511 Y35.5279
G01 X32.0090 Y35.4767
G01 X32.0657 Y35.4241
G01 X32.1210 Y35.3701
G01 X32.1750 Y35.3148
G01 X32.2276 Y35.2581
G01 X32.2788 Y35.2002
G01 X32.3286 Y35.1410
G01 X32.3769 Y35.0807
G01 X32.4237 Y35.0192
G01 X32.4690 Y34.9565
G01 X32.5128 Y34.8927
G01 X32.5549 Y34.8279
G01 X32.5955 Y34.7621
G01 X32.6344 Y34.6953
G01 X32.6717 Y34.6276
G01 X32.7073 Y34.5590
G01 X32.7412 Y34.4895
G01 X32.7734 Y34.4192
G01 X32.8039 Y34.3482
G01 X32.8326 Y34.2764
G01 X32.8595 Y34.2039
G01 X32.8846 Y34.1308
G01 X32.9080 Y34.0571
G01 X32.9295 Y33.9828
G01 X32.9492 Y33.9081
G01 X32.9671 Y33.8329
G01 X32.9831 Y33.7572
G01 X32.9973 Y33.6812
G01 X33.0095 Y33.6049
G01 X33.0199 Y33.5283
G01 X33.0285 Y33.4515
G01 X33.0351 Y33.3744
G01 X33.0398 Y33.2973
G01 X33.0427 Y33.2200
G01 X33.0436 Y33.1427
G01 X32.1436 Y33.1427
G01 X32.1430 Y33.0875
G01 X32.1409 Y33.0323
G01 X32.1375 Y32.9772
G01 X32.1328 Y32.9222
G01 X32.1267 Y32.8673
G01 X32.1193 Y32.8126
G01 X32.1105 Y32.7580
G01 X32.1004 Y32.7037
G01 X32.0890 Y32.6497
G01 X32.0762 Y32.5960
G01 X32.0621 Y32.5426
G01 X32.0468 Y32.4896
G01 X32.0301 Y32.4369
G01 X32.0121 Y32.3847
G01 X31.9929 Y32.3329
G01 X31.9724 Y32.2817
G01 X31.9506 Y32.2309
G01 X31.9276 Y32.1807
G01 X31.9034 Y32.1311
G01 X31.8780 Y32.0821
G01 X31.8513 Y32.0337
G01 X31.8235 Y31.9860
G01 X31.7946 Y31.9390
G01 X31.7644 Y31.8927
G01 X31.7332 Y31.8471
G01 X31.7009 Y31.8024
G01 X31.6674 Y31.7584
G01 X31.6329 Y31.7153
G01 X31.5974 Y31.6731
G01 X31.5608 Y31.6317
G01 X31.5232 Y31.5912
G01 X31.4846 Y31.5517
G01 X31.4451 Y31.5131
G01 X31.4046 Y31.4756
G01 X31.3633 Y31.4390
G01 X31.3210 Y31.4034
G01 X31.2779 Y31.3689
G01 X31.2340 Y31.3355
G01 X31.1892 Y31.3031
G01 X31.1437 Y31.2719
G01 X31.0974 Y31.2418
G01 X31.0504 Y31.2128
G01 X31.0027 Y31.1850
G01 X30.9543 Y31.1584
G01 X30.9053 Y31.1329
G01 X30.8556 Y31.1087
G01 X30.8054 Y31.0857
G01 X30.7547 Y31.0640
G01 X30.7034 Y31.0435
G01 X30.6516 Y31.0242
G01 X30.5994 Y31.0063
G01 X30.5468 Y30.9896
G01 X30.4937 Y30.9742
G01 X30.4403 Y30.9601
G01 X30.3866 Y30.9474
G01 X30.3326 Y30.9359
G01 X30.2783 Y30.9258
G01 X30.2238 Y30.9171
G01 X30.1691 Y30.9096
G01 X30.1142 Y30.9035
G01 X30.0592 Y30.8988
G01 X30.0040 Y30.8954
G01 X29.9489 Y30.8934
G01 X29.8936 Y30.8927
G01 X29.8384 Y30.8934
G01 X29.7832 Y30.8954
G01 X29.7281 Y30.8988
G01 X29.6731 Y30.9035
G01 X29.6182 Y30.9096
G01 X29.5635 Y30.9171
G01 X29.5090 Y30.9258
G01 X29.4547 Y30.9359
G01 X29.4007 Y30.9474
G01 X29.3469 Y30.9601
G01 X29.2935 Y30.9742
G01 X29.2405 Y30.9896
G01 X29.1879 Y31.0063
G01 X29.1356 Y31.0242
G01 X29.0839 Y31.0435
G01 X29.0326 Y31.0640
G01 X28.9818 Y31.0857
G01 X28.9316 Y31.1087
G01 X28.8820 Y31.1329
G01 X28.8330 Y31.1584
G01 X28.7846 Y31.1850
G01 X28.7369 Y31.2128
G01 X28.6899 Y31.2418
G01 X28.6436 Y31.2719
G01 X28.5981 Y31.3031
G01 X28.5533 Y31.3355
G01 X28.5094 Y31.3689
G01 X28.4662 Y31.4034
G01 X28.4240 Y31.4390
G01 X28.3826 Y31.4756
G01 X28.3422 Y31.5131
G01 X28.3026 Y31.5517
G01 X28.2641 Y31.5912
G01 X28.2265 Y31.6317
G01 X28.1899 Y31.6731
G01 X28.1544 Y31.7153
G01 X28.1199 Y31.7584
G01 X28.0864 Y31.8024
G01 X28.0541 Y31.8471
G01 X28.0228 Y31.8927
G01 X27.9927 Y31.9390
G01 X27.9637 Y31.9860
G01 X27.9359 Y32.0337
G01 X27.9093 Y32.0821
G01 X27.8839 Y32.1311
G01 X27.8597 Y32.1807
G01 X27.8367 Y32.2309
G01 X27.8149 Y32.2817
G01 X27.7944 Y32.3329
G01 X27.7752 Y32.3847
G01 X27.7572 Y32.4369
G01 X27.7405 Y32.4896
G01 X27.7251 Y32.5426
G01 X27.7111 Y32.5960
G01 X27.6983 Y32.6497
G01 X27.6869 Y32.7037
G01 X27.6768 Y32.7580
G01 X27.6680 Y32.8126
G01 X27.6606 Y32.8673
G01 X27.6545 Y32.9222
G01 X27.6497 Y32.9772
G01 X27.6463 Y33.0323
G01 X27.6443 Y33.0875
G01 X27.6436 Y33.1427
G01 X27.6443 Y33.1979
G01 X27.6463 Y33.2531
G01 X27.6497 Y33.3082
G01 X27.6545 Y33.3632
G01 X27.6606 Y33.4181
G01 X27.6680 Y33.4728
G01 X27.6768 Y33.5274
G01 X27.6869 Y33.5817
G01 X27.6983 Y33.6357
G01 X27.7111 Y33.6894
G01 X27.7251 Y33.7428
G01 X27.7405 Y33.7958
G01 X27.7572 Y33.8485
G01 X27.7752 Y33.9007
G01 X27.7944 Y33.9525
G01 X27.8149 Y34.0037
G01 X27.8367 Y34.0545
G01 X27.8597 Y34.1047
G01 X27.8839 Y34.1543
G01 X27.9093 Y34.2033
G01 X27.9359 Y34.2517
G01 X27.9637 Y34.2994
G01 X27.9927 Y34.3464
G01 X28.0228 Y34.3927
G01 X28.0541 Y34.4383
G01 X28.0864 Y34.4830
G01 X28.1199 Y34.5270
G01 X28.1544 Y34.5701
G01 X28.1899 Y34.6123
G01 X28.2265 Y34.6537
G01 X28.2641 Y34.6942
G01 X28.3026 Y34.7337
G01 X28.3422 Y34.7723
G01 X28.3826 Y34.8098
G01 X28.4240 Y34.8464
G01 X28.4662 Y34.8820
G01 X28.5094 Y34.9165
G01 X28.5533 Y34.9499
G01 X28.5981 Y34.9823
G01 X28.6436 Y35.0135
G01 X28.6899 Y35.0436
G01 X28.7369 Y35.0726
G01 X28.7846 Y35.1004
G01 X28.8330 Y35.1270
G01 X28.8820 Y35.1525
G01 X28.9316 Y35.1767
G01 X28.9818 Y35.1997
G01 X29.0326 Y35.2214
G01 X29.0839 Y35.2419
G01 X29.1356 Y35.2612
G01 X29.1879 Y35.2791
G01 X29.2405 Y35.2958
G01 X29.2935 Y35.3112
G01 X29.3469 Y35.3253
G01 X29.4007 Y35.3380
G01 X29.4547 Y35.3495
G01 X29.5090 Y35.3596
G01 X29.5635 Y35.3683
G01 X29.6182 Y35.3758
G01 X29.6731 Y35.3819
G01 X29.7281 Y35.3866
G01 X29.7832 Y35.3900
G01 X29.8384 Y35.3920
G01 X29.8936 Y35.3927
G01 X29.9489 Y35.3920
G01 X30.0040 Y35.3900
G01 X30.0592 Y35.3866
G01 X30.1142 Y35.3819
G01 X30.1691 Y35.3758
G01 X30.2238 Y35.3683
G01 X30.2783 Y35.3596
G01 X30.3326 Y35.3495
G01 X30.3866 Y35.3380
G01 X30.4403 Y35.3253
G01 X30.4937 Y35.3112
G01 X30.5468 Y35.2958
G01 X30.5994 Y35.2791
G01 X30.6516 Y35.2612
G01 X30.7034 Y35.2419
G01 X30.7547 Y35.2214
G01 X30.8054 Y35.1997
G01 X30.8556 Y35.1767
G01 X30.9053 Y35.1525
G01 X30.9543 Y35.1270
G01 X31.0027 Y35.1004
G01 X31.0504 Y35.0726
G01 X31.0974 Y35.0436
G01 X31.1437 Y35.0135
G01 X31.1892 Y34.9823
G01 X31.2340 Y34.9499
G01 X31.2779 Y34.9165
G01 X31.3210 Y34.8820
G01 X31.3633 Y34.8464
G01 X31.4046 Y34.8098
G01 X31.4451 Y34.7723
G01 X31.4846 Y34.7337
G01 X31.5232 Y34.6942
G01 X31.5608 Y34.6537
G01 X31.5974 Y34.6123
G01 X31.6329 Y34.5701
G01 X31.6674 Y34.5270
G01 X31.7009 Y34.4830
G01 X31.7332 Y34.4383
G01 X31.7644 Y34.3927
G01 X31.7946 Y34.3464
G01 X31.8235 Y34.2994
G01 X31.8513 Y34.2517
G01 X31.8780 Y34.2033
G01 X31.9034 Y34.1543
G01 X31.9276 Y34.1047
G01 X31.9506 Y34.0545
G01 X31.9724 Y34.0037
G01 X31.9929 Y33.9525
G01 X32.0121 Y33.9007
G01 X32.0301 Y33.8485
G01 X32.0468 Y33.7958
G01 X32.0621 Y33.7428
G01 X32.0762 Y33.6894
G01 X32.0890 Y33.6357
G01 X32.1004 Y33.5817
G01 X32.1105 Y33.5274
G01 X32.1193 Y33.4728
G01 X32.1267 Y33.4181
G01 X32.1328 Y33.3632
G01 X32.1375 Y33.3082
G01 X32.1409 Y33.2531
G01 X32.1430 Y33.1979
G01 X32.1436 Y33.1427
G01 X31.2436 Y33.1427
G01 X31.2432 Y33.1096
G01 X31.2420 Y33.0765
G01 X31.2400 Y33.0434
G01 X31.2371 Y33.0104
G01 X31.2335 Y32.9774
G01 X31.2290 Y32.9446
G01 X31.2238 Y32.9119
G01 X31.2177 Y32.8793
G01 X31.2108 Y32.8469
G01 X31.2032 Y32.8147
G01 X31.1947 Y32.7826
G01 X31.1855 Y32.7508
G01 X31.1755 Y32.7192
G01 X31.1647 Y32.6879
G01 X31.1532 Y32.6568
G01 X31.1409 Y32.6261
G01 X31.1278 Y32.5956
G01 X31.1140 Y32.5655
G01 X31.0995 Y32.5357
G01 X31.0842 Y32.5063
G01 X31.0683 Y32.4773
G01 X31.0516 Y32.4487
G01 X31.0342 Y32.4205
G01 X31.0161 Y32.3927
G01 X30.9974 Y32.3654
G01 X30.9780 Y32.3385
G01 X30.9579 Y32.3121
G01 X30.9372 Y32.2863
G01 X30.9159 Y32.2609
G01 X30.8939 Y32.2361
G01 X30.8714 Y32.2118
G01 X30.8482 Y32.1881
G01 X30.8245 Y32.1650
G01 X30.8002 Y32.1424
G01 X30.7754 Y32.1205
G01 X30.7501 Y32.0991
G01 X30.7242 Y32.0784
G01 X30.6978 Y32.0584
G01 X30.6710 Y32.0390
G01 X30.6437 Y32.0202
G01 X30.6159 Y32.0021
G01 X30.5877 Y31.9848
G01 X30.5590 Y31.9681
G01 X30.5300 Y31.9521
G01 X30.5006 Y31.9368
G01 X30.4708 Y31.9223
G01 X30.4407 Y31.9085
G01 X30.4103 Y31.8955
G01 X30.3795 Y31.8832
G01 X30.3484 Y31.8716
G01 X30.3171 Y31.8608
G01 X30.2855 Y31.8508
G01 X30.2537 Y31.8416
G01 X30.2217 Y31.8332
G01 X30.1894 Y31.8255
G01 X30.1570 Y31.8186
G01 X30.1244 Y31.8126
G01 X30.0917 Y31.8073
G01 X30.0589 Y31.8029
G01 X30.0260 Y31.7992
G01 X29.9929 Y31.7964
G01 X29.9599 Y31.7943
G01 X29.9268 Y31.7931
G01 X29.8936 Y31.7927
G01 X29.8605 Y31.7931
G01 X29.8274 Y31.7943
G01 X29.7943 Y31.7964
G01 X29.7613 Y31.7992
G01 X29.7284 Y31.8029
G01 X29.6955 Y31.8073
G01 X29.6628 Y31.8126
G01 X29.6303 Y31.8186
G01 X29.5978 Y31.8255
G01 X29.5656 Y31.8332
G01 X29.5336 Y31.8416
G01 X29.5018 Y31.8508
G01 X29.4702 Y31.8608
G01 X29.4388 Y31.8716
G01 X29.4078 Y31.8832
G01 X29.3770 Y31.8955
G01 X29.3466 Y31.9085
G01 X29.3164 Y31.9223
G01 X29.2867 Y31.9368
G01 X29.2572 Y31.9521
G01 X29.2282 Y31.9681
G01 X29.1996 Y31.9848
G01 X29.1714 Y32.0021
G01 X29.1436 Y32.0202
G01 X29.1163 Y32.0390
G01 X29.0894 Y32.0584
G01 X29.0631 Y32.0784
G01 X29.0372 Y32.0991
G01 X29.0119 Y32.1205
G01 X28.9870 Y32.1424
G01 X28.9628 Y32.1650
G01 X28.9390 Y32.1881
G01 X28.9159 Y32.2118
G01 X28.8934 Y32.2361
G01 X28.8714 Y32.2609
G01 X28.8501 Y32.2863
G01 X28.8294 Y32.3121
G01 X28.8093 Y32.3385
G01 X28.7899 Y32.3654
G01 X28.7712 Y32.3927
G01 X28.7531 Y32.4205
G01 X28.7357 Y32.4487
G01 X28.7190 Y32.4773
G01 X28.7030 Y32.5063
G01 X28.6878 Y32.5357
G01 X28.6732 Y32.5655
G01 X28.6595 Y32.5956
G01 X28.6464 Y32.6261
G01 X28.6341 Y32.6568
G01 X28.6225 Y32.6879
G01 X28.6118 Y32.7192
G01 X28.6018 Y32.7508
G01 X28.5925 Y32.7826
G01 X28.5841 Y32.8147
G01 X28.5764 Y32.8469
G01 X28.5696 Y32.8793
G01 X28.5635 Y32.9119
G01 X28.5582 Y32.9446
G01 X28.5538 Y32.9774
G01 X28.5501 Y33.0104
G01 X28.5473 Y33.0434
G01 X28.5453 Y33.0765
G01 X28.5440 Y33.1096
G01 X28.5436 Y33.1427
G01 X28.5440 Y33.1758
G01 X28.5453 Y33.2089
G01 X28.5473 Y33.2420
G01 X28.5501 Y33.2750
G01 X28.5538 Y33.3080
G01 X28.5582 Y33.3408
G01 X28.5635 Y33.3735
G01 X28.5696 Y33.4061
G01 X28.5764 Y33.4385
G01 X28.5841 Y33.4707
G01 X28.5925 Y33.5028
G01 X28.6018 Y33.5346
G01 X28.6118 Y33.5662
G01 X28.6225 Y33.5975
G01 X28.6341 Y33.6286
G01 X28.6464 Y33.6593
G01 X28.6595 Y33.6898
G01 X28.6732 Y33.7199
G01 X28.6878 Y33.7497
G01 X28.7030 Y33.7791
G01 X28.7190 Y33.8081
G01 X28.7357 Y33.8367
G01 X28.7531 Y33.8649
G01 X28.7712 Y33.8927
G01 X28.7899 Y33.9200
G01 X28.8093 Y33.9469
G01 X28.8294 Y33.9733
G01 X28.8501 Y33.9991
G01 X28.8714 Y34.0245
G01 X28.8934 Y34.0493
G01 X28.9159 Y34.0736
G01 X28.9390 Y34.0973
G01 X28.9628 Y34.1204
G01 X28.9870 Y34.1430
G01 X29.0119 Y34.1649
G01 X29.0372 Y34.1863
G01 X29.0631 Y34.2070
G01 X29.0894 Y34.2270
G01 X29.1163 Y34.2464
G01 X29.1436 Y34.2652
G01 X29.1714 Y34.2833
G01 X29.1996 Y34.3006
G01 X29.2282 Y34.3173
G01 X29.2572 Y34.3333
G01 X29.2867 Y34.3486
G01 X29.3164 Y34.3631
G01 X29.3466 Y34.3769
G01 X29.3770 Y34.3899
G01 X29.4078 Y34.4022
G01 X29.4388 Y34.4138
G01 X29.4702 Y34.4246
G01 X29.5018 Y34.4346
G01 X29.5336 Y34.4438
G01 X29.5656 Y34.4522
G01 X29.5978 Y34.4599
G01 X29.6303 Y34.4668
G01 X29.6628 Y34.4728
G01 X29.6955 Y34.4781
G01 X29.7284 Y34.4825
G01 X29.7613 Y34.4862
G01 X29.7943 Y34.4890
G01 X29.8274 Y34.4911
G01 X29.8605 Y34.4923
G01 X29.8936 Y34.4927
G01 X29.9268 Y34.4923
G01 X29.9599 Y34.4911
G01 X29.9929 Y34.4890
G01 X30.0260 Y34.4862
G01 X30.0589 Y34.4825
G01 X30.0917 Y34.4781
G01 X30.1244 Y34.4728
G01 X30.1570 Y34.4668
G01 X30.1894 Y34.4599
G01 X30.2217 Y34.4522
G01 X30.2537 Y34.4438
G01 X30.2855 Y34.4346
G01 X30.3171 Y34.4246
G01 X30.3484 Y34.4138
G01 X30.3795 Y34.4022
G01 X30.4103 Y34.3899
G01 X30.4407 Y34.3769
G01 X30.4708 Y34.3631
G01 X30.5006 Y34.3486
G01 X30.5300 Y34.3333
G01 X30.5590 Y34.3173
G01 X30.5877 Y34.3006
G01 X30.6159 Y34.2833
G01 X30.6437 Y34.2652
G01 X30.6710 Y34.2464
G01 X30.6978 Y34.2270
G01 X30.7242 Y34.2070
G01 X30.7501 Y34.1863
G01 X30.7754 Y34.1649
G01 X30.8002 Y34.1430
G01 X30.8245 Y34.1204
G01 X30.8482 Y34.0973
G01 X30.8714 Y34.0736
G01 X30.8939 Y34.0493
G01 X30.9159 Y34.0245
G01 X30.9372 Y33.9991
G01 X30.9579 Y33.9733
G01 X30.9780 Y33.9469
G01 X30.9974 Y33.9200
G01 X31.0161 Y33.8927
G01 X31.0342 Y33.8649
G01 X31.0516 Y33.8367
G01 X31.0683 Y33.8081
G01 X31.0842 Y33.7791
G01 X31.0995 Y33.7497
G01 X31.1140 Y33.7199
G01 X31.1278 Y33.6898
G01 X31.1409 Y33.6593
G01 X31.1532 Y33.6286
G01 X31.1647 Y33.5975
G01 X31.1755 Y33.5662
G01 X31.1855 Y33.5346
G01 X31.1947 Y33.5028
G01 X31.2032 Y33.4707
G01 X31.2108 Y33.4385
G01 X31.2177 Y33.4061
G01 X31.2238 Y33.3735
G01 X31.2290 Y33.3408
G01 X31.2335 Y33.3080
G01 X31.2371 Y33.2750
G01 X31.2400 Y33.2420
G01 X31.2420 Y33.2089
G01 X31.2432 Y33.1758
G01 X31.2436 Y33.1427
G01 X30.3436 Y33.1427
G01 X30.3431 Y33.1206
G01 X30.3415 Y33.0986
G01 X30.3388 Y33.0767
G01 X30.3350 Y33.0549
G01 X30.3301 Y33.0334
G01 X30.3243 Y33.0121
G01 X30.3173 Y32.9911
G01 X30.3094 Y32.9705
G01 X30.3004 Y32.9503
G01 X30.2905 Y32.9306
G01 X30.2796 Y32.9114
G01 X30.2678 Y32.8927
G01 X30.2551 Y32.8746
G01 X30.2415 Y32.8572
G01 X30.2271 Y32.8405
G01 X30.2118 Y32.8245
G01 X30.1958 Y32.8093
G01 X30.1791 Y32.7948
G01 X30.1617 Y32.7813
G01 X30.1436 Y32.7685
G01 X30.1250 Y32.7567
G01 X30.1058 Y32.7458
G01 X30.0860 Y32.7359
G01 X30.0658 Y32.7270
G01 X30.0452 Y32.7190
G01 X30.0243 Y32.7121
G01 X30.0030 Y32.7062
G01 X29.9814 Y32.7013
G01 X29.9597 Y32.6976
G01 X29.9377 Y32.6949
G01 X29.9157 Y32.6932
G01 X29.8936 Y32.6927
G01 X29.8716 Y32.6932
G01 X29.8495 Y32.6949
G01 X29.8276 Y32.6976
G01 X29.8058 Y32.7013
G01 X29.7843 Y32.7062
G01 X29.7630 Y32.7121
G01 X29.7420 Y32.7190
G01 X29.7214 Y32.7270
G01 X29.7012 Y32.7359
G01 X29.6815 Y32.7458
G01 X29.6623 Y32.7567
G01 X29.6436 Y32.7685
G01 X29.6256 Y32.7813
G01 X29.6082 Y32.7948
G01 X29.5914 Y32.8093
G01 X29.5754 Y32.8245
G01 X29.5602 Y32.8405
G01 X29.5458 Y32.8572
G01 X29.5322 Y32.8746
G01 X29.5195 Y32.8927
G01 X29.5077 Y32.9114
G01 X29.4968 Y32.9306
G01 X29.4868 Y32.9503
G01 X29.4779 Y32.9705
G01 X29.4699 Y32.9911
G01 X29.4630 Y33.0121
G01 X29.4571 Y33.0334
G01 X29.4523 Y33.0549
G01 X29.4485 Y33.0767
G01 X29.4458 Y33.0986
G01 X29.4442 Y33.1206
G01 X29.4436 Y33.1427
G01 X29.4442 Y33.1648
G01 X29.4458 Y33.1868
G01 X29.4485 Y33.2087
G01 X29.4523 Y33.2305
G01 X29.4571 Y33.2520
G01 X29.4630 Y33.2733
G01 X29.4699 Y33.2943
G01 X29.4779 Y33.3149
G01 X29.4868 Y33.3351
G01 X29.4968 Y33.3548
G01 X29.5077 Y33.3740
G01 X29.5195 Y33.3927
G01 X29.5322 Y33.4108
G01 X29.5458 Y33.4282
G01 X29.5602 Y33.4449
G01 X29.5754 Y33.4609
G01 X29.5914 Y33.4761
G01 X29.6082 Y33.4906
G01 X29.6256 Y33.5041
G01 X29.6436 Y33.5169
G01 X29.6623 Y33.5287
G01 X29.6815 Y33.5396
G01 X29.7012 Y33.5495
G01 X29.7214 Y33.5584
G01 X29.7420 Y33.5664
G01 X29.7630 Y33.5733
G01 X29.7843 Y33.5792
G01 X29.8058 Y33.5841
G01 X29.8276 Y33.5878
G01 X29.8495 Y33.5905
G01 X29.8716 Y33.5922
G01 X29.8936 Y33.5927
G01 X29.9157 Y33.5922
G01 X29.9377 Y33.5905
G01 X29.9597 Y33.5878
G01 X29.9814 Y33.5841
G01 X30.0030 Y33.5792
G01 X30.0243 Y33.5733
G01 X30.0452 Y33.5664
G01 X30.0658 Y33.5584
G01 X30.0860 Y33.5495
G01 X30.1058 Y33.5396
G01 X30.1250 Y33.5287
G01 X30.1436 Y33.5169
G01 X30.1617 Y33.5041
G01 X30.1791 Y33.4906
G01 X30.1958 Y33.4761
G01 X30.2118 Y33.4609
G01 X30.2271 Y33.4449
G01 X30.2415 Y33.4282
G01 X30.2551 Y33.4108
G01 X30.2678 Y33.3927
G01 X30.2796 Y33.3740
G01 X30.2905 Y33.3548
G01 X30.3004 Y33.3351
G01 X30.3094 Y33.3149
G01 X30.3173 Y33.2943
G01 X30.3243 Y33.2733
G01 X30.3301 Y33.2520
G01 X30.3350 Y33.2305
G01 X30.3388 Y33.2087
G01 X30.3415 Y33.1868
G01 X30.3431 Y33.1648
G01 X30.3436 Y33.1427
G01 X35.8436 Y36.3301
G01 X35.7667 Y36.4698
G01 X35.6951 Y36.5927
G00 Z2.0000
G00 X32.0144 Y36.5927
G01 F60.00
G01 Z-0.8000
G01 F120.00
G01 X32.0604 Y36.5644
G01 X32.1437 Y36.5101
G01 X32.2257 Y36.4539
G01 X32.3062 Y36.3957
G01 X32.3853 Y36.3355
G01 X32.4629 Y36.2734
G01 X32.5390 Y36.2094
G01 X32.6134 Y36.1435
G01 X32.6863 Y36.0759
G01 X32.7574 Y36.0065
G01 X32.8268 Y35.9353
G01 X32.8945 Y35.8625
G01 X32.9603 Y35.7880
G01 X33.0243 Y35.7120
G01 X33.0864 Y35.6344
G01 X33.1466 Y35.5553
G01 X33.2049 Y35.4747
G01 X33.2611 Y35.3928
G01 X33.3153 Y35.3094
G01 X33.3674 Y35.2248
G01 X33.4175 Y35.1389
G01 X33.4654 Y35.0519
G01 X33.5112 Y34.9636
G01 X33.5548 Y34.8743
G01 X33.5962 Y34.7839
G01 X33.6353 Y34.6926
G01 X33.6723 Y34.6003
G01 X33.7069 Y34.5071
G01 X33.7392 Y34.4131
G01 X33.7692 Y34.3184
G01 X33.7969 Y34.2229
G01 X33.8223 Y34.1268
G01 X33.8452 Y34.0301
G01 X33.8658 Y33.9328
G01 X33.8840 Y33.8351
G01 X33.8998 Y33.7370
G01 X33.9132 Y33.6385
G01 X33.9241 Y33.5397
G01 X33.9327 Y33.4406
G01 X33.9388 Y33.3414
G01 X33.9424 Y33.2421
G01 X33.9436 Y33.1427
G01 X33.9424 Y33.0433
G01 X33.9388 Y32.9440
G01 X33.9327 Y32.8448
G01 X33.9241 Y32.7457
G01 X33.9132 Y32.6469
G01 X33.8998 Y32.5484
G01 X33.8840 Y32.4503
G01 X33.8658 Y32.3526
G01 X33.8452 Y32.2553
G01 X33.8223 Y32.1586
G01 X33.7969 Y32.0625
G01 X33.7692 Y31.9670
G01 X33.7392 Y31.8723
G01 X33.7069 Y31.7783
G01 X33.6723 Y31.6851
G01 X33.6353 Y31.5928
G01 X33.5962 Y31.5015
G01 X33.5548 Y31.4111
G01 X33.5112 Y31.3218
G01 X33.4654 Y31.2335
G01 X33.4175 Y31.1465
G01 X33.3674 Y31.0606
G01 X33.3153 Y30.9760
G01 X33.2611 Y30.8926
G01 X33.2049 Y30.8107
G01 X33.1466 Y30.7301
G01 X33.0864 Y30.6510
G01 X33.0243 Y30.5734
G01 X32.9603 Y30.4973
G01 X32.8945 Y30.4229
G01 X32.8268 Y30.3501
G01 X32.7574 Y30.2789
G01 X32.6863 Y30.2095
G01 X32.6134 Y30.1418
G01 X32.5390 Y30.0760
G01 X32.4629 Y30.0120
G01 X32.3853 Y29.9499
G01 X32.3062 Y29.8897
G01 X32.2257 Y29.8315
G01 X32.1437 Y29.7752
G01 X32.0604 Y29.7210
G01 X32.0144 Y29.6927
G00 Z2.0000
G00 X27.7729 Y29.6927
G01 F60.00
G01 Z-0.8000
G01 F120.00
G01 X27.7269 Y29.7210
G01 X27.6436 Y29.7752
G01 X27.5616 Y29.8315
G01 X27.4811 Y29.8897
G01 X27.4019 Y29.9499
G01 X27.3243 Y30.0120
G01 X27.2483 Y30.0760
G01 X27.1738 Y30.1418
G01 X27.1010 Y30.2095
G01 X27.0299 Y30.2789
G01 X26.9604 Y30.3501
G01 X26.8928 Y30.4229
G01 X26.8269 Y30.4973
G01 X26.7629 Y30.5734
G01 X26.7008 Y30.6510
G01 X26.6406 Y30.7301
G01 X26.5824 Y30.8107
G01 X26.5262 Y30.8926
G01 X26.4720 Y30.9760
G01 X26.4198 Y31.0606
G01 X26.3698 Y31.1465
G01 X26.3219 Y31.2335
G01 X26.2761 Y31.3218
G01 X26.2325 Y31.4111
G01 X26.1911 Y31.5015
G01 X26.1519 Y31.5928
G01 X26.1150 Y31.6851
G01 X26.0804 Y31.7783
G01 X26.0480 Y31.8723
G01 X26.0180 Y31.9670
G01 X25.9903 Y32.0625
G01 X25.9650 Y32.1586
G01 X25.9420 Y32.2553
G01 X25.9215 Y32.3526
G01 X25.9033 Y32.4503
G01 X25.8875 Y32.5484
G01 X25.8741 Y32.6469
G01 X25.8631 Y32.7457
G01 X25.8546 Y32.8448
G01 X25.8485 Y32.9440
G01 X25.8449 Y33.0433
G01 X25.8436 Y33.1427
G01 X25.8449 Y33.2421
G01 X25.8485 Y33.3414
G01 X25.8546 Y33.4406
G01 X25.8631 Y33.5397
G01 X25.8741 Y33.6385
G01 X25.8875 Y33.7370
G01 X25.9033 Y33.8351
G01 X25.9215 Y33.9328
G01 X25.9420 Y34.0301
G01 X25.9650 Y34.1268
G01 X25.9903 Y34.2229
G01 X26.0180 Y34.3184
G01 X26.0480 Y34.4131
G01 X26.0804 Y34.5071
G01 X26.1150 Y34.6003
G01 X26.1519 Y34.6926
G01 X26.1911 Y34.7839
G01 X26.2325 Y34.8743
G01 X26.2761 Y34.9636
G01 X26.3219 Y35.0519
G01 X26.3698 Y35.1389
G01 X26.4198 Y35.2248
G01 X26.4720 Y35.3094
G01 X26.5262 Y35.3928
G01 X26.5824 Y35.4747
G01 X26.6406 Y35.5553
G01 X26.7008 Y35.6344
G01 X26.7629 Y35.7120
G01 X26.8269 Y35.7880
G01 X26.8928 Y35.8625
G01 X26.9604 Y35.9353
G01 X27.0299 Y36.0065
G01 X27.1010 Y36.0759
G01 X27.1738 Y36.1435
G01 X27.2483 Y36.2094
G01 X27.3243 Y36.2734
G01 X27.4019 Y36.3355
G01 X27.4811 Y36.3957
G01 X27.5616 Y36.4539
G01 X27.6436 Y36.5101
G01 X27.7269 Y36.5644
G01 X27.7729 Y36.5927
G00 Z2.0000
G00 X26.3445 Y36.5927
G01 F60.00
G01 Z-0.8000
G01 F120.00
G01 X26.3086 Y36.5559
G01 X26.2259 Y36.4669
G01 X26.1455 Y36.3759
G01 X26.0672 Y36.2829
G01 X25.9913 Y36.1881
G01 X25.9178 Y36.0914
G01 X25.8466 Y35.9929
G01 X25.7779 Y35.8928
G01 X25.7116 Y35.7909
G01 X25.6479 Y35.6875
G01 X25.5867 Y35.5825
G01 X25.5281 Y35.4761
G01 X25.4722 Y35.3683
G01 X25.4189 Y35.2591
G01 X25.3683 Y35.1486
G01 X25.3204 Y35.0370
G01 X25.2753 Y34.9242
G01 X25.2330 Y34.8103
G01 X25.1935 Y34.6954
G01 X25.1568 Y34.5796
G01 X25.1229 Y34.4629
G01 X25.0920 Y34.3454
G01 X25.0639 Y34.2272
G01 X25.0387 Y34.1084
G01 X25.0165 Y33.9890
G01 X24.9972 Y33.8690
G01 X24.9809 Y33.7486
G01 X24.9675 Y33.6279
G01 X24.9570 Y33.5068
G01 X24.9496 Y33.3856
G01 X24.9451 Y33.2642
G01 X24.9436 Y33.1427
G01 X24.9451 Y33.0212
G01 X24.9496 Y32.8998
G01 X24.9570 Y32.7786
G01 X24.9675 Y32.6575
G01 X24.9809 Y32.5368
G01 X24.9972 Y32.4164
G01 X25.0165 Y32.2964
G01 X25.0387 Y32.1770
G01 X25.0639 Y32.0581
G01 X25.0920 Y31.9399
G01 X25.1229 Y31.8225
G01 X25.1568 Y31.7058
G01 X25.1935 Y31.5900
G01 X25.2330 Y31.4751
G01 X25.2753 Y31.3612
G01 X25.3204 Y31.2484
G01 X25.3683 Y31.1368
G01 X25.4189 Y31.0263
G01 X25.4722 Y30.9171
G01 X25.5281 Y30.8093
G01 X25.5867 Y30.7029
G01 X25.6479 Y30.5979
G01 X25.7116 Y30.4945
G01 X25.7779 Y30.3926
G01 X25.8466 Y30.2924
G01 X25.9178 Y30.1940
G01 X25.9913 Y30.0973
G01 X26.0672 Y30.0025
G01 X26.1455 Y29.9095
G01 X26.2259 Y29.8185
G01 X26.3086 Y29.7295
G01 X26.3445 Y29.6927
G00 Z2.0000
G00 X24.0922 Y29.6927
G01 F60.00
G01 Z-0.8000
G01 F120.00
G01 X24.0205 Y29.8156
G01 X23.9437 Y29.9553
G01 X25.1697 Y29.6927
G01 X25.1108 Y29.7742
G01 X25.0295 Y29.8926
G01 X24.9512 Y30.0130
G01 X24.8759 Y30.1352
G01 X24.8036 Y30.2592
G01 X24.7344 Y30.3850
G01 X24.6683 Y30.5125
G01 X24.6053 Y30.6415
G01 X24.5455 Y30.7720
G01 X24.4889 Y30.9040
G01 X24.4356 Y31.0373
G01 X24.3856 Y31.1719
G01 X24.3389 Y31.3077
G01 X24.2955 Y31.4445
G01 X24.2555 Y31.5824
G01 X24.2190 Y31.7213
G01 X24.1858 Y31.8610
G01 X24.1560 Y32.0014
G01 X24.1298 Y32.1426
G01 X24.1070 Y32.2843
G01 X24.0876 Y32.4266
G01 X24.0718 Y32.5693
G01 X24.0595 Y32.7123
G01 X24.0507 Y32.8557
G01 X24.0454 Y32.9991
G01 X24.0436 Y33.1427
G01 X24.0454 Y33.2863
G01 X24.0507 Y33.4297
G01 X24.0595 Y33.5731
G01 X24.0718 Y33.7161
G01 X24.0876 Y33.8588
G01 X24.1070 Y34.0011
G01 X24.1298 Y34.1428
G01 X24.1560 Y34.2840
G01 X24.1858 Y34.4244
G01 X24.2190 Y34.5641
G01 X24.2555 Y34.7030
G01 X24.2955 Y34.8409
G01 X24.3389 Y34.9777
G01 X24.3856 Y35.1135
G01 X24.4356 Y35.2481
G01 X24.4889 Y35.3814
G01 X24.5455 Y35.5134
G01 X24.6053 Y35.6439
G01 X24.6683 Y35.7729
G01 X24.7344 Y35.9004
G01 X24.8036 Y36.0262
G01 X24.8759 Y36.1502
G01 X24.9512 Y36.2724
G01 X25.0295 Y36.3928
G01 X25.1108 Y36.5112
G01 X25.1697 Y36.5927
G00 Z2.0000
G00 X24.0922 Y36.5927
G01 F60.00
G01 Z-0.8000
G01 F120.00
G01 X24.0205 Y36.4698
G01 X23.9437 Y36.3301
G00 Z2.0000
G00 X23.9437 Y36.5927
G01 F60.00
G01 Z-0.8000
G01 F120.00
G01 X35.8436 Y36.5927
G01 X35.8436 Y29.6927
G01 X23.9437 Y29.6927
G01 X23.9437 Y36.5927
G00 Z2.0000
G00 X24.0922 Y49.6927
G01 F60.00
G01 Z-0.8000
G01 F120.00
G01 X24.0205 Y49.8156
G01 X23.9437 Y49.9553
G01 X25.1697 Y49.6927
G01 X25.1108 Y49.7742
G01 X25.0295 Y49.8926
G01 X24.9512 Y50.0130
G01 X24.8759 Y50.1352
G01 X24.8036 Y50.2592
G01 X24.7344 Y50.3850
G01 X24.6683 Y50.5125
G01 X24.6053 Y50.6415
G01 X24.5455 Y50.7720
G01 X24.4889 Y50.9040
G01 X24.4356 Y51.0373
G01 X24.3856 Y51.1719
G01 X24.3389 Y51.3077
G01 X24.2955 Y51.4445
G01 X24.2555 Y51.5824
G01 X24.2190 Y51.7213
G01 X24.1858 Y51.8610
G01 X24.1560 Y52.0014
G01 X24.1298 Y52.1426
G01 X24.1070 Y52.2843
G01 X24.0876 Y52.4266
G01 X24.0718 Y52.5693
G01 X24.0595 Y52.7123
G01 X24.0507 Y52.8557
G01 X24.0454 Y52.9991
G01 X24.0436 Y53.1427
G01 X24.0454 Y53.2863
G01 X24.0507 Y53.4297
G01 X24.0595 Y53.5731
G01 X24.0718 Y53.7161
G01 X24.0876 Y53.8588
G01 X24.1070 Y54.0011
G01 X24.1298 Y54.1428
G01 X24.1560 Y54.2840
G01 X24.1858 Y54.4244
G01 X24.2190 Y54.5641
G01 X24.2555 Y54.7030
G01 X24.2955 Y54.8409
G01 X24.3389 Y54.9777
G01 X24.3856 Y55.1135
G01 X24.4356 Y55.2481
G01 X24.4889 Y55.3814
G01 X24.5455 Y55.5134
G01 X24.6053 Y55.6439
G01 X24.6683 Y55.7729
G01 X24.7344 Y55.9004
G01 X24.8036 Y56.0262
G01 X24.8759 Y56.1502
G01 X24.9512 Y56.2724
G01 X25.0295 Y56.3928
G01 X25.1108 Y56.5112
G01 X25.1697 Y56.5927
G00 Z2.0000
G00 X24.0922 Y56.5927
G01 F60.00
G01 Z-0.8000
G01 F120.00
G01 X24.0205 Y56.4698
G01 X23.9437 Y56.3301
G00 Z2.0000
G00 X23.9437 Y56.5927
G01 F60.00
G01 Z-0.8000
G01 F120.00
G01 X35.8436 Y56.5927
G01 X35.8436 Y49.6927
G01 X23.9437 Y49.6927
G01 X23.9437 Y56.5927
G00 Z2.0000
G00 X26.3445 Y56.5927
G01 F60.00
G01 Z-0.8000
G01 F120.00
G01 X26.3086 Y56.5559
G01 X26.2259 Y56.4669
G01 X26.1455 Y56.3759
G01 X26.0672 Y56.2829
G01 X25.9913 Y56.1881
G01 X25.9178 Y56.0914
G01 X25.8466 Y55.9929
G01 X25.7779 Y55.8928
G01 X25.7116 Y55.7909
G01 X25.6479 Y55.6875
G01 X25.5867 Y55.5825
G01 X25.5281 Y55.4761
G01 X25.4722 Y55.3683
G01 X25.4189 Y55.2591
G01 X25.3683 Y55.1486
G01 X25.3204 Y55.0370
G01 X25.2753 Y54.9242
G01 X25.2330 Y54.8103
G01 X25.1935 Y54.6954
G01 X25.1568 Y54.5796
G01 X25.1229 Y54.4629
G01 X25.0920 Y54.3454
G01 X25.0639 Y54.2272
G01 X25.0387 Y54.1084
G01 X25.0165 Y53.9890
G01 X24.9972 Y53.8690
G01 X24.9809 Y53.7486
G01 X24.9675 Y53.6279
G01 X24.9570 Y53.5068
G01 X24.9496 Y53.3856
G01 X24.9451 Y53.2642
G01 X24.9436 Y53.1427
G01 X24.9451 Y53.0212
G01 X24.9496 Y52.8998
G01 X24.9570 Y52.7786
G01 X24.9675 Y52.6575
G01 X24.9809 Y52.5368
G01 X24.9972 Y52.4164
G01 X25.0165 Y52.2964
G01 X25.0387 Y52.1770
G01 X25.0639 Y52.0581
G01 X25.0920 Y51.9399
G01 X25.1229 Y51.8225
G01 X25.1568 Y51.7058
G01 X25.1935 Y51.5900
G01 X25.2330 Y51.4751
G01 X25.2753 Y51.3612
G01 X25.3204 Y51.2484
G01 X25.3683 Y51.1368
G01 X25.4189 Y51.0263
G01 X25.4722 Y50.9171
G01 X25.5281 Y50.8093
G01 X25.5867 Y50.7029
G01 X25.6479 Y50.5979
G01 X25.7116 Y50.4945
G01 X25.7779 Y50.3926
G01 X25.8466 Y50.2924
G01 X25.9178 Y50.1940
G01 X25.9913 Y50.0973
G01 X26.0672 Y50.0025
G01 X26.1455 Y49.9095
G01 X26.2259 Y49.8185
G01 X26.3086 Y49.7295
G01 X26.3445 Y49.6927
G00 Z2.0000
G00 X27.7729 Y49.6927
G01 F60.00
G01 Z-0.8000
G01 F120.00
G01 X27.7269 Y49.7210
G01 X27.6436 Y49.7752
G01 X27.5616 Y49.8315
G01 X27.4811 Y49.8897
G01 X27.4019 Y49.9499
G01 X27.3243 Y50.0120
G01 X27.2483 Y50.0760
G01 X27.1738 Y50.1418
G01 X27.1010 Y50.2095
G01 X27.0299 Y50.2789
G01 X26.9604 Y50.3501
G01 X26.8928 Y50.4229
G01 X26.8269 Y50.4973
G01 X26.7629 Y50.5734
G01 X26.7008 Y50.6510
G01 X26.6406 Y50.7301
G01 X26.5824 Y50.8107
G01 X26.5262 Y50.8926
G01 X26.4720 Y50.9760
G01 X26.4198 Y51.0606
G01 X26.3698 Y51.1465
G01 X26.3219 Y51.2335
G01 X26.2761 Y51.3218
G01 X26.2325 Y51.4111
G01 X26.1911 Y51.5015
G01 X26.1519 Y51.5928
G01 X26.1150 Y51.6851
G01 X26.0804 Y51.7783
G01 X26.0480 Y51.8723
G01 X26.0180 Y51.9670
G01 X25.9903 Y52.0625
G01 X25.9650 Y52.1586
G01 X25.9420 Y52.2553
G01 X25.9215 Y52.3526
G01 X25.9033 Y52.4503
G01 X25.8875 Y52.5484
G01 X25.8741 Y52.6469
G01 X25.8631 Y52.7457
G01 X25.8546 Y52.8448
G01 X25.8485 Y52.9440
G01 X25.8449 Y53.0433
G01 X25.8436 Y53.1427
G01 X25.8449 Y53.2421
G01 X25.8485 Y53.3414
G01 X25.8546 Y53.4406
G01 X25.8631 Y53.5397
G01 X25.8741 Y53.6385
G01 X25.8875 Y53.7370
G01 X25.9033 Y53.8351
G01 X25.9215 Y53.9328
G01 X25.9420 Y54.0301
G01 X25.9650 Y54.1268
G01 X25.9903 Y54.2229
G01 X26.0180 Y54.3184
G01 X26.0480 Y54.4131
G01 X26.0804 Y54.5071
G01 X26.1150 Y54.6003
G01 X26.1519 Y54.6926
G01 X26.1911 Y54.7839
G01 X26.2325 Y54.8743
G01 X26.2761 Y54.9636
G01 X26.3219 Y55.0519
G01 X26.3698 Y55.1389
G01 X26.4198 Y55.2248
G01 X26.4720 Y55.3094
G01 X26.5262 Y55.3928
G01 X26.5824 Y55.4747
G01 X26.6406 Y55.5553
G01 X26.7008 Y55.6344
G01 X26.7629 Y55.7120
G01 X26.8269 Y55.7880
G01 X26.8928 Y55.8625
G01 X26.9604 Y55.9353
G01 X27.0299 Y56.0065
G01 X27.1010 Y56.0759
G01 X27.1738 Y56.1435
G01 X27.2483 Y56.2094
G01 X27.3243 Y56.2734
G01 X27.4019 Y56.3355
G01 X27.4811 Y56.3957
G01 X27.5616 Y56.4539
G01 X27.6436 Y56.5101
G01 X27.7269 Y56.5644
G01 X27.7729 Y56.5927
G00 Z2.0000
G00 X32.0144 Y56.5927
G01 F60.00
G01 Z-0.8000
G01 F120.00
G01 X32.0604 Y56.5644
G01 X32.1437 Y56.5101
G01 X32.2257 Y56.4539
G01 X32.3062 Y56.3957
G01 X32.3853 Y56.3355
G01 X32.4629 Y56.2734
G01 X32.5390 Y56.2094
G01 X32.6134 Y56.1435
G01 X32.6863 Y56.0759
G01 X32.7574 Y56.0065
G01 X32.8268 Y55.9353
G01 X32.8945 Y55.8625
G01 X32.9603 Y55.7880
G01 X33.0243 Y55.7120
G01 X33.0864 Y55.6344
G01 X33.1466 Y55.5553
G01 X33.2049 Y55.4747
G01 X33.2611 Y55.3928
G01 X33.3153 Y55.3094
G01 X33.3674 Y55.2248
G01 X33.4175 Y55.1389
G01 X33.4654 Y55.0519
G01 X33.5112 Y54.9636
G01 X33.5548 Y54.8743
G01 X33.5962 Y54.7839
G01 X33.6353 Y54.6926
G01 X33.6723 Y54.6003
G01 X33.7069 Y54.5071
G01 X33.7392 Y54.4131
G01 X33.7692 Y54.3184
G01 X33.7969 Y54.2229
G01 X33.8223 Y54.1268
G01 X33.8452 Y54.0301
G01 X33.8658 Y53.9328
G01 X33.8840 Y53.8351
G01 X33.8998 Y53.7370
G01 X33.9132 Y53.6385
G01 X33.9241 Y53.5397
G01 X33.9327 Y53.4406
G01 X33.9388 Y53.3414
G01 X33.9424 Y53.2421
G01 X33.9436 Y53.1427
G01 X33.9424 Y53.0433
G01 X33.9388 Y52.9440
G01 X33.9327 Y52.8448
G01 X33.9241 Y52.7457
G01 X33.9132 Y52.6469
G01 X33.8998 Y52.5484
G01 X33.8840 Y52.4503
G01 X33.8658 Y52.3526
G01 X33.8452 Y52.2553
G01 X33.8223 Y52.1586
G01 X33.7969 Y52.0625
G01 X33.7692 Y51.9670
G01 X33.7392 Y51.8723
G01 X33.7069 Y51.7783
G01 X33.6723 Y51.6851
G01 X33.6353 Y51.5928
G01 X33.5962 Y51.5015
G01 X33.5548 Y51.4111
G01 X33.5112 Y51.3218
G01 X33.4654 Y51.2335
G01 X33.4175 Y51.1465
G01 X33.3674 Y51.0606
G01 X33.3153 Y50.9760
G01 X33.2611 Y50.8926
G01 X33.2049 Y50.8107
G01 X33.1466 Y50.7301
G01 X33.0864 Y50.6510
G01 X33.0243 Y50.5734
G01 X32.9603 Y50.4973
G01 X32.8945 Y50.4229
G01 X32.8268 Y50.3501
G01 X32.7574 Y50.2789
G01 X32.6863 Y50.2095
G01 X32.6134 Y50.1418
G01 X32.5390 Y50.0760
G01 X32.4629 Y50.0120
G01 X32.3853 Y49.9499
G01 X32.3062 Y49.8897
G01 X32.2257 Y49.8315
G01 X32.1437 Y49.7752
G01 X32.0604 Y49.7210
G01 X32.0144 Y49.6927
G01 X33.4428 Y49.6927
G01 X33.4787 Y49.7295
G01 X33.5613 Y49.8185
G01 X33.6418 Y49.9095
G01 X33.7200 Y50.0025
G01 X33.7959 Y50.0973
G01 X33.8695 Y50.1940
G01 X33.9407 Y50.2924
G01 X34.0094 Y50.3926
G01 X34.0757 Y50.4945
G01 X34.1394 Y50.5979
G01 X34.2006 Y50.7029
G01 X34.2591 Y50.8093
G01 X34.3151 Y50.9171
G01 X34.3684 Y51.0263
G01 X34.4190 Y51.1368
G01 X34.4668 Y51.2484
G01 X34.5119 Y51.3612
G01 X34.5543 Y51.4751
G01 X34.5938 Y51.5900
G01 X34.6305 Y51.7058
G01 X34.6643 Y51.8225
G01 X34.6953 Y51.9399
G01 X34.7234 Y52.0581
G01 X34.7485 Y52.1770
G01 X34.7708 Y52.2964
G01 X34.7901 Y52.4164
G01 X34.8064 Y52.5368
G01 X34.8198 Y52.6575
G01 X34.8302 Y52.7786
G01 X34.8377 Y52.8998
G01 X34.8421 Y53.0212
G01 X34.8436 Y53.1427
G01 X34.8421 Y53.2642
G01 X34.8377 Y53.3856
G01 X34.8302 Y53.5068
G01 X34.8198 Y53.6279
G01 X34.8064 Y53.7486
G01 X34.7901 Y53.8690
G01 X34.7708 Y53.9890
G01 X34.7485 Y54.1084
G01 X34.7234 Y54.2272
G01 X34.6953 Y54.3454
G01 X34.6643 Y54.4629
G01 X34.6305 Y54.5796
G01 X34.5938 Y54.6954
G01 X34.5543 Y54.8103
G01 X34.5119 Y54.9242
G01 X34.4668 Y55.0370
G01 X34.4190 Y55.1486
G01 X34.3684 Y55.2591
G01 X34.3151 Y55.3683
G01 X34.2591 Y55.4761
G01 X34.2006 Y55.5825
G01 X34.1394 Y55.6875
G01 X34.0757 Y55.7909
G01 X34.0094 Y55.8928
G01 X33.9407 Y55.9929
G01 X33.8695 Y56.0914
G01 X33.7959 Y56.1881
G01 X33.7200 Y56.2829
G01 X33.6418 Y56.3759
G01 X33.5613 Y56.4669
G01 X33.4787 Y56.5559
G01 X33.4428 Y56.5927
G00 Z2.0000
G00 X34.6176 Y56.5927
G01 F60.00
G01 Z-0.8000
G01 F120.00
G01 X34.6765 Y56.5112
G01 X34.7577 Y56.3928
G01 X34.8360 Y56.2724
G01 X34.9113 Y56.1502
G01 X34.9836 Y56.0262
G01 X35.0529 Y55.9004
G01 X35.1190 Y55.7729
G01 X35.1820 Y55.6439
G01 X35.2418 Y55.5134
G01 X35.2983 Y55.3814
G01 X35.3516 Y55.2481
G01 X35.4017 Y55.1135
G01 X35.4484 Y54.9777
G01 X35.4917 Y54.8409
G01 X35.5317 Y54.7030
G01 X35.5683 Y54.5641
G01 X35.6015 Y54.4244
G01 X35.6312 Y54.2840
G01 X35.6575 Y54.1428
G01 X35.6803 Y54.0011
G01 X35.6996 Y53.8588
G01 X35.7155 Y53.7161
G01 X35.7278 Y53.5731
G01 X35.7366 Y53.4297
G01 X35.7419 Y53.2863
G01 X35.7436 Y53.1427
G01 X35.7419 Y52.9991
G01 X35.7366 Y52.8557
G01 X35.7278 Y52.7123
G01 X35.7155 Y52.5693
G01 X35.6996 Y52.4266
G01 X35.6803 Y52.2843
G01 X35.6575 Y52.1426
G01 X35.6312 Y52.0014
G01 X35.6015 Y51.8610
G01 X35.5683 Y51.7213
G01 X35.5317 Y51.5824
G01 X35.4917 Y51.4445
G01 X35.4484 Y51.3077
G01 X35.4017 Y51.1719
G01 X35.3516 Y51.0373
G01 X35.2983 Y50.9040
G01 X35.2418 Y50.7720
G01 X35.1820 Y50.6415
G01 X35.1190 Y50.5125
G01 X35.0529 Y50.3850
G01 X34.9836 Y50.2592
G01 X34.9113 Y50.1352
G01 X34.8360 Y50.0130
G01 X34.7577 Y49.8926
G01 X34.6765 Y49.7742
G01 X34.6176 Y49.6927
G00 Z2.0000
G00 X35.6951 Y49.6927
G01 F60.00
G01 Z-0.8000
G01 F120.00
G01 X35.7667 Y49.8156
G01 X35.8436 Y49.9553
G01 X33.0436 Y53.1427
G01 X33.0427 Y53.0654
G01 X33.0398 Y52.9881
G01 X33.0351 Y52.9110
G01 X33.0285 Y52.8339
G01 X33.0199 Y52.7571
G01 X33.0095 Y52.6805
G01 X32.9973 Y52.6042
G01 X32.9831 Y52.5282
G01 X32.9671 Y52.4525
G01 X32.9492 Y52.3773
G01 X32.9295 Y52.3026
G01 X32.9080 Y52.2283
G01 X32.8846 Y52.1546
G01 X32.8595 Y52.0815
G01 X32.8326 Y52.0090
G01 X32.8039 Y51.9372
G01 X32.7734 Y51.8662
G01 X32.7412 Y51.7959
G01 X32.7073 Y51.7264
G01 X32.6717 Y51.6578
G01 X32.6344 Y51.5901
G01 X32.5955 Y51.5233
G01 X32.5549 Y51.4575
G01 X32.5128 Y51.3927
G01 X32.4690 Y51.3289
G01 X32.4237 Y51.2662
G01 X32.3769 Y51.2047
G01 X32.3286 Y51.1444
G01 X32.2788 Y51.0852
G01 X32.2276 Y51.0273
G01 X32.1750 Y50.9706
G01 X32.1210 Y50.9153
G01 X32.0657 Y50.8613
G01 X32.0090 Y50.8087
G01 X31.9511 Y50.7575
G01 X31.8920 Y50.7077
G01 X31.8316 Y50.6594
G01 X31.7701 Y50.6126
G01 X31.7074 Y50.5673
G01 X31.6437 Y50.5236
G01 X31.5789 Y50.4814
G01 X31.5131 Y50.4409
G01 X31.4463 Y50.4019
G01 X31.3785 Y50.3646
G01 X31.3099 Y50.3290
G01 X31.2404 Y50.2951
G01 X31.1701 Y50.2629
G01 X31.0991 Y50.2325
G01 X31.0273 Y50.2038
G01 X30.9548 Y50.1768
G01 X30.8817 Y50.1517
G01 X30.8080 Y50.1283
G01 X30.7338 Y50.1068
G01 X30.6590 Y50.0871
G01 X30.5838 Y50.0692
G01 X30.5082 Y50.0532
G01 X30.4322 Y50.0391
G01 X30.3558 Y50.0268
G01 X30.2792 Y50.0164
G01 X30.2024 Y50.0079
G01 X30.1254 Y50.0012
G01 X30.0482 Y49.9965
G01 X29.9709 Y49.9936
G01 X29.8936 Y49.9927
G01 X29.8163 Y49.9936
G01 X29.7391 Y49.9965
G01 X29.6619 Y50.0012
G01 X29.5849 Y50.0079
G01 X29.5080 Y50.0164
G01 X29.4314 Y50.0268
G01 X29.3551 Y50.0391
G01 X29.2791 Y50.0532
G01 X29.2035 Y50.0692
G01 X29.1282 Y50.0871
G01 X29.0535 Y50.1068
G01 X28.9792 Y50.1283
G01 X28.9055 Y50.1517
G01 X28.8324 Y50.1768
G01 X28.7600 Y50.2038
G01 X28.6882 Y50.2325
G01 X28.6171 Y50.2629
G01 X28.5468 Y50.2951
G01 X28.4774 Y50.3290
G01 X28.4087 Y50.3646
G01 X28.3410 Y50.4019
G01 X28.2742 Y50.4409
G01 X28.2084 Y50.4814
G01 X28.1436 Y50.5236
G01 X28.0798 Y50.5673
G01 X28.0172 Y50.6126
G01 X27.9557 Y50.6594
G01 X27.8953 Y50.7077
G01 X27.8361 Y50.7575
G01 X27.7782 Y50.8087
G01 X27.7216 Y50.8613
G01 X27.6662 Y50.9153
G01 X27.6123 Y50.9706
G01 X27.5596 Y51.0273
G01 X27.5084 Y51.0852
G01 X27.4587 Y51.1444
G01 X27.4103 Y51.2047
G01 X27.3635 Y51.2662
G01 X27.3182 Y51.3289
G01 X27.2745 Y51.3927
G01 X27.2323 Y51.4575
G01 X27.1918 Y51.5233
G01 X27.1529 Y51.5901
G01 X27.1156 Y51.6578
G01 X27.0800 Y51.7264
G01 X27.0461 Y51.7959
G01 X27.0139 Y51.8662
G01 X26.9834 Y51.9372
G01 X26.9547 Y52.0090
G01 X26.9278 Y52.0815
G01 X26.9026 Y52.1546
G01 X26.8793 Y52.2283
G01 X26.8577 Y52.3026
G01 X26.8380 Y52.3773
G01 X26.8202 Y52.4525
G01 X26.8042 Y52.5282
G01 X26.7900 Y52.6042
G01 X26.7777 Y52.6805
G01 X26.7673 Y52.7571
G01 X26.7588 Y52.8339
G01 X26.7522 Y52.9110
G01 X26.7474 Y52.9881
G01 X26.7446 Y53.0654
G01 X26.7436 Y53.1427
G01 X26.7446 Y53.2200
G01 X26.7474 Y53.2973
G01 X26.7522 Y53.3744
G01 X26.7588 Y53.4515
G01 X26.7673 Y53.5283
G01 X26.7777 Y53.6049
G01 X26.7900 Y53.6812
G01 X26.8042 Y53.7572
G01 X26.8202 Y53.8329
G01 X26.8380 Y53.9081
G01 X26.8577 Y53.9828
G01 X26.8793 Y54.0571
G01 X26.9026 Y54.1308
G01 X26.9278 Y54.2039
G01 X26.9547 Y54.2764
G01 X26.9834 Y54.3482
G01 X27.0139 Y54.4192
G01 X27.0461 Y54.4895
G01 X27.0800 Y54.5590
G01 X27.1156 Y54.6276
G01 X27.1529 Y54.6953
G01 X27.1918 Y54.7621
G01 X27.2323 Y54.8279
G01 X27.2745 Y54.8927
G01 X27.3182 Y54.9565
G01 X27.3635 Y55.0192
G01 X27.4103 Y55.0807
G01 X27.4587 Y55.1410
G01 X27.5084 Y55.2002
G01 X27.5596 Y55.2581
G01 X27.6123 Y55.3148
G01 X27.6662 Y55.3701
G01 X27.7216 Y55.4241
G01 X27.7782 Y55.4767
G01 X27.8361 Y55.5279
G01 X27.8953 Y55.5777
G01 X27.9557 Y55.6260
G01 X28.0172 Y55.6728
G01 X28.0798 Y55.7181
G01 X28.1436 Y55.7618
G01 X28.2084 Y55.8040
G01 X28.2742 Y55.8445
G01 X28.3410 Y55.8835
G01 X28.4087 Y55.9207
G01 X28.4774 Y55.9564
G01 X28.5468 Y55.9903
G01 X28.6171 Y56.0225
G01 X28.6882 Y56.0529
G01 X28.7600 Y56.0816
G01 X28.8324 Y56.1086
G01 X28.9055 Y56.1337
G01 X28.9792 Y56.1571
G01 X29.0535 Y56.1786
G01 X29.1282 Y56.1983
G01 X29.2035 Y56.2162
G01 X29.2791 Y56.2322
G01 X29.3551 Y56.2463
G01 X29.4314 Y56.2586
G01 X29.5080 Y56.2690
G01 X29.5849 Y56.2775
G01 X29.6619 Y56.2842
G01 X29.7391 Y56.2889
G01 X29.8163 Y56.2917
G01 X29.8936 Y56.2927
G01 X29.9709 Y56.2917
G01 X30.0482 Y56.2889
G01 X30.1254 Y56.2842
G01 X30.2024 Y56.2775
G01 X30.2792 Y56.2690
G01 X30.3558 Y56.2586
G01 X30.4322 Y56.2463
G01 X30.5082 Y56.2322
G01 X30.5838 Y56.2162
G01 X30.6590 Y56.1983
G01 X30.7338 Y56.1786
G01 X30.8080 Y56.1571
G01 X30.8817 Y56.1337
G01 X30.9548 Y56.1086
G01 X31.0273 Y56.0816
G01 X31.0991 Y56.0529
G01 X31.1701 Y56.0225
G01 X31.2404 Y55.9903
G01 X31.3099 Y55.9564
G01 X31.3785 Y55.9207
G01 X31.4463 Y55.8835
G01 X31.5131 Y55.8445
G01 X31.5789 Y55.8040
G01 X31.6437 Y55.7618
G01 X31.7074 Y55.7181
G01 X31.7701 Y55.6728
G01 X31.8316 Y55.6260
G01 X31.8920 Y55.5777
G01 X31.9511 Y55.5279
G01 X32.0090 Y55.4767
G01 X32.0657 Y55.4241
G01 X32.1210 Y55.3701
G01 X32.1750 Y55.3148
G01 X32.2276 Y55.2581
G01 X32.2788 Y55.2002
G01 X32.3286 Y55.1410
G01 X32.3769 Y55.0807
G01 X32.4237 Y55.0192
G01 X32.4690 Y54.9565
G01 X32.5128 Y54.8927
G01 X32.5549 Y54.8279
G01 X32.5955 Y54.7621
G01 X32.6344 Y54.6953
G01 X32.6717 Y54.6276
G01 X32.7073 Y54.5590
G01 X32.7412 Y54.4895
G01 X32.7734 Y54.4192
G01 X32.8039 Y54.3482
G01 X32.8326 Y54.2764
G01 X32.8595 Y54.2039
G01 X32.8846 Y54.1308
G01 X32.9080 Y54.0571
G01 X32.9295 Y53.9828
G01 X32.9492 Y53.9081
G01 X32.9671 Y53.8329
G01 X32.9831 Y53.7572
G01 X32.9973 Y53.6812
G01 X33.0095 Y53.6049
G01 X33.0199 Y53.5283
G01 X33.0285 Y53.4515
G01 X33.0351 Y53.3744
G01 X33.0398 Y53.2973
G01 X33.0427 Y53.2200
G01 X33.0436 Y53.1427
G01 X32.1436 Y53.1427
G01 X32.1430 Y53.0875
G01 X32.1409 Y53.0323
G01 X32.1375 Y52.9772
G01 X32.1328 Y52.9222
G01 X32.1267 Y52.8673
G01 X32.1193 Y52.8126
G01 X32.1105 Y52.7580
G01 X32.1004 Y52.7037
G01 X32.0890 Y52.6497
G01 X32.0762 Y52.5960
G01 X32.0621 Y52.5426
G01 X32.0468 Y52.4896
G01 X32.0301 Y52.4369
G01 X32.0121 Y52.3847
G01 X31.9929 Y52.3329
G01 X31.9724 Y52.2817
G01 X31.9506 Y52.2309
G01 X31.9276 Y52.1807
G01 X31.9034 Y52.1311
G01 X31.8780 Y52.0821
G01 X31.8513 Y52.0337
G01 X31.8235 Y51.9860
G01 X31.7946 Y51.9390
G01 X31.7644 Y51.8927
G01 X31.7332 Y51.8471
G01 X31.7009 Y51.8024
G01 X31.6674 Y51.7584
G01 X31.6329 Y51.7153
G01 X31.5974 Y51.6731
G01 X31.5608 Y51.6317
G01 X31.5232 Y51.5912
G01 X31.4846 Y51.5517
G01 X31.4451 Y51.5131
G01 X31.4046 Y51.4756
G01 X31.3633 Y51.4390
G01 X31.3210 Y51.4034
G01 X31.2779 Y51.3689
G01 X31.2340 Y51.3355
G01 X31.1892 Y51.3031
G01 X31.1437 Y51.2719
G01 X31.0974 Y51.2418
G01 X31.0504 Y51.2128
G01 X31.0027 Y51.1850
G01 X30.9543 Y51.1584
G01 X30.9053 Y51.1329
G01 X30.8556 Y51.1087
G01 X30.8054 Y51.0857
G01 X30.7547 Y51.0640
G01 X30.7034 Y51.0435
G01 X30.6516 Y51.0242
G01 X30.5994 Y51.0063
G01 X30.5468 Y50.9896
G01 X30.4937 Y50.9742
G01 X30.4403 Y50.9601
G01 X30.3866 Y50.9474
G01 X30.3326 Y50.9359
G01 X30.2783 Y50.9258
G01 X30.2238 Y50.9171
G01 X30.1691 Y50.9096
G01 X30.1142 Y50.9035
G01 X30.0592 Y50.8988
G01 X30.0040 Y50.8954
G01 X29.9489 Y50.8934
G01 X29.8936 Y50.8927
G01 X29.8384 Y50.8934
G01 X29.7832 Y50.8954
G01 X29.7281 Y50.8988
G01 X29.6731 Y50.9035
G01 X29.6182 Y50.9096
G01 X29.5635 Y50.9171
G01 X29.5090 Y50.9258
G01 X29.4547 Y50.9359
G01 X29.4007 Y50.9474
G01 X29.3469 Y50.9601
G01 X29.2935 Y50.9742
G01 X29.2405 Y50.9896
G01 X29.1879 Y51.0063
G01 X29.1356 Y51.0242
G01 X29.0839 Y51.0435
G01 X29.0326 Y51.0640
G01 X28.9818 Y51.0857
G01 X28.9316 Y51.1087
G01 X28.8820 Y51.1329
G01 X28.8330 Y51.1584
G01 X28.7846 Y51.1850
G01 X28.7369 Y51.2128
G01 X28.6899 Y51.2418
G01 X28.6436 Y51.2719
G01 X28.5981 Y51.3031
G01 X28.5533 Y51.3355
G01 X28.5094 Y51.3689
G01 X28.4662 Y51.4034
G01 X28.4240 Y51.4390
G01 X28.3826 Y51.4756
G01 X28.3422 Y51.5131
G01 X28.3026 Y51.5517
G01 X28.2641 Y51.5912
G01 X28.2265 Y51.6317
G01 X28.1899 Y51.6731
G01 X28.1544 Y51.7153
G01 X28.1199 Y51.7584
G01 X28.0864 Y51.8024
G01 X28.0541 Y51.8471
G01 X28.0228 Y51.8927
G01 X27.9927 Y51.9390
G01 X27.9637 Y51.9860
G01 X27.9359 Y52.0337
G01 X27.9093 Y52.0821
G01 X27.8839 Y52.1311
G01 X27.8597 Y52.1807
G01 X27.8367 Y52.2309
G01 X27.8149 Y52.2817
G01 X27.7944 Y52.3329
G01 X27.7752 Y52.3847
G01 X27.7572 Y52.4369
G01 X27.7405 Y52.4896
G01 X27.7251 Y52.5426
G01 X27.7111 Y52.5960
G01 X27.6983 Y52.6497
G01 X27.6869 Y52.7037
G01 X27.6768 Y52.7580
G01 X27.6680 Y52.8126
G01 X27.6606 Y52.8673
G01 X27.6545 Y52.9222
G01 X27.6497 Y52.9772
G01 X27.6463 Y53.0323
G01 X27.6443 Y53.0875
G01 X27.6436 Y53.1427
G01 X27.6443 Y53.1979
G01 X27.6463 Y53.2531
G01 X27.6497 Y53.3082
G01 X27.6545 Y53.3632
G01 X27.6606 Y53.4181
G01 X27.6680 Y53.4728
G01 X27.6768 Y53.5274
G01 X27.6869 Y53.5817
G01 X27.6983 Y53.6357
G01 X27.7111 Y53.6894
G01 X27.7251 Y53.7428
G01 X27.7405 Y53.7958
G01 X27.7572 Y53.8485
G01 X27.7752 Y53.9007
G01 X27.7944 Y53.9525
G01 X27.8149 Y54.0037
G01 X27.8367 Y54.0545
G01 X27.8597 Y54.1047
G01 X27.8839 Y54.1543
G01 X27.9093 Y54.2033
G01 X27.9359 Y54.2517
G01 X27.9637 Y54.2994
G01 X27.9927 Y54.3464
G01 X28.0228 Y54.3927
G01 X28.0541 Y54.4383
G01 X28.0864 Y54.4830
G01 X28.1199 Y54.5270
G01 X28.1544 Y54.5701
G01 X28.1899 Y54.6123
G01 X28.2265 Y54.6537
G01 X28.2641 Y54.6942
G01 X28.3026 Y54.7337
G01 X28.3422 Y54.7723
G01 X28.3826 Y54.8098
G01 X28.4240 Y54.8464
G01 X28.4662 Y54.8820
G01 X28.5094 Y54.9165
G01 X28.5533 Y54.9499
G01 X28.5981 Y54.9823
G01 X28.6436 Y55.0135
G01 X28.6899 Y55.0436
G01 X28.7369 Y55.0726
G01 X28.7846 Y55.1004
G01 X28.8330 Y55.1270
G01 X28.8820 Y55.1525
G01 X28.9316 Y55.1767
G01 X28.9818 Y55.1997
G01 X29.0326 Y55.2214
G01 X29.0839 Y55.2419
G01 X29.1356 Y55.2612
G01 X29.1879 Y55.2791
G01 X29.2405 Y55.2958
G01 X29.2935 Y55.3112
G01 X29.3469 Y55.3253
G01 X29.4007 Y55.3380
G01 X29.4547 Y55.3495
G01 X29.5090 Y55.3596
G01 X29.5635 Y55.3683
G01 X29.6182 Y55.3758
G01 X29.6731 Y55.3819
G01 X29.7281 Y55.3866
G01 X29.7832 Y55.3900
G01 X29.8384 Y55.3920
G01 X29.8936 Y55.3927
G01 X29.9489 Y55.3920
G01 X30.0040 Y55.3900
G01 X30.0592 Y55.3866
G01 X30.1142 Y55.3819
G01 X30.1691 Y55.3758
G01 X30.2238 Y55.3683
G01 X30.2783 Y55.3596
G01 X30.3326 Y55.3495
G01 X30.3866 Y55.3380
G01 X30.4403 Y55.3253
G01 X30.4937 Y55.3112
G01 X30.5468 Y55.2958
G01 X30.5994 Y55.2791
G01 X30.6516 Y55.2612
G01 X30.7034 Y55.2419
G01 X30.7547 Y55.2214
G01 X30.8054 Y55.1997
G01 X30.8556 Y55.1767
G01 X30.9053 Y55.1525
G01 X30.9543 Y55.1270
G01 X31.0027 Y55.1004
G01 X31.0504 Y55.0726
G01 X31.0974 Y55.0436
G01 X31.1437 Y55.0135
G01 X31.1892 Y54.9823
G01 X31.2340 Y54.9499
G01 X31.2779 Y54.9165
G01 X31.3210 Y54.8820
G01 X31.3633 Y54.8464
G01 X31.4046 Y54.8098
G01 X31.4451 Y54.7723
G01 X31.4846 Y54.7337
G01 X31.5232 Y54.6942
G01 X31.5608 Y54.6537
G01 X31.5974 Y54.6123
G01 X31.6329 Y54.5701
G01 X31.6674 Y54.5270
G01 X31.7009 Y54.4830
G01 X31.7332 Y54.4383
G01 X31.7644 Y54.3927
G01 X31.7946 Y54.3464
G01 X31.8235 Y54.2994
G01 X31.8513 Y54.2517
G01 X31.8780 Y54.2033
G01 X31.9034 Y54.1543
G01 X31.9276 Y54.1047
G01 X31.9506 Y54.0545
G01 X31.9724 Y54.0037
G01 X31.9929 Y53.9525
G01 X32.0121 Y53.9007
G01 X32.0301 Y53.8485
G01 X32.0468 Y53.7958
G01 X32.0621 Y53.7428
G01 X32.0762 Y53.6894
G01 X32.0890 Y53.6357
G01 X32.1004 Y53.5817
G01 X32.1105 Y53.5274
G01 X32.1193 Y53.4728
G01 X32.1267 Y53.4181
G01 X32.1328 Y53.3632
G01 X32.1375 Y53.3082
G01 X32.1409 Y53.2531
G01 X32.1430 Y53.1979
G01 X32.1436 Y53.1427
G01 X31.2436 Y53.1427
G01 X31.2432 Y53.1096
G01 X31.2420 Y53.0765
G01 X31.2400 Y53.0434
G01 X31.2371 Y53.0104
G01 X31.2335 Y52.9774
G01 X31.2290 Y52.9446
G01 X31.2238 Y52.9119
G01 X31.2177 Y52.8793
G01 X31.2108 Y52.8469
G01 X31.2032 Y52.8147
G01 X31.1947 Y52.7826
G01 X31.1855 Y52.7508
G01 X31.1755 Y52.7192
G01 X31.1647 Y52.6879
G01 X31.1532 Y52.6568
G01 X31.1409 Y52.6261
G01 X31.1278 Y52.5956
G01 X31.1140 Y52.5655
G01 X31.0995 Y52.5357
G01 X31.0842 Y52.5063
G01 X31.0683 Y52.4773
G01 X31.0516 Y52.4487
G01 X31.0342 Y52.4205
G01 X31.0161 Y52.3927
G01 X30.9974 Y52.3654
G01 X30.9780 Y52.3385
G01 X30.9579 Y52.3121
G01 X30.9372 Y52.2863
G01 X30.9159 Y52.2609
G01 X30.8939 Y52.2361
G01 X30.8714 Y52.2118
G01 X30.8482 Y52.1881
G01 X30.8245 Y52.1650
G01 X30.8002 Y52.1424
G01 X30.7754 Y52.1205
G01 X30.7501 Y52.0991
G01 X30.7242 Y52.0784
G01 X30.6978 Y52.0584
G01 X30.6710 Y52.0390
G01 X30.6437 Y52.0202
G01 X30.6159 Y52.0021
G01 X30.5877 Y51.9848
G01 X30.5590 Y51.9681
G01 X30.5300 Y51.9521
G01 X30.5006 Y51.9368
G01 X30.4708 Y51.9223
G01 X30.4407 Y51.9085
G01 X30.4103 Y51.8955
G01 X30.3795 Y51.8832
G01 X30.3484 Y51.8716
G01 X30.3171 Y51.8608
G01 X30.2855 Y51.8508
G01 X30.2537 Y51.8416
G01 X30.2217 Y51.8332
G01 X30.1894 Y51.8255
G01 X30.1570 Y51.8186
G01 X30.1244 Y51.8126
G01 X30.0917 Y51.8073
G01 X30.0589 Y51.8029
G01 X30.0260 Y51.7992
G01 X29.9929 Y51.7964
G01 X29.9599 Y51.7943
G01 X29.9268 Y51.7931
G01 X29.8936 Y51.7927
G01 X29.8605 Y51.7931
G01 X29.8274 Y51.7943
G01 X29.7943 Y51.7964
G01 X29.7613 Y51.7992
G01 X29.7284 Y51.8029
G01 X29.6955 Y51.8073
G01 X29.6628 Y51.8126
G01 X29.6303 Y51.8186
G01 X29.5978 Y51.8255
G01 X29.5656 Y51.8332
G01 X29.5336 Y51.8416
G01 X29.5018 Y51.8508
G01 X29.4702 Y51.8608
G01 X29.4388 Y51.8716
G01 X29.4078 Y51.8832
G01 X29.3770 Y51.8955
G01 X29.3466 Y51.9085
G01 X29.3164 Y51.9223
G01 X29.2867 Y51.9368
G01 X29.2572 Y51.9521
G01 X29.2282 Y51.9681
G01 X29.1996 Y51.9848
G01 X29.1714 Y52.0021
G01 X29.1436 Y52.0202
G01 X29.1163 Y52.0390
G01 X29.0894 Y52.0584
G01 X29.0631 Y52.0784
G01 X29.0372 Y52.0991
G01 X29.0119 Y52.1205
G01 X28.9870 Y52.1424
G01 X28.9628 Y52.1650
G01 X28.9390 Y52.1881
G01 X28.9159 Y52.2118
G01 X28.8934 Y52.2361
G01 X28.8714 Y52.2609
G01 X28.8501 Y52.2863
G01 X28.8294 Y52.3121
G01 X28.8093 Y52.3385
G01 X28.7899 Y52.3654
G01 X28.7712 Y52.3927
G01 X28.7531 Y52.4205
G01 X28.7357 Y52.4487
G01 X28.7190 Y52.4773
G01 X28.7030 Y52.5063
G01 X28.6878 Y52.5357
G01 X28.6732 Y52.5655
G01 X28.6595 Y52.5956
G01 X28.6464 Y52.6261
G01 X28.6341 Y52.6568
G01 X28.6225 Y52.6879
G01 X28.6118 Y52.7192
G01 X28.6018 Y52.7508
G01 X28.5925 Y52.7826
G01 X28.5841 Y52.8147
G01 X28.5764 Y52.8469
G01 X28.5696 Y52.8793
G01 X28.5635 Y52.9119
G01 X28.5582 Y52.9446
G01 X28.5538 Y52.9774
G01 X28.5501 Y53.0104
G01 X28.5473 Y53.0434
G01 X28.5453 Y53.0765
G01 X28.5440 Y53.1096
G01 X28.5436 Y53.1427
G01 X28.5440 Y53.1758
G01 X28.5453 Y53.2089
G01 X28.5473 Y53.2420
G01 X28.5501 Y53.2750
G01 X28.5538 Y53.3080
G01 X28.5582 Y53.3408
G01 X28.5635 Y53.3735
G01 X28.5696 Y53.4061
G01 X28.5764 Y53.4385
G01 X28.5841 Y53.4707
G01 X28.5925 Y53.5028
G01 X28.6018 Y53.5346
G01 X28.6118 Y53.5662
G01 X28.6225 Y53.5975
G01 X28.6341 Y53.6286
G01 X28.6464 Y53.6593
G01 X28.6595 Y53.6898
G01 X28.6732 Y53.7199
G01 X28.6878 Y53.7497
G01 X28.7030 Y53.7791
G01 X28.7190 Y53.8081
G01 X28.7357 Y53.8367
G01 X28.7531 Y53.8649
G01 X28.7712 Y53.8927
G01 X28.7899 Y53.9200
G01 X28.8093 Y53.9469
G01 X28.8294 Y53.9733
G01 X28.8501 Y53.9991
G01 X28.8714 Y54.0245
G01 X28.8934 Y54.0493
G01 X28.9159 Y54.0736
G01 X28.9390 Y54.0973
G01 X28.9628 Y54.1204
G01 X28.9870 Y54.1430
G01 X29.0119 Y54.1649
G01 X29.0372 Y54.1863
G01 X29.0631 Y54.2070
G01 X29.0894 Y54.2270
G01 X29.1163 Y54.2464
G01 X29.1436 Y54.2652
G01 X29.1714 Y54.2833
G01 X29.1996 Y54.3006
G01 X29.2282 Y54.3173
G01 X29.2572 Y54.3333
G01 X29.2867 Y54.3486
G01 X29.3164 Y54.3631
G01 X29.3466 Y54.3769
G01 X29.3770 Y54.3899
G01 X29.4078 Y54.4022
G01 X29.4388 Y54.4138
G01 X29.4702 Y54.4246
G01 X29.5018 Y54.4346
G01 X29.5336 Y54.4438
G01 X29.5656 Y54.4522
G01 X29.5978 Y54.4599
G01 X29.6303 Y54.4668
G01 X29.6628 Y54.4728
G01 X29.6955 Y54.4781
G01 X29.7284 Y54.4825
G01 X29.7613 Y54.4862
G01 X29.7943 Y54.4890
G01 X29.8274 Y54.4911
G01 X29.8605 Y54.4923
G01 X29.8936 Y54.4927
G01 X29.9268 Y54.4923
G01 X29.9599 Y54.4911
G01 X29.9929 Y54.4890
G01 X30.0260 Y54.4862
G01 X30.0589 Y54.4825
G01 X30.0917 Y54.4781
G01 X30.1244 Y54.4728
G01 X30.1570 Y54.4668
G01 X30.1894 Y54.4599
G01 X30.2217 Y54.4522
G01 X30.2537 Y54.4438
G01 X30.2855 Y54.4346
G01 X30.3171 Y54.4246
G01 X30.3484 Y54.4138
G01 X30.3795 Y54.4022
G01 X30.4103 Y54.3899
G01 X30.4407 Y54.3769
G01 X30.4708 Y54.3631
G01 X30.5006 Y54.3486
G01 X30.5300 Y54.3333
G01 X30.5590 Y54.3173
G01 X30.5877 Y54.3006
G01 X30.6159 Y54.2833
G01 X30.6437 Y54.2652
G01 X30.6710 Y54.2464
G01 X30.6978 Y54.2270
G01 X30.7242 Y54.2070
G01 X30.7501 Y54.1863
G01 X30.7754 Y54.1649
G01 X30.8002 Y54.1430
G01 X30.8245 Y54.1204
G01 X30.8482 Y54.0973
G01 X30.8714 Y54.0736
G01 X30.8939 Y54.0493
G01 X30.9159 Y54.0245
G01 X30.9372 Y53.9991
G01 X30.9579 Y53.9733
G01 X30.9780 Y53.9469
G01 X30.9974 Y53.9200
G01 X31.0161 Y53.8927
G01 X31.0342 Y53.8649
G01 X31.0516 Y53.8367
G01 X31.0683 Y53.8081
G01 X31.0842 Y53.7791
G01 X31.0995 Y53.7497
G01 X31.1140 Y53.7199
G01 X31.1278 Y53.6898
G01 X31.1409 Y53.6593
G01 X31.1532 Y53.6286
G01 X31.1647 Y53.5975
G01 X31.1755 Y53.5662
G01 X31.1855 Y53.5346
G01 X31.1947 Y53.5028
G01 X31.2032 Y53.4707
G01 X31.2108 Y53.4385
G01 X31.2177 Y53.4061
G01 X31.2238 Y53.3735
G01 X31.2290 Y53.3408
G01 X31.2335 Y53.3080
G01 X31.2371 Y53.2750
G01 X31.2400 Y53.2420
G01 X31.2420 Y53.2089
G01 X31.2432 Y53.1758
G01 X31.2436 Y53.1427
G01 X30.3436 Y53.1427
G01 X30.3431 Y53.1206
G01 X30.3415 Y53.0986
G01 X30.3388 Y53.0767
G01 X30.3350 Y53.0549
G01 X30.3301 Y53.0334
G01 X30.3243 Y53.0121
G01 X30.3173 Y52.9911
G01 X30.3094 Y52.9705
G01 X30.3004 Y52.9503
G01 X30.2905 Y52.9306
G01 X30.2796 Y52.9114
G01 X30.2678 Y52.8927
G01 X30.2551 Y52.8746
G01 X30.2415 Y52.8572
G01 X30.2271 Y52.8405
G01 X30.2118 Y52.8245
G01 X30.1958 Y52.8093
G01 X30.1791 Y52.7948
G01 X30.1617 Y52.7813
G01 X30.1436 Y52.7685
G01 X30.1250 Y52.7567
G01 X30.1058 Y52.7458
G01 X30.0860 Y52.7359
G01 X30.0658 Y52.7270
G01 X30.0452 Y52.7190
G01 X30.0243 Y52.7121
G01 X30.0030 Y52.7062
G01 X29.9814 Y52.7013
G01 X29.9597 Y52.6976
G01 X29.9377 Y52.6949
G01 X29.9157 Y52.6932
G01 X29.8936 Y52.6927
G01 X29.8716 Y52.6932
G01 X29.8495 Y52.6949
G01 X29.8276 Y52.6976
G01 X29.8058 Y52.7013
G01 X29.7843 Y52.7062
G01 X29.7630 Y52.7121
G01 X29.7420 Y52.7190
G01 X29.7214 Y52.7270
G01 X29.7012 Y52.7359
G01 X29.6815 Y52.7458
G01 X29.6623 Y52.7567
G01 X29.6436 Y52.7685
G01 X29.6256 Y52.7813
G01 X29.6082 Y52.7948
G01 X29.5914 Y52.8093
G01 X29.5754 Y52.8245
G01 X29.5602 Y52.8405
G01 X29.5458 Y52.8572
G01 X29.5322 Y52.8746
G01 X29.5195 Y52.8927
G01 X29.5077 Y52.9114
G01 X29.4968 Y52.9306
G01 X29.4868 Y52.9503
G01 X29.4779 Y52.9705
G01 X29.4699 Y52.9911
G01 X29.4630 Y53.0121
G01 X29.4571 Y53.0334
G01 X29.4523 Y53.0549
G01 X29.4485 Y53.0767
G01 X29.4458 Y53.0986
G01 X29.4442 Y53.1206
G01 X29.4436 Y53.1427
G01 X29.4442 Y53.1648
G01 X29.4458 Y53.1868
G01 X29.4485 Y53.2087
G01 X29.4523 Y53.2305
G01 X29.4571 Y53.2520
G01 X29.4630 Y53.2733
G01 X29.4699 Y53.2943
G01 X29.4779 Y53.3149
G01 X29.4868 Y53.3351
G01 X29.4968 Y53.3548
G01 X29.5077 Y53.3740
G01 X29.5195 Y53.3927
G01 X29.5322 Y53.4108
G01 X29.5458 Y53.4282
G01 X29.5602 Y53.4449
G01 X29.5754 Y53.4609
G01 X29.5914 Y53.4761
G01 X29.6082 Y53.4906
G01 X29.6256 Y53.5041
G01 X29.6436 Y53.5169
G01 X29.6623 Y53.5287
G01 X29.6815 Y53.5396
G01 X29.7012 Y53.5495
G01 X29.7214 Y53.5584
G01 X29.7420 Y53.5664
G01 X29.7630 Y53.5733
G01 X29.7843 Y53.5792
G01 X29.8058 Y53.5841
G01 X29.8276 Y53.5878
G01 X29.8495 Y53.5905
G01 X29.8716 Y53.5922
G01 X29.8936 Y53.5927
G01 X29.9157 Y53.5922
G01 X29.9377 Y53.5905
G01 X29.9597 Y53.5878
G01 X29.9814 Y53.5841
G01 X30.0030 Y53.5792
G01 X30.0243 Y53.5733
G01 X30.0452 Y53.5664
G01 X30.0658 Y53.5584
G01 X30.0860 Y53.5495
G01 X30.1058 Y53.5396
G01 X30.1250 Y53.5287
G01 X30.1436 Y53.5169
G01 X30.1617 Y53.5041
G01 X30.1791 Y53.4906
G01 X30.1958 Y53.4761
G01 X30.2118 Y53.4609
G01 X30.2271 Y53.4449
G01 X30.2415 Y53.4282
G01 X30.2551 Y53.4108
G01 X30.2678 Y53.3927
G01 X30.2796 Y53.3740
G01 X30.2905 Y53.3548
G01 X30.3004 Y53.3351
G01 X30.3094 Y53.3149
G01 X30.3173 Y53.2943
G01 X30.3243 Y53.2733
G01 X30.3301 Y53.2520
G01 X30.3350 Y53.2305
G01 X30.3388 Y53.2087
G01 X30.3415 Y53.1868
G01 X30.3431 Y53.1648
G01 X30.3436 Y53.1427
G01 X35.8436 Y56.3301
G01 X35.7667 Y56.4698
G01 X35.6951 Y56.5927
G00 Z2.0000
G00 X27.7729 Y69.6927
G01 F60.00
G01 Z-0.8000
G01 F120.00
G01 X27.7269 Y69.7210
G01 X27.6436 Y69.7752
G01 X27.5616 Y69.8315
G01 X27.4811 Y69.8897
G01 X27.4019 Y69.9499
G01 X27.3243 Y70.0120
G01 X27.2483 Y70.0760
G01 X27.1738 Y70.1418
G01 X27.1010 Y70.2095
G01 X27.0299 Y70.2789
G01 X26.9604 Y70.3501
G01 X26.8928 Y70.4229
G01 X26.8269 Y70.4973
G01 X26.7629 Y70.5734
G01 X26.7008 Y70.6510
G01 X26.6406 Y70.7301
G01 X26.5824 Y70.8107
G01 X26.5262 Y70.8926
G01 X26.4720 Y70.9760
G01 X26.4198 Y71.0606
G01 X26.3698 Y71.1465
G01 X26.3219 Y71.2335
G01 X26.2761 Y71.3218
G01 X26.2325 Y71.4111
G01 X26.1911 Y71.5015
G01 X26.1519 Y71.5928
G01 X26.1150 Y71.6851
G01 X26.0804 Y71.7783
G01 X26.0480 Y71.8723
G01 X26.0180 Y71.9670
G01 X25.9903 Y72.0625
G01 X25.9650 Y72.1586
G01 X25.9420 Y72.2553
G01 X25.9215 Y72.3526
G01 X25.9033 Y72.4503
G01 X25.8875 Y72.5484
G01 X25.8741 Y72.6469
G01 X25.8631 Y72.7457
G01 X25.8546 Y72.8448
G01 X25.8485 Y72.9440
G01 X25.8449 Y73.0433
G01 X25.8436 Y73.1427
G01 X25.8449 Y73.2421
G01 X25.8485 Y73.3414
G01 X25.8546 Y73.4406
G01 X25.8631 Y73.5397
G01 X25.8741 Y73.6385
G01 X25.8875 Y73.7370
G01 X25.9033 Y73.8351
G01 X25.9215 Y73.9328
G01 X25.9420 Y74.0301
G01 X25.9650 Y74.1268
G01 X25.9903 Y74.2229
G01 X26.0180 Y74.3184
G01 X26.0480 Y74.4131
G01 X26.0804 Y74.5071
G01 X26.1150 Y74.6003
G01 X26.1519 Y74.6926
G01 X26.1911 Y74.7839
G01 X26.2325 Y74.8743
G01 X26.2761 Y74.9636
G01 X26.3219 Y75.0519
G01 X26.3698 Y75.1389
G01 X26.4198 Y75.2248
G01 X26.4720 Y75.3094
G01 X26.5262 Y75.3928
G01 X26.5824 Y75.4747
G01 X26.6406 Y75.5553
G01 X26.7008 Y75.6344
G01 X26.7629 Y75.7120
G01 X26.8269 Y75.7880
G01 X26.8928 Y75.8625
G01 X26.9604 Y75.9353
G01 X27.0299 Y76.0065
G01 X27.1010 Y76.0759
G01 X27.1738 Y76.1435
G01 X27.2483 Y76.2094
G01 X27.3243 Y76.2734
G01 X27.4019 Y76.3355
G01 X27.4811 Y76.3957
G01 X27.5616 Y76.4539
G01 X27.6436 Y76.5101
G01 X27.7269 Y76.5644
G01 X27.7729 Y76.5927
G00 Z2.0000
G00 X32.0144 Y76.5927
G01 F60.00
G01 Z-0.8000
G01 F120.00
G01 X32.0604 Y76.5644
G01 X32.1437 Y76.5101
G01 X32.2257 Y76.4539
G01 X32.3062 Y76.3957
G01 X32.3853 Y76.3355
G01 X32.4629 Y76.2734
G01 X32.5390 Y76.2094
G01 X32.6134 Y76.1435
G01 X32.6863 Y76.0759
G01 X32.7574 Y76.0065
G01 X32.8268 Y75.9353
G01 X32.8945 Y75.8625
G01 X32.9603 Y75.7880
G01 X33.0243 Y75.7120
G01 X33.0864 Y75.6344
G01 X33.1466 Y75.5553
G01 X33.2049 Y75.4747
G01 X33.2611 Y75.3928
G01 X33.3153 Y75.3094
G01 X33.3674 Y75.2248
G01 X33.4175 Y75.1389
G01 X33.4654 Y75.0519
G01 X33.5112 Y74.9636
G01 X33.5548 Y74.8743
G01 X33.5962 Y74.7839
G01 X33.6353 Y74.6926
G01 X33.6723 Y74.6003
G01 X33.7069 Y74.5071
G01 X33.7392 Y74.4131
G01 X33.7692 Y74.3184
G01 X33.7969 Y74.2229
G01 X33.8223 Y74.1268
G01 X33.8452 Y74.0301
G01 X33.8658 Y73.9328
G01 X33.8840 Y73.8351
G01 X33.8998 Y73.7370
G01 X33.9132 Y73.6385
G01 X33.9241 Y73.5397
G01 X33.9327 Y73.4406
G01 X33.9388 Y73.3414
G01 X33.9424 Y73.2421
G01 X33.9436 Y73.1427
G01 X33.9424 Y73.0433
G01 X33.9388 Y72.9440
G01 X33.9327 Y72.8448
G01 X33.9241 Y72.7457
G01 X33.9132 Y72.6469
G01 X33.8998 Y72.5484
G01 X33.8840 Y72.4503
G01 X33.8658 Y72.3526
G01 X33.8452 Y72.2553
G01 X33.8223 Y72.1586
G01 X33.7969 Y72.0625
G01 X33.7692 Y71.9670
G01 X33.7392 Y71.8723
G01 X33.7069 Y71.7783
G01 X33.6723 Y71.6851
G01 X33.6353 Y71.5928
G01 X33.5962 Y71.5015
G01 X33.5548 Y71.4111
G01 X33.5112 Y71.3218
G01 X33.4654 Y71.2335
G01 X33.4175 Y71.1465
G01 X33.3674 Y71.0606
G01 X33.3153 Y70.9760
G01 X33.2611 Y70.8926
G01 X33.2049 Y70.8107
G01 X33.1466 Y70.7301
G01 X33.0864 Y70.6510
G01 X33.0243 Y70.5734
G01 X32.9603 Y70.4973
G01 X32.8945 Y70.4229
G01 X32.8268 Y70.3501
G01 X32.7574 Y70.2789
G01 X32.6863 Y70.2095
G01 X32.6134 Y70.1418
G01 X32.5390 Y70.0760
G01 X32.4629 Y70.0120
G01 X32.3853 Y69.9499
G01 X32.3062 Y69.8897
G01 X32.2257 Y69.8315
G01 X32.1437 Y69.7752
G01 X32.0604 Y69.7210
G01 X32.0144 Y69.6927
G01 X33.4428 Y69.6927
G01 X33.4787 Y69.7295
G01 X33.5613 Y69.8185
G01 X33.6418 Y69.9095
G01 X33.7200 Y70.0025
G01 X33.7959 Y70.0973
G01 X33.8695 Y70.1940
G01 X33.9407 Y70.2924
G01 X34.0094 Y70.3926
G01 X34.0757 Y70.4945
G01 X34.1394 Y70.5979
G01 X34.2006 Y70.7029
G01 X34.2591 Y70.8093
G01 X34.3151 Y70.9171
G01 X34.3684 Y71.0263
G01 X34.4190 Y71.1368
G01 X34.4668 Y71.2484
G01 X34.5119 Y71.3612
G01 X34.5543 Y71.4751
G01 X34.5938 Y71.5900
G01 X34.6305 Y71.7058
G01 X34.6643 Y71.8225
G01 X34.6953 Y71.9399
G01 X34.7234 Y72.0581
G01 X34.7485 Y72.1770
G01 X34.7708 Y72.2964
G01 X34.7901 Y72.4164
G01 X34.8064 Y72.5368
G01 X34.8198 Y72.6575
G01 X34.8302 Y72.7786
G01 X34.8377 Y72.8998
G01 X34.8421 Y73.0212
G01 X34.8436 Y73.1427
G01 X34.8421 Y73.2642
G01 X34.8377 Y73.3856
G01 X34.8302 Y73.5068
G01 X34.8198 Y73.6279
G01 X34.8064 Y73.7486
G01 X34.7901 Y73.8690
G01 X34.7708 Y73.9890
G01 X34.7485 Y74.1084
G01 X34.7234 Y74.2272
G01 X34.6953 Y74.3454
G01 X34.6643 Y74.4629
G01 X34.6305 Y74.5796
G01 X34.5938 Y74.6954
G01 X34.5543 Y74.8103
G01 X34.5119 Y74.9242
G01 X34.4668 Y75.0370
G01 X34.4190 Y75.1486
G01 X34.3684 Y75.2591
G01 X34.3151 Y75.3683
G01 X34.2591 Y75.4761
G01 X34.2006 Y75.5825
G01 X34.1394 Y75.6875
G01 X34.0757 Y75.7909
G01 X34.0094 Y75.8928
G01 X33.9407 Y75.9929
G01 X33.8695 Y76.0914
G01 X33.7959 Y76.1881
G01 X33.7200 Y76.2829
G01 X33.6418 Y76.3759
G01 X33.5613 Y76.4669
G01 X33.4787 Y76.5559
G01 X33.4428 Y76.5927
G00 Z2.0000
G00 X34.6176 Y76.5927
G01 F60.00
G01 Z-0.8000
G01 F120.00
G01 X34.6765 Y76.5112
G01 X34.7577 Y76.3928
G01 X34.8360 Y76.2724
G01 X34.9113 Y76.1502
G01 X34.9836 Y76.0262
G01 X35.0529 Y75.9004
G01 X35.1190 Y75.7729
G01 X35.1820 Y75.6439
G01 X35.2418 Y75.5134
G01 X35.2983 Y75.3814
G01 X35.3516 Y75.2481
G01 X35.4017 Y75.1135
G01 X35.4484 Y74.9777
G01 X35.4917 Y74.8409
G01 X35.5317 Y74.7030
G01 X35.5683 Y74.5641
G01 X35.6015 Y74.4244
G01 X35.6312 Y74.2840
G01 X35.6575 Y74.1428
G01 X35.6803 Y74.0011
G01 X35.6996 Y73.8588
G01 X35.7155 Y73.7161
G01 X35.7278 Y73.5731
G01 X35.7366 Y73.4297
G01 X35.7419 Y73.2863
G01 X35.7436 Y73.1427
G01 X35.7419 Y72.9991
G01 X35.7366 Y72.8557
G01 X35.7278 Y72.7123
G01 X35.7155 Y72.5693
G01 X35.6996 Y72.4266
G01 X35.6803 Y72.2843
G01 X35.6575 Y72.1426
G01 X35.6312 Y72.0014
G01 X35.6015 Y71.8610
G01 X35.5683 Y71.7213
G01 X35.5317 Y71.5824
G01 X35.4917 Y71.4445
G01 X35.4484 Y71.3077
G01 X35.4017 Y71.1719
G01 X35.3516 Y71.0373
G01 X35.2983 Y70.9040
G01 X35.2418 Y70.7720
G01 X35.1820 Y70.6415
G01 X35.1190 Y70.5125
G01 X35.0529 Y70.3850
G01 X34.9836 Y70.2592
G01 X34.9113 Y70.1352
G01 X34.8360 Y70.0130
G01 X34.7577 Y69.8926
G01 X34.6765 Y69.7742
G01 X34.6176 Y69.6927
G01 X35.6951 Y69.6927
G01 X35.7667 Y69.8156
G01 X35.8436 Y69.9553
G01 X33.0436 Y73.1427
G01 X33.0427 Y73.0654
G01 X33.0398 Y72.9881
G01 X33.0351 Y72.9110
G01 X33.0285 Y72.8339
G01 X33.0199 Y72.7571
G01 X33.0095 Y72.6805
G01 X32.9973 Y72.6042
G01 X32.9831 Y72.5282
G01 X32.9671 Y72.4525
G01 X32.9492 Y72.3773
G01 X32.9295 Y72.3026
G01 X32.9080 Y72.2283
G01 X32.8846 Y72.1546
G01 X32.8595 Y72.0815
G01 X32.8326 Y72.0090
G01 X32.8039 Y71.9372
G01 X32.7734 Y71.8662
G01 X32.7412 Y71.7959
G01 X32.7073 Y71.7264
G01 X32.6717 Y71.6578
G01 X32.6344 Y71.5901
G01 X32.5955 Y71.5233
G01 X32.5549 Y71.4575
G01 X32.5128 Y71.3927
G01 X32.4690 Y71.3289
G01 X32.4237 Y71.2662
G01 X32.3769 Y71.2047
G01 X32.3286 Y71.1444
G01 X32.2788 Y71.0852
G01 X32.2276 Y71.0273
G01 X32.1750 Y70.9706
G01 X32.1210 Y70.9153
G01 X32.0657 Y70.8613
G01 X32.0090 Y70.8087
G01 X31.9511 Y70.7575
G01 X31.8920 Y70.7077
G01 X31.8316 Y70.6594
G01 X31.7701 Y70.6126
G01 X31.7074 Y70.5673
G01 X31.6437 Y70.5236
G01 X31.5789 Y70.4814
G01 X31.5131 Y70.4409
G01 X31.4463 Y70.4019
G01 X31.3785 Y70.3646
G01 X31.3099 Y70.3290
G01 X31.2404 Y70.2951
G01 X31.1701 Y70.2629
G01 X31.0991 Y70.2325
G01 X31.0273 Y70.2038
G01 X30.9548 Y70.1768
G01 X30.8817 Y70.1517
G01 X30.8080 Y70.1283
G01 X30.7338 Y70.1068
G01 X30.6590 Y70.0871
G01 X30.5838 Y70.0692
G01 X30.5082 Y70.0532
G01 X30.4322 Y70.0391
G01 X30.3558 Y70.0268
G01 X30.2792 Y70.0164
G01 X30.2024 Y70.0079
G01 X30.1254 Y70.0012
G01 X30.0482 Y69.9965
G01 X29.9709 Y69.9936
G01 X29.8936 Y69.9927
G01 X29.8163 Y69.9936
G01 X29.7391 Y69.9965
G01 X29.6619 Y70.0012
G01 X29.5849 Y70.0079
G01 X29.5080 Y70.0164
G01 X29.4314 Y70.0268
G01 X29.3551 Y70.0391
G01 X29.2791 Y70.0532
G01 X29.2035 Y70.0692
G01 X29.1282 Y70.0871
G01 X29.0535 Y70.1068
G01 X28.9792 Y70.1283
G01 X28.9055 Y70.1517
G01 X28.8324 Y70.1768
G01 X28.7600 Y70.2038
G01 X28.6882 Y70.2325
G01 X28.6171 Y70.2629
G01 X28.5468 Y70.2951
G01 X28.4774 Y70.3290
G01 X28.4087 Y70.3646
G01 X28.3410 Y70.4019
G01 X28.2742 Y70.4409
G01 X28.2084 Y70.4814
G01 X28.1436 Y70.5236
G01 X28.0798 Y70.5673
G01 X28.0172 Y70.6126
G01 X27.9557 Y70.6594
G01 X27.8953 Y70.7077
G01 X27.8361 Y70.7575
G01 X27.7782 Y70.8087
G01 X27.7216 Y70.8613
G01 X27.6662 Y70.9153
G01 X27.6123 Y70.9706
G01 X27.5596 Y71.0273
G01 X27.5084 Y71.0852
G01 X27.4587 Y71.1444
G01 X27.4103 Y71.2047
G01 X27.3635 Y71.2662
G01 X27.3182 Y71.3289
G01 X27.2745 Y71.3927
G01 X27.2323 Y71.4575
G01 X27.1918 Y71.5233
G01 X27.1529 Y71.5901
G01 X27.1156 Y71.6578
G01 X27.0800 Y71.7264
G01 X27.0461 Y71.7959
G01 X27.0139 Y71.8662
G01 X26.9834 Y71.9372
G01 X26.9547 Y72.0090
G01 X26.9278 Y72.0815
G01 X26.9026 Y72.1546
G01 X26.8793 Y72.2283
G01 X26.8577 Y72.3026
G01 X26.8380 Y72.3773
G01 X26.8202 Y72.4525
G01 X26.8042 Y72.5282
G01 X26.7900 Y72.6042
G01 X26.7777 Y72.6805
G01 X26.7673 Y72.7571
G01 X26.7588 Y72.8339
G01 X26.7522 Y72.9110
G01 X26.7474 Y72.9881
G01 X26.7446 Y73.0654
G01 X26.7436 Y73.1427
G01 X26.7446 Y73.2200
G01 X26.7474 Y73.2973
G01 X26.7522 Y73.3744
G01 X26.7588 Y73.4515
G01 X26.7673 Y73.5283
G01 X26.7777 Y73.6049
G01 X26.7900 Y73.6812
G01 X26.8042 Y73.7572
G01 X26.8202 Y73.8329
G01 X26.8380 Y73.9081
G01 X26.8577 Y73.9828
G01 X26.8793 Y74.0571
G01 X26.9026 Y74.1308
G01 X26.9278 Y74.2039
G01 X26.9547 Y74.2764
G01 X26.9834 Y74.3482
G01 X27.0139 Y74.4192
G01 X27.0461 Y74.4895
G01 X27.0800 Y74.5590
G01 X27.1156 Y74.6276
G01 X27.1529 Y74.6953
G01 X27.1918 Y74.7621
G01 X27.2323 Y74.8279
G01 X27.2745 Y74.8927
G01 X27.3182 Y74.9565
G01 X27.3635 Y75.0192
G01 X27.4103 Y75.0807
G01 X27.4587 Y75.1410
G01 X27.5084 Y75.2002
G01 X27.5596 Y75.2581
G01 X27.6123 Y75.3148
G01 X27.6662 Y75.3701
G01 X27.7216 Y75.4241
G01 X27.7782 Y75.4767
G01 X27.8361 Y75.5279
G01 X27.8953 Y75.5777
G01 X27.9557 Y75.6260
G01 X28.0172 Y75.6728
G01 X28.0798 Y75.7181
G01 X28.1436 Y75.7618
G01 X28.2084 Y75.8040
G01 X28.2742 Y75.8445
G01 X28.3410 Y75.8835
G01 X28.4087 Y75.9207
G01 X28.4774 Y75.9564
G01 X28.5468 Y75.9903
G01 X28.6171 Y76.0225
G01 X28.6882 Y76.0529
G01 X28.7600 Y76.0816
G01 X28.8324 Y76.1086
G01 X28.9055 Y76.1337
G01 X28.9792 Y76.1571
G01 X29.0535 Y76.1786
G01 X29.1282 Y76.1983
G01 X29.2035 Y76.2162
G01 X29.2791 Y76.2322
G01 X29.3551 Y76.2463
G01 X29.4314 Y76.2586
G01 X29.5080 Y76.2690
G01 X29.5849 Y76.2775
G01 X29.6619 Y76.2842
G01 X29.7391 Y76.2889
