(G-CODE GENERATED BY FLATCAM v8.994 - www.flatcam.org - Version Date: 2020/11/7)

(Name: Beecounter-PTH.drl_cnc)
(Type: G-code from Geometry)
(Units: MM)

(Created on Saturday, 01 February 2025 at 15:42)

(This preprocessor is the default preprocessor used by FlatCAM.)
(It is made to work with MACH3 compatible motion controllers.)


(TOOLS DIAMETER: )
(Tool: 1 -> Dia: 0.29972)
(Tool: 2 -> Dia: 0.8000999999999999)
(Tool: 3 -> Dia: 1.0007599999999999)

(FEEDRATE Z: )
(Tool: 1 -> Feedrate: 40.0)
(Tool: 2 -> Feedrate: 300)
(Tool: 3 -> Feedrate: 300)

(FEEDRATE RAPIDS: )
(Tool: 1 -> Feedrate Rapids: 1500)
(Tool: 2 -> Feedrate Rapids: 1500)
(Tool: 3 -> Feedrate Rapids: 1500)

(Z_CUT: )
(Tool: 1 -> Z_Cut: -1.7)
(Tool: 2 -> Z_Cut: -1.7)
(Tool: 3 -> Z_Cut: -1.7)

(Tools Offset: )
(Tool: 1 -> Offset Z: 0.0)

(Z_MOVE: )
(Tool: 1 -> Z_Move: 2)
(Tool: 2 -> Z_Move: 2)
(Tool: 3 -> Z_Move: 2)

(Z Toolchange: 15 mm)
(X,Y Toolchange: 0.0000, 0.0000 mm)
(Z Start: None mm)
(Z End: 0.5 mm)
(X,Y End: None mm)
(Steps per circle: 64)
(Preprocessor Excellon: default)

(X range:    3.5407 ...   52.8014  mm)
(Y range:    1.8889 ...  158.1992  mm)

(Spindle Speed: 0 RPM)
G21
G90
G94

G01 F40.00

M5
G00 Z15.0000
T1
G00 X0.0000 Y0.0000                
M6
(MSG, Change to Tool Dia = 0.2997 ||| Total drills for tool T1 = 93)
M0
G00 Z15.0000

G01 F40.00
M03
G00 X4.4881 Y130.6453
G01 Z-1.7000
G01 Z0
G00 Z2.0000
G00 X7.3761 Y130.6250
G01 Z-1.7000
G01 Z0
G00 Z2.0000
G00 X14.4195 Y132.2404
G01 Z-1.7000
G01 Z0
G00 Z2.0000
G00 X14.3738 Y124.9989
G01 Z-1.7000
G01 Z0
G00 Z2.0000
G00 X14.3865 Y123.6451
G01 Z-1.7000
G01 Z0
G00 Z2.0000
G00 X21.8871 Y128.0443
G01 Z-1.7000
G01 Z0
G00 Z2.0000
G00 X24.1883 Y128.0443
G01 Z-1.7000
G01 Z0
G00 Z2.0000
G00 X33.0199 Y132.9897
G01 Z-1.7000
G01 Z0
G00 Z2.0000
G00 X30.7212 Y132.9897
G01 Z-1.7000
G01 Z0
G00 Z2.0000
G00 X20.5511 Y142.1388
G01 Z-1.7000
G01 Z0
G00 Z2.0000
G00 X24.3204 Y143.3250
G01 Z-1.7000
G01 Z0
G00 Z2.0000
G00 X26.9188 Y145.5907
G01 Z-1.7000
G01 Z0
G00 Z2.0000
G00 X28.2193 Y143.2412
G01 Z-1.7000
G01 Z0
G00 Z2.0000
G00 X35.9257 Y144.4248
G01 Z-1.7000
G01 Z0
G00 Z2.0000
G00 X37.8739 Y145.6262
G01 Z-1.7000
G01 Z0
G00 Z2.0000
G00 X41.5746 Y143.4240
G01 Z-1.7000
G01 Z0
G00 Z2.0000
G00 X39.7255 Y142.1261
G01 Z-1.7000
G01 Z0
G00 Z2.0000
G00 X40.5688 Y137.4398
G01 Z-1.7000
G01 Z0
G00 Z2.0000
G00 X40.5129 Y136.0250
G01 Z-1.7000
G01 Z0
G00 Z2.0000
G00 X47.3506 Y130.4751
G01 Z-1.7000
G01 Z0
G00 Z2.0000
G00 X40.5383 Y128.7454
G01 Z-1.7000
G01 Z0
G00 Z2.0000
G00 X40.5688 Y117.3890
G01 Z-1.7000
G01 Z0
G00 Z2.0000
G00 X40.6196 Y115.9997
G01 Z-1.7000
G01 Z0
G00 Z2.0000
G00 X47.1245 Y110.4498
G01 Z-1.7000
G01 Z0
G00 Z2.0000
G00 X40.6374 Y108.7454
G01 Z-1.7000
G01 Z0
G00 Z2.0000
G00 X33.0199 Y112.9212
G01 Z-1.7000
G01 Z0
G00 Z2.0000
G00 X30.7212 Y112.9212
G01 Z-1.7000
G01 Z0
G00 Z2.0000
G00 X24.2188 Y108.0037
G01 Z-1.7000
G01 Z0
G00 Z2.0000
G00 X21.9201 Y108.0037
G01 Z-1.7000
G01 Z0
G00 Z2.0000
G00 X30.7695 Y92.9212
G01 Z-1.7000
G01 Z0
G00 Z2.0000
G00 X33.0707 Y92.9212
G01 Z-1.7000
G01 Z0
G00 Z2.0000
G00 X40.6196 Y97.4399
G01 Z-1.7000
G01 Z0
G00 Z2.0000
G00 X40.5739 Y95.9997
G01 Z-1.7000
G01 Z0
G00 Z2.0000
G00 X46.9696 Y90.4346
G01 Z-1.7000
G01 Z0
G00 Z2.0000
G00 X40.5510 Y89.2255
G01 Z-1.7000
G01 Z0
G00 Z2.0000
G00 X40.5688 Y77.3891
G01 Z-1.7000
G01 Z0
G00 Z2.0000
G00 X40.4697 Y75.9007
G01 Z-1.7000
G01 Z0
G00 Z2.0000
G00 X46.9188 Y70.4346
G01 Z-1.7000
G01 Z0
G00 Z2.0000
G00 X40.4113 Y69.1621
G01 Z-1.7000
G01 Z0
G00 Z2.0000
G00 X40.6196 Y57.3892
G01 Z-1.7000
G01 Z0
G00 Z2.0000
G00 X40.5256 Y55.9261
G01 Z-1.7000
G01 Z0
G00 Z2.0000
G00 X47.1982 Y50.4397
G01 Z-1.7000
G01 Z0
G00 Z2.0000
G00 X40.4875 Y49.0122
G01 Z-1.7000
G01 Z0
G00 Z2.0000
G00 X40.5688 Y37.3892
G01 Z-1.7000
G01 Z0
G00 Z2.0000
G00 X40.5510 Y36.0989
G01 Z-1.7000
G01 Z0
G00 Z2.0000
G00 X46.9696 Y30.4347
G01 Z-1.7000
G01 Z0
G00 Z2.0000
G00 X40.5637 Y29.1113
G01 Z-1.7000
G01 Z0
G00 Z2.0000
G00 X40.5688 Y17.3892
G01 Z-1.7000
G01 Z0
G00 Z2.0000
G00 X40.5739 Y16.0761
G01 Z-1.7000
G01 Z0
G00 Z2.0000
G00 X46.8705 Y10.4347
G01 Z-1.7000
G01 Z0
G00 Z2.0000
G00 X40.5866 Y8.9158
G01 Z-1.7000
G01 Z0
G00 Z2.0000
G00 X33.0199 Y12.9696
G01 Z-1.7000
G01 Z0
G00 Z2.0000
G00 X30.7212 Y12.9696
G01 Z-1.7000
G01 Z0
G00 Z2.0000
G00 X24.2188 Y8.0014
G01 Z-1.7000
G01 Z0
G00 Z2.0000
G00 X21.9201 Y8.0014
G01 Z-1.7000
G01 Z0
G00 Z2.0000
G00 X14.4195 Y3.5894
G01 Z-1.7000
G01 Z0
G00 Z2.0000
G00 X14.2442 Y4.8899
G01 Z-1.7000
G01 Z0
G00 Z2.0000
G00 X8.0212 Y10.5338
G01 Z-1.7000
G01 Z0
G00 Z2.0000
G00 X14.2950 Y12.2407
G01 Z-1.7000
G01 Z0
G00 Z2.0000
G00 X14.4195 Y23.6910
G01 Z-1.7000
G01 Z0
G00 Z2.0000
G00 X14.2442 Y24.8899
G01 Z-1.7000
G01 Z0
G00 Z2.0000
G00 X7.9196 Y30.5337
G01 Z-1.7000
G01 Z0
G00 Z2.0000
G00 X14.2950 Y32.2406
G01 Z-1.7000
G01 Z0
G00 Z2.0000
G00 X21.9201 Y28.0014
G01 Z-1.7000
G01 Z0
G00 Z2.0000
G00 X24.2188 Y28.0014
G01 Z-1.7000
G01 Z0
G00 Z2.0000
G00 X30.7212 Y32.9188
G01 Z-1.7000
G01 Z0
G00 Z2.0000
G00 X33.0199 Y32.9188
G01 Z-1.7000
G01 Z0
G00 Z2.0000
G00 X33.0707 Y52.9696
G01 Z-1.7000
G01 Z0
G00 Z2.0000
G00 X30.7695 Y52.9696
G01 Z-1.7000
G01 Z0
G00 Z2.0000
G00 X24.2188 Y48.0013
G01 Z-1.7000
G01 Z0
G00 Z2.0000
G00 X21.9201 Y48.0013
G01 Z-1.7000
G01 Z0
G00 Z2.0000
G00 X14.4195 Y43.6909
G01 Z-1.7000
G01 Z0
G00 Z2.0000
G00 X14.2442 Y44.9406
G01 Z-1.7000
G01 Z0
G00 Z2.0000
G00 X7.8688 Y50.5362
G01 Z-1.7000
G01 Z0
G00 Z2.0000
G00 X14.2950 Y52.2888
G01 Z-1.7000
G01 Z0
G00 Z2.0000
G00 X14.4195 Y63.5893
G01 Z-1.7000
G01 Z0
G00 Z2.0000
G00 X14.2442 Y64.8898
G01 Z-1.7000
G01 Z0
G00 Z2.0000
G00 X7.9704 Y70.5362
G01 Z-1.7000
G01 Z0
G00 Z2.0000
G00 X14.2950 Y72.2405
G01 Z-1.7000
G01 Z0
G00 Z2.0000
G00 X21.9201 Y68.0013
G01 Z-1.7000
G01 Z0
G00 Z2.0000
G00 X24.2188 Y68.0013
G01 Z-1.7000
G01 Z0
G00 Z2.0000
G00 X30.7212 Y72.9695
G01 Z-1.7000
G01 Z0
G00 Z2.0000
G00 X33.0199 Y72.9695
G01 Z-1.7000
G01 Z0
G00 Z2.0000
G00 X24.2188 Y88.0012
G01 Z-1.7000
G01 Z0
G00 Z2.0000
G00 X21.9201 Y88.0012
G01 Z-1.7000
G01 Z0
G00 Z2.0000
G00 X14.4195 Y83.6401
G01 Z-1.7000
G01 Z0
G00 Z2.0000
G00 X14.2442 Y84.9405
G01 Z-1.7000
G01 Z0
G00 Z2.0000
G00 X7.9196 Y90.5362
G01 Z-1.7000
G01 Z0
G00 Z2.0000
G00 X14.2950 Y92.2888
G01 Z-1.7000
G01 Z0
G00 Z2.0000
G00 X14.4195 Y103.5892
G01 Z-1.7000
G01 Z0
G00 Z2.0000
G00 X14.2442 Y104.9405
G01 Z-1.7000
G01 Z0
G00 Z2.0000
G00 X14.2950 Y112.2913
G01 Z-1.7000
G01 Z0
G00 Z2.0000
G00 X7.8688 Y110.5361
G01 Z-1.7000
G01 Z0
G00 Z2.0000
M05
G00 Z0.50


