(G-CODE GENERATED BY FLATCAM v8.994 - www.flatcam.org - Version Date: 2020/11/7)

(Name: Beecounter-PTH.drl_cnc)
(Type: G-code from Geometry)
(Units: MM)

(Created on Saturday, 30 November 2024 at 18:51)

(This preprocessor is the default preprocessor used by FlatCAM.)
(It is made to work with MACH3 compatible motion controllers.)


(TOOLS DIAMETER: )
(Tool: 1 -> Dia: 0.29972)
(Tool: 2 -> Dia: 0.5003799999999999)
(Tool: 3 -> Dia: 0.8000999999999999)
(Tool: 4 -> Dia: 1.0007599999999999)

(FEEDRATE Z: )
(Tool: 1 -> Feedrate: 50.0)
(Tool: 2 -> Feedrate: 50.0)
(Tool: 3 -> Feedrate: 300)
(Tool: 4 -> Feedrate: 300)

(FEEDRATE RAPIDS: )
(Tool: 1 -> Feedrate Rapids: 1500)
(Tool: 2 -> Feedrate Rapids: 1500)
(Tool: 3 -> Feedrate Rapids: 1500)
(Tool: 4 -> Feedrate Rapids: 1500)

(Z_CUT: )
(Tool: 1 -> Z_Cut: -1.7)
(Tool: 2 -> Z_Cut: -1.7)
(Tool: 3 -> Z_Cut: -1.7)
(Tool: 4 -> Z_Cut: -1.7)

(Tools Offset: )
(Tool: 1 -> Offset Z: 0.0)
(Tool: 2 -> Offset Z: 0.0)

(Z_MOVE: )
(Tool: 1 -> Z_Move: 2)
(Tool: 2 -> Z_Move: 2)
(Tool: 3 -> Z_Move: 2)
(Tool: 4 -> Z_Move: 2)

(Z Toolchange: 15 mm)
(X,Y Toolchange: 0.0000, 0.0000 mm)
(Z Start: None mm)
(Z End: 0.5 mm)
(X,Y End: None mm)
(Steps per circle: 64)
(Preprocessor Excellon: default)

(X range:    5.6201 ...   54.8808  mm)
(Y range:    3.9012 ...  156.1399  mm)

(Spindle Speed: 0 RPM)
G21
G90
G94

G01 F50.00

M5
G00 Z15.0000
T1
G00 X0.0000 Y0.0000                
M6
(MSG, Change to Tool Dia = 0.2997 ||| Total drills for tool T1 = 69)
M0
G00 Z15.0000

G01 F50.00
M03
G00 X23.0089 Y90.0618
G01 Z-1.7000
G01 Z0
G00 Z2.0000
G00 X26.3007 Y90.0136
G01 Z-1.7000
G01 Z0
G00 Z2.0000
G00 X36.1712 Y75.0555
G01 Z-1.7000
G01 Z0
G00 Z2.0000
G00 X32.8006 Y74.9793
G01 Z-1.7000
G01 Z0
G00 Z2.0000
G00 X26.3007 Y70.0136
G01 Z-1.7000
G01 Z0
G00 Z2.0000
G00 X22.9505 Y70.0619
G01 Z-1.7000
G01 Z0
G00 Z2.0000
G00 X10.0498 Y72.5460
G01 Z-1.7000
G01 Z0
G00 Z2.0000
G00 X16.9002 Y64.5602
G01 Z-1.7000
G01 Z0
G00 Z2.0000
G00 X36.1407 Y54.9311
G01 Z-1.7000
G01 Z0
G00 Z2.0000
G00 X32.8489 Y54.9793
G01 Z-1.7000
G01 Z0
G00 Z2.0000
G00 X26.3007 Y50.0136
G01 Z-1.7000
G01 Z0
G00 Z2.0000
G00 X22.9098 Y50.0619
G01 Z-1.7000
G01 Z0
G00 Z2.0000
G00 X17.1009 Y44.6796
G01 Z-1.7000
G01 Z0
G00 Z2.0000
G00 X9.9508 Y52.5460
G01 Z-1.7000
G01 Z0
G00 Z2.0000
G00 X9.9990 Y32.5461
G01 Z-1.7000
G01 Z0
G00 Z2.0000
G00 X17.0704 Y24.5400
G01 Z-1.7000
G01 Z0
G00 Z2.0000
G00 X22.8489 Y30.0619
G01 Z-1.7000
G01 Z0
G00 Z2.0000
G00 X26.3007 Y30.0137
G01 Z-1.7000
G01 Z0
G00 Z2.0000
G00 X32.8006 Y34.9311
G01 Z-1.7000
G01 Z0
G00 Z2.0000
G00 X36.1102 Y34.8803
G01 Z-1.7000
G01 Z0
G00 Z2.0000
G00 X41.9903 Y20.4811
G01 Z-1.7000
G01 Z0
G00 Z2.0000
G00 X36.2499 Y14.9312
G01 Z-1.7000
G01 Z0
G00 Z2.0000
G00 X32.8006 Y14.9794
G01 Z-1.7000
G01 Z0
G00 Z2.0000
G00 X22.9911 Y10.0620
G01 Z-1.7000
G01 Z0
G00 Z2.0000
G00 X10.1006 Y12.5461
G01 Z-1.7000
G01 Z0
G00 Z2.0000
G00 X16.9789 Y4.5705
G01 Z-1.7000
G01 Z0
G00 Z2.0000
G00 X26.3007 Y10.0137
G01 Z-1.7000
G01 Z0
G00 Z2.0000
G00 X42.6685 Y10.9256
G01 Z-1.7000
G01 Z0
G00 Z2.0000
G00 X48.9499 Y12.4445
G01 Z-1.7000
G01 Z0
G00 Z2.0000
G00 X49.0490 Y32.4445
G01 Z-1.7000
G01 Z0
G00 Z2.0000
G00 X41.5052 Y40.5445
G01 Z-1.7000
G01 Z0
G00 Z2.0000
G00 X49.0998 Y52.4444
G01 Z-1.7000
G01 Z0
G00 Z2.0000
G00 X41.5992 Y60.4988
G01 Z-1.7000
G01 Z0
G00 Z2.0000
G00 X49.0007 Y72.4444
G01 Z-1.7000
G01 Z0
G00 Z2.0000
G00 X41.7795 Y80.5013
G01 Z-1.7000
G01 Z0
G00 Z2.0000
G00 X49.0490 Y92.4443
G01 Z-1.7000
G01 Z0
G00 Z2.0000
G00 X41.6906 Y100.4606
G01 Z-1.7000
G01 Z0
G00 Z2.0000
G00 X36.4988 Y95.0555
G01 Z-1.7000
G01 Z0
G00 Z2.0000
G00 X32.8489 Y94.9310
G01 Z-1.7000
G01 Z0
G00 Z2.0000
G00 X22.8692 Y110.0618
G01 Z-1.7000
G01 Z0
G00 Z2.0000
G00 X26.3007 Y110.0135
G01 Z-1.7000
G01 Z0
G00 Z2.0000
G00 X32.8793 Y114.9487
G01 Z-1.7000
G01 Z0
G00 Z2.0000
G00 X36.0188 Y114.9487
G01 Z-1.7000
G01 Z0
G00 Z2.0000
G00 X41.5509 Y120.5012
G01 Z-1.7000
G01 Z0
G00 Z2.0000
G00 X49.4401 Y112.4697
G01 Z-1.7000
G01 Z0
G00 Z2.0000
G00 X50.5247 Y132.5255
G01 Z-1.7000
G01 Z0
G00 Z2.0000
G00 X41.8328 Y131.8499
G01 Z-1.7000
G01 Z0
G00 Z2.0000
G00 X36.1788 Y134.9512
G01 Z-1.7000
G01 Z0
G00 Z2.0000
G00 X32.8006 Y134.9995
G01 Z-1.7000
G01 Z0
G00 Z2.0000
G00 X41.9497 Y138.7892
G01 Z-1.7000
G01 Z0
G00 Z2.0000
G00 X41.9700 Y140.6891
G01 Z-1.7000
G01 Z0
G00 Z2.0000
G00 X43.4610 Y143.7396
G01 Z-1.7000
G01 Z0
G00 Z2.0000
G00 X45.3990 Y146.4701
G01 Z-1.7000
G01 Z0
G00 Z2.0000
G00 X41.7490 Y147.6309
G01 Z-1.7000
G01 Z0
G00 Z2.0000
G00 X39.4503 Y146.2390
G01 Z-1.7000
G01 Z0
G00 Z2.0000
G00 X30.2911 Y145.0503
G01 Z-1.7000
G01 Z0
G00 Z2.0000
G00 X28.9906 Y147.5090
G01 Z-1.7000
G01 Z0
G00 Z2.0000
G00 X26.3896 Y144.9893
G01 Z-1.7000
G01 Z0
G00 Z2.0000
G00 X22.5720 Y143.0564
G01 Z-1.7000
G01 Z0
G00 Z2.0000
G00 X25.8308 Y130.2141
G01 Z-1.7000
G01 Z0
G00 Z2.0000
G00 X22.8184 Y130.1049
G01 Z-1.7000
G01 Z0
G00 Z2.0000
G00 X16.4506 Y133.8997
G01 Z-1.7000
G01 Z0
G00 Z2.0000
G00 X8.2896 Y132.6297
G01 Z-1.7000
G01 Z0
G00 Z2.0000
G00 X16.4506 Y126.8994
G01 Z-1.7000
G01 Z0
G00 Z2.0000
G00 X16.8494 Y124.6592
G01 Z-1.7000
G01 Z0
G00 Z2.0000
G00 X9.5393 Y112.5408
G01 Z-1.7000
G01 Z0
G00 Z2.0000
G00 X17.0297 Y104.5195
G01 Z-1.7000
G01 Z0
G00 Z2.0000
G00 X10.7458 Y92.5942
G01 Z-1.7000
G01 Z0
G00 Z2.0000
G00 X17.0094 Y84.4789
G01 Z-1.7000
G01 Z0
G00 Z2.0000
M05
G00 Z0.50


