(G-CODE GENERATED BY FLATCAM v8.994 - www.flatcam.org - Version Date: 2020/11/7)

(Name: Beecounter-NPTH.drl_cnc)
(Type: G-code from Geometry)
(Units: MM)

(Created on Saturday, 01 February 2025 at 15:40)

(This preprocessor is the default preprocessor used by FlatCAM.)
(It is made to work with MACH3 compatible motion controllers.)


(TOOLS DIAMETER: )
(Tool: 1 -> Dia: 3.2003999999999997)

(FEEDRATE Z: )
(Tool: 1 -> Feedrate: 60.0)

(FEEDRATE RAPIDS: )
(Tool: 1 -> Feedrate Rapids: 1500)

(Z_CUT: )
(Tool: 1 -> Z_Cut: -1.7)

(Tools Offset: )
(Tool: 1 -> Offset Z: 0.0)

(Z_MOVE: )
(Tool: 1 -> Z_Move: 2)

(Z Toolchange: 15 mm)
(X,Y Toolchange: 0.0000, 0.0000 mm)
(Z Start: None mm)
(Z End: 0.5 mm)
(X,Y End: None mm)
(Steps per circle: 64)
(Preprocessor Excellon: default)

(X range:    3.3502 ...   51.5873  mm)
(Y range:    1.3441 ...  139.6902  mm)

(Spindle Speed: 0 RPM)
G21
G90
G94

G01 F60.00

M5
G00 Z15.0000
T1
G00 X0.0000 Y0.0000                
M6
(MSG, Change to Tool Dia = 3.2004 ||| Total drills for tool T1 = 28)
M0
G00 Z15.0000

G01 F60.00
M03
G00 X4.9504 Y123.0812
G01 Z-1.7000
G01 Z0
G00 Z2.0000
G00 X4.9885 Y117.9453
G01 Z-1.7000
G01 Z0
G00 Z2.0000
G00 X4.9885 Y102.9441
G01 Z-1.7000
G01 Z0
G00 Z2.0000
G00 X4.9885 Y97.9453
G01 Z-1.7000
G01 Z0
G00 Z2.0000
G00 X4.9885 Y82.9441
G01 Z-1.7000
G01 Z0
G00 Z2.0000
G00 X4.9885 Y77.9454
G01 Z-1.7000
G01 Z0
G00 Z2.0000
G00 X4.9885 Y62.9441
G01 Z-1.7000
G01 Z0
G00 Z2.0000
G00 X4.9885 Y57.9454
G01 Z-1.7000
G01 Z0
G00 Z2.0000
G00 X4.9885 Y42.9442
G01 Z-1.7000
G01 Z0
G00 Z2.0000
G00 X4.9885 Y37.9455
G01 Z-1.7000
G01 Z0
G00 Z2.0000
G00 X4.9885 Y22.9442
G01 Z-1.7000
G01 Z0
G00 Z2.0000
G00 X4.9885 Y17.9455
G01 Z-1.7000
G01 Z0
G00 Z2.0000
G00 X4.9885 Y2.9443
G01 Z-1.7000
G01 Z0
G00 Z2.0000
G00 X49.9871 Y2.9443
G01 Z-1.7000
G01 Z0
G00 Z2.0000
G00 X49.9871 Y17.9455
G01 Z-1.7000
G01 Z0
G00 Z2.0000
G00 X49.9871 Y22.9442
G01 Z-1.7000
G01 Z0
G00 Z2.0000
G00 X49.9871 Y37.9455
G01 Z-1.7000
G01 Z0
G00 Z2.0000
G00 X49.9871 Y42.9442
G01 Z-1.7000
G01 Z0
G00 Z2.0000
G00 X49.9871 Y57.9454
G01 Z-1.7000
G01 Z0
G00 Z2.0000
G00 X49.9871 Y62.9441
G01 Z-1.7000
G01 Z0
G00 Z2.0000
G00 X49.9871 Y77.9454
G01 Z-1.7000
G01 Z0
G00 Z2.0000
G00 X49.9871 Y82.9441
G01 Z-1.7000
G01 Z0
G00 Z2.0000
G00 X49.9871 Y97.9453
G01 Z-1.7000
G01 Z0
G00 Z2.0000
G00 X49.9871 Y102.9441
G01 Z-1.7000
G01 Z0
G00 Z2.0000
G00 X49.9871 Y117.9453
G01 Z-1.7000
G01 Z0
G00 Z2.0000
G00 X49.9871 Y122.9440
G01 Z-1.7000
G01 Z0
G00 Z2.0000
G00 X49.9871 Y137.9453
G01 Z-1.7000
G01 Z0
G00 Z2.0000
G00 X5.0190 Y138.0900
G01 Z-1.7000
G01 Z0
G00 Z2.0000
M05
G00 Z0.50


