(G-CODE GENERATED BY FLATCAM v8.994 - www.flatcam.org - Version Date: 2020/11/7)

(Name: Beecounter-B_Cu.gbr_iso_combined_cnc)
(Type: G-code from Geometry)
(Units: MM)

(Created on Saturday, 25 January 2025 at 11:31)

(This preprocessor is the default preprocessor used by FlatCAM.)
(It is made to work with MACH3 compatible motion controllers.)

(TOOL DIAMETER: 0.4 mm)
(Feedrate_XY: 100.0 mm/min)
(Feedrate_Z: 60.0 mm/min)
(Feedrate rapids 1500.0 mm/min)

(Z_Cut: -0.05 mm)
(Z_Move: 2.0 mm)
(Z Start: None mm)
(Z End: 15.0 mm)
(X,Y End: None mm)
(Steps per circle: 64)
(Preprocessor Geometry: default)

(X range:   -0.3100 ...   55.3000  mm)
(Y range:   -0.3400 ...  160.4400  mm)

(Spindle Speed: 0.0 RPM)
G21
G90
G94

G01 F100.00

M5
G00 Z15.0000
G00 X0.0000 Y0.0000
T1
M6    
(MSG, Change to Tool Dia = 0.4000)
M0
G00 Z15.0000

M03
G01 F100.00
G00 X3.1670 Y3.0732
G01 F60.00
G01 Z-0.0500
G01 F100.00
G01 X3.1670 Y2.8568
G01 X3.1950 Y2.6438
G01 X3.2512 Y2.4333
G01 X3.3340 Y2.2334
G01 X3.4422 Y2.0461
G01 X3.5739 Y1.8744
G01 X3.7269 Y1.7214
G01 X3.8986 Y1.5897
G01 X4.0859 Y1.4815
G01 X4.2858 Y1.3987
G01 X4.4948 Y1.3427
G01 X4.7093 Y1.3145
G01 X4.9257 Y1.3145
G01 X5.1402 Y1.3427
G01 X5.3492 Y1.3987
G01 X5.5491 Y1.4815
G01 X5.7364 Y1.5897
G01 X5.9081 Y1.7214
G01 X6.0611 Y1.8744
G01 X6.1928 Y2.0461
G01 X6.3010 Y2.2334
G01 X6.3838 Y2.4333
G01 X6.4398 Y2.6423
G01 X6.4680 Y2.8568
G01 X6.4680 Y3.0732
G01 X6.4398 Y3.2877
G01 X6.3838 Y3.4967
G01 X6.3010 Y3.6966
G01 X6.1928 Y3.8839
G01 X6.0611 Y4.0556
G01 X5.9081 Y4.2086
G01 X5.7364 Y4.3403
G01 X5.5491 Y4.4485
G01 X5.3492 Y4.5313
G01 X5.1402 Y4.5873
G01 X4.9257 Y4.6155
G01 X4.7093 Y4.6155
G01 X4.4948 Y4.5873
G01 X4.2858 Y4.5313
G01 X4.0859 Y4.4485
G01 X3.8986 Y4.3403
G01 X3.7269 Y4.2086
G01 X3.5739 Y4.0556
G01 X3.4422 Y3.8839
G01 X3.3340 Y3.6966
G01 X3.2512 Y3.4967
G01 X3.1952 Y3.2877
G01 X3.1670 Y3.0732
G00 Z2.0000
G00 X3.4675 Y7.0150
G01 F60.00
G01 Z-0.0500
G01 F100.00
G01 X5.1724 Y7.0151
G01 X5.1871 Y7.0160
G01 X5.1968 Y7.0172
G01 X5.2161 Y7.0210
G01 X5.2349 Y7.0267
G01 X5.2530 Y7.0342
G01 X5.2703 Y7.0435
G01 X5.2866 Y7.0544
G01 X5.3018 Y7.0668
G01 X5.3157 Y7.0807
G01 X5.3281 Y7.0959
G01 X5.3365 Y7.1080
G01 X5.3461 Y7.1251
G01 X5.3523 Y7.1385
G01 X5.3589 Y7.1569
G01 X5.3637 Y7.1760
G01 X5.3660 Y7.1905
G01 X5.3674 Y7.2101
G01 X5.3675 Y8.9150
G01 X5.3665 Y8.9346
G01 X5.3637 Y8.9540
G01 X5.3589 Y8.9731
G01 X5.3541 Y8.9870
G01 X5.3503 Y8.9960
G01 X5.3415 Y9.0136
G01 X5.3310 Y9.0302
G01 X5.3189 Y9.0456
G01 X5.3123 Y9.0529
G01 X5.3018 Y9.0632
G01 X5.2866 Y9.0756
G01 X5.2703 Y9.0865
G01 X5.2574 Y9.0936
G01 X5.2395 Y9.1016
G01 X5.2256 Y9.1064
G01 X5.2065 Y9.1112
G01 X5.1920 Y9.1135
G01 X5.1724 Y9.1149
G01 X3.4675 Y9.1150
G01 X3.4479 Y9.1140
G01 X3.4285 Y9.1112
G01 X3.4142 Y9.1078
G01 X3.4048 Y9.1049
G01 X3.3865 Y9.0978
G01 X3.3689 Y9.0890
G01 X3.3523 Y9.0785
G01 X3.3369 Y9.0664
G01 X3.3296 Y9.0598
G01 X3.3193 Y9.0493
G01 X3.3069 Y9.0341
G01 X3.2960 Y9.0178
G01 X3.2889 Y9.0049
G01 X3.2809 Y8.9870
G01 X3.2747 Y8.9683
G01 X3.2713 Y8.9540
G01 X3.2685 Y8.9346
G01 X3.2676 Y8.9199
G01 X3.2675 Y7.2150
G01 X3.2680 Y7.2003
G01 X3.2704 Y7.1808
G01 X3.2747 Y7.1617
G01 X3.2792 Y7.1476
G01 X3.2867 Y7.1295
G01 X3.2960 Y7.1122
G01 X3.3069 Y7.0959
G01 X3.3193 Y7.0807
G01 X3.3296 Y7.0702
G01 X3.3445 Y7.0573
G01 X3.3605 Y7.0460
G01 X3.3776 Y7.0364
G01 X3.3910 Y7.0302
G01 X3.4094 Y7.0236
G01 X3.4285 Y7.0188
G01 X3.4479 Y7.0160
G01 X3.4675 Y7.0150
G00 Z2.0000
G00 X3.8164 Y14.1802
G01 F60.00
G01 Z-0.0500
G01 F100.00
G01 X3.8675 Y14.1291
G01 X3.8675 Y14.2040
G01 X3.8164 Y14.1802
G00 Z2.0000
G00 X4.7675 Y14.0926
G01 F60.00
G01 Z-0.0500
G01 F100.00
G01 X4.8037 Y14.0754
G01 X4.8168 Y14.0687
G01 X4.8926 Y14.0233
G01 X4.9049 Y14.0153
G01 X4.9836 Y13.9567
G01 X5.0600 Y13.8875
G01 X5.1292 Y13.8111
G01 X5.1878 Y13.7324
G01 X5.1958 Y13.7201
G01 X5.2412 Y13.6443
G01 X5.2479 Y13.6312
G01 X5.2651 Y13.5950
G01 X5.3765 Y13.5950
G01 X5.3172 Y13.7222
G01 X5.2018 Y13.8870
G01 X5.0595 Y14.0293
G01 X4.8947 Y14.1447
G01 X4.7675 Y14.2040
G01 X4.7675 Y14.0926
G00 Z2.0000
G00 X3.1670 Y18.0732
G01 F60.00
G01 Z-0.0500
G01 F100.00
G01 X3.1670 Y17.8568
G01 X3.1952 Y17.6423
G01 X3.2512 Y17.4333
G01 X3.3340 Y17.2334
G01 X3.3496 Y17.2066
G01 X3.4422 Y17.0461
G01 X3.5739 Y16.8744
G01 X3.7269 Y16.7214
G01 X3.8986 Y16.5897
G01 X4.0859 Y16.4815
G01 X4.2858 Y16.3987
G01 X4.4948 Y16.3427
G01 X4.7093 Y16.3145
G01 X4.9257 Y16.3145
G01 X5.1402 Y16.3427
G01 X5.3492 Y16.3987
G01 X5.5491 Y16.4815
G01 X5.7364 Y16.5897
G01 X5.9081 Y16.7214
G01 X6.0611 Y16.8744
G01 X6.1928 Y17.0461
G01 X6.3010 Y17.2334
G01 X6.3838 Y17.4333
G01 X6.4398 Y17.6423
G01 X6.4680 Y17.8568
G01 X6.4680 Y18.0732
G01 X6.4398 Y18.2877
G01 X6.3838 Y18.4967
G01 X6.3010 Y18.6966
G01 X6.1928 Y18.8839
G01 X6.0611 Y19.0556
G01 X5.9081 Y19.2086
G01 X5.7364 Y19.3403
G01 X5.5491 Y19.4485
G01 X5.3492 Y19.5313
G01 X5.1402 Y19.5873
G01 X4.9257 Y19.6155
G01 X4.7093 Y19.6155
G01 X4.4948 Y19.5873
G01 X4.2858 Y19.5313
G01 X4.0859 Y19.4485
G01 X3.9154 Y19.3500
G01 X3.8986 Y19.3403
G01 X3.7269 Y19.2086
G01 X3.5739 Y19.0556
G01 X3.4422 Y18.8839
G01 X3.3340 Y18.6966
G01 X3.2512 Y18.4967
G01 X3.1952 Y18.2877
G01 X3.1670 Y18.0732
G00 Z2.0000
G00 X3.1670 Y23.0732
G01 F60.00
G01 Z-0.0500
G01 F100.00
G01 X3.1670 Y22.8568
G01 X3.1950 Y22.6438
G01 X3.2512 Y22.4333
G01 X3.3340 Y22.2334
G01 X3.4422 Y22.0461
G01 X3.5739 Y21.8744
G01 X3.7269 Y21.7214
G01 X3.8986 Y21.5897
G01 X4.0859 Y21.4815
G01 X4.2858 Y21.3987
G01 X4.4948 Y21.3427
G01 X4.7093 Y21.3145
G01 X4.9257 Y21.3145
G01 X5.1402 Y21.3427
G01 X5.3492 Y21.3987
G01 X5.5491 Y21.4815
G01 X5.7364 Y21.5897
G01 X5.9081 Y21.7214
G01 X6.0611 Y21.8744
G01 X6.1928 Y22.0461
G01 X6.3010 Y22.2334
G01 X6.3838 Y22.4333
G01 X6.4398 Y22.6423
G01 X6.4680 Y22.8568
G01 X6.4680 Y23.0732
G01 X6.4398 Y23.2877
G01 X6.3838 Y23.4967
G01 X6.3010 Y23.6966
G01 X6.1928 Y23.8839
G01 X6.0611 Y24.0556
G01 X5.9081 Y24.2086
G01 X5.7364 Y24.3403
G01 X5.5491 Y24.4485
G01 X5.3492 Y24.5313
G01 X5.1402 Y24.5873
G01 X4.9257 Y24.6155
G01 X4.7093 Y24.6155
G01 X4.4948 Y24.5873
G01 X4.2858 Y24.5313
G01 X4.0859 Y24.4485
G01 X3.8986 Y24.3403
G01 X3.7269 Y24.2086
G01 X3.5739 Y24.0556
G01 X3.4422 Y23.8839
G01 X3.3340 Y23.6966
G01 X3.2512 Y23.4967
G01 X3.1952 Y23.2877
G01 X3.1670 Y23.0732
G00 Z2.0000
G00 X3.4675 Y27.0150
G01 F60.00
G01 Z-0.0500
G01 F100.00
G01 X5.1724 Y27.0151
G01 X5.1920 Y27.0165
G01 X5.2113 Y27.0199
G01 X5.2302 Y27.0251
G01 X5.2485 Y27.0322
G01 X5.2574 Y27.0364
G01 X5.2703 Y27.0435
G01 X5.2866 Y27.0544
G01 X5.3018 Y27.0668
G01 X5.3157 Y27.0807
G01 X5.3281 Y27.0959
G01 X5.3365 Y27.1080
G01 X5.3461 Y27.1251
G01 X5.3541 Y27.1430
G01 X5.3603 Y27.1617
G01 X5.3637 Y27.1760
G01 X5.3665 Y27.1954
G01 X5.3674 Y27.2101
G01 X5.3675 Y28.9150
G01 X5.3665 Y28.9346
G01 X5.3637 Y28.9540
G01 X5.3603 Y28.9683
G01 X5.3574 Y28.9777
G01 X5.3503 Y28.9960
G01 X5.3415 Y29.0136
G01 X5.3310 Y29.0302
G01 X5.3252 Y29.0380
G01 X5.3157 Y29.0493
G01 X5.3018 Y29.0632
G01 X5.2905 Y29.0727
G01 X5.2745 Y29.0840
G01 X5.2618 Y29.0914
G01 X5.2440 Y29.0998
G01 X5.2302 Y29.1049
G01 X5.2113 Y29.1101
G01 X5.1920 Y29.1135
G01 X5.1724 Y29.1149
G01 X3.4675 Y29.1150
G01 X3.4479 Y29.1140
G01 X3.4285 Y29.1112
G01 X3.4189 Y29.1090
G01 X3.4048 Y29.1049
G01 X3.3865 Y29.0978
G01 X3.3689 Y29.0890
G01 X3.3605 Y29.0840
G01 X3.3484 Y29.0756
G01 X3.3332 Y29.0632
G01 X3.3193 Y29.0493
G01 X3.3098 Y29.0380
G01 X3.2985 Y29.0220
G01 X3.2911 Y29.0093
G01 X3.2827 Y28.9915
G01 X3.2761 Y28.9731
G01 X3.2713 Y28.9540
G01 X3.2685 Y28.9346
G01 X3.2676 Y28.9199
G01 X3.2675 Y27.2150
G01 X3.2680 Y27.2003
G01 X3.2704 Y27.1808
G01 X3.2747 Y27.1617
G01 X3.2809 Y27.1430
G01 X3.2867 Y27.1295
G01 X3.2960 Y27.1122
G01 X3.3069 Y27.0959
G01 X3.3193 Y27.0807
G01 X3.3332 Y27.0668
G01 X3.3484 Y27.0544
G01 X3.3605 Y27.0460
G01 X3.3776 Y27.0364
G01 X3.3955 Y27.0284
G01 X3.4142 Y27.0222
G01 X3.4333 Y27.0179
G01 X3.4479 Y27.0160
G01 X3.4675 Y27.0150
G00 Z2.0000
G00 X4.3273 Y29.5552
G01 F60.00
G01 Z-0.0500
G01 F100.00
G01 X4.4204 Y29.5601
G01 X4.5127 Y29.5735
G01 X4.5319 Y29.5773
G01 X4.6223 Y29.6002
G01 X4.7102 Y29.6314
G01 X4.7283 Y29.6389
G01 X4.8125 Y29.6790
G01 X4.8967 Y29.7293
G01 X4.9089 Y29.7376
G01 X4.9759 Y29.7873
G01 X4.9910 Y29.7998
G01 X5.0600 Y29.8625
G01 X5.1260 Y29.9351
G01 X5.1352 Y29.9466
G01 X5.1849 Y30.0136
G01 X5.1932 Y30.0258
G01 X5.2412 Y30.1057
G01 X5.2479 Y30.1188
G01 X5.2674 Y30.1599
G01 X7.4440 Y30.1599
G01 X7.4722 Y30.1393
G01 X7.5143 Y30.1140
G01 X7.5587 Y30.0931
G01 X7.6002 Y30.0780
G01 X7.6096 Y30.0752
G01 X7.6429 Y30.0668
G01 X7.6621 Y30.0629
G01 X7.7010 Y30.0574
G01 X7.7500 Y30.0550
G01 X7.7990 Y30.0574
G01 X7.8379 Y30.0629
G01 X7.8571 Y30.0668
G01 X7.8951 Y30.0765
G01 X7.9322 Y30.0895
G01 X7.9503 Y30.0970
G01 X7.9857 Y30.1140
G01 X8.0237 Y30.1366
G01 X8.0358 Y30.1449
G01 X8.0672 Y30.1685
G01 X8.1036 Y30.2014
G01 X8.1365 Y30.2378
G01 X8.1601 Y30.2692
G01 X8.1684 Y30.2813
G01 X8.1861 Y30.3108
G01 X8.1932 Y30.3237
G01 X8.2100 Y30.3591
G01 X8.2155 Y30.3728
G01 X8.2270 Y30.4052
G01 X8.2311 Y30.4193
G01 X8.2404 Y30.4575
G01 X8.2454 Y30.4896
G01 X12.3724 Y34.6165
G01 X12.3826 Y34.6186
G01 X12.4065 Y34.6244
G01 X12.4252 Y34.6301
G01 X12.4529 Y34.6403
G01 X12.4884 Y34.6570
G01 X12.5221 Y34.6772
G01 X12.5459 Y34.6945
G01 X12.5611 Y34.7070
G01 X12.5792 Y34.7235
G01 X12.5862 Y34.7304
G01 X12.6091 Y34.7560
G01 X12.6325 Y34.7875
G01 X12.6527 Y34.8212
G01 X12.6656 Y34.8477
G01 X12.6731 Y34.8658
G01 X12.6813 Y34.8890
G01 X12.6854 Y34.9031
G01 X12.6913 Y34.9269
G01 X12.6933 Y34.9365
G01 X12.6969 Y34.9608
G01 X12.6986 Y34.9754
G01 X12.7001 Y35.0098
G01 X12.7624 Y141.5566
G01 X14.1165 Y142.9107
G01 X23.8995 Y142.9107
G01 X23.9182 Y142.8969
G01 X23.9263 Y142.8915
G01 X23.9558 Y142.8737
G01 X23.9687 Y142.8666
G01 X24.0087 Y142.8479
G01 X24.0455 Y142.8345
G01 X24.0596 Y142.8300
G01 X24.1025 Y142.8195
G01 X24.1510 Y142.8123
G01 X24.2000 Y142.8099
G01 X24.2490 Y142.8123
G01 X24.2975 Y142.8195
G01 X24.3451 Y142.8314
G01 X24.3913 Y142.8479
G01 X24.4269 Y142.8645
G01 X24.4400 Y142.8713
G01 X24.4737 Y142.8915
G01 X24.4818 Y142.8969
G01 X24.5095 Y142.9173
G01 X24.5210 Y142.9265
G01 X24.5464 Y142.9495
G01 X24.5603 Y142.9634
G01 X24.5865 Y142.9927
G01 X24.6157 Y143.0321
G01 X24.6410 Y143.0742
G01 X24.6619 Y143.1185
G01 X24.6785 Y143.1647
G01 X24.6904 Y143.2123
G01 X24.6976 Y143.2609
G01 X24.6998 Y143.3000
G01 X24.6999 Y143.3148
G01 X24.6983 Y143.3491
G01 X24.6964 Y143.3686
G01 X24.6913 Y143.4026
G01 X24.6894 Y143.4122
G01 X24.6798 Y143.4503
G01 X24.6754 Y143.4643
G01 X24.6619 Y143.5012
G01 X24.6410 Y143.5456
G01 X24.6157 Y143.5876
G01 X24.5865 Y143.6271
G01 X24.5536 Y143.6634
G01 X24.5172 Y143.6964
G01 X24.4778 Y143.7256
G01 X24.4442 Y143.7460
G01 X24.4269 Y143.7552
G01 X24.3959 Y143.7699
G01 X24.3822 Y143.7753
G01 X24.3498 Y143.7868
G01 X24.3404 Y143.7897
G01 X24.3071 Y143.7981
G01 X24.2927 Y143.8012
G01 X24.2490 Y143.8075
G01 X24.2000 Y143.8099
G01 X24.1510 Y143.8075
G01 X24.1121 Y143.8019
G01 X24.0977 Y143.7992
G01 X24.0549 Y143.7883
G01 X24.0178 Y143.7753
G01 X24.0041 Y143.7699
G01 X23.9731 Y143.7552
G01 X23.9600 Y143.7485
G01 X23.9263 Y143.7283
G01 X23.9182 Y143.7228
G01 X23.9020 Y143.7109
G01 X13.9508 Y143.7109
G01 X13.9116 Y143.7090
G01 X13.8776 Y143.7041
G01 X13.8679 Y143.7022
G01 X13.8441 Y143.6963
G01 X13.8253 Y143.6906
G01 X13.7977 Y143.6804
G01 X13.7622 Y143.6636
G01 X13.7285 Y143.6435
G01 X13.7047 Y143.6261
G01 X13.6932 Y143.6169
G01 X13.6679 Y143.5937
G01 X12.0761 Y142.0018
G01 X12.0531 Y141.9763
G01 X12.0326 Y141.9489
G01 X12.0271 Y141.9406
G01 X12.0145 Y141.9197
G01 X12.0073 Y141.9067
G01 X11.9928 Y141.8756
G01 X11.9811 Y141.8434
G01 X11.9782 Y141.8339
G01 X11.9722 Y141.8103
G01 X11.9691 Y141.7957
G01 X11.9642 Y141.7617
G01 X11.9623 Y141.7226
G01 X11.9001 Y35.2669
G01 X11.8747 Y35.2478
G01 X11.8456 Y35.2214
G01 X7.6728 Y31.0487
G01 X7.6573 Y31.0463
G01 X7.6477 Y31.0444
G01 X7.6096 Y31.0348
G01 X7.5955 Y31.0304
G01 X7.5587 Y31.0169
G01 X7.5231 Y31.0004
G01 X7.5100 Y30.9936
G01 X7.4763 Y30.9734
G01 X7.4682 Y30.9680
G01 X7.4575 Y30.9601
G01 X5.3045 Y30.9601
G01 X5.2911 Y30.9977
G01 X5.2856 Y31.0113
G01 X5.2458 Y31.0956
G01 X5.2387 Y31.1085
G01 X5.1932 Y31.1842
G01 X5.1849 Y31.1964
G01 X5.1292 Y31.2711
G01 X5.0667 Y31.3404
G01 X5.0564 Y31.3509
G01 X4.9910 Y31.4102
G01 X4.9759 Y31.4227
G01 X4.9008 Y31.4780
G01 X4.8210 Y31.5262
G01 X4.8037 Y31.5354
G01 X4.7193 Y31.5751
G01 X4.6316 Y31.6067
G01 X4.6176 Y31.6112
G01 X4.5319 Y31.6327
G01 X4.5127 Y31.6365
G01 X4.4204 Y31.6499
G01 X4.3273 Y31.6548
G01 X4.3077 Y31.6548
G01 X4.2146 Y31.6499
G01 X4.1127 Y31.6348
G01 X4.0127 Y31.6098
G01 X3.9248 Y31.5786
G01 X3.9067 Y31.5711
G01 X3.8225 Y31.5310
G01 X3.7424 Y31.4833
G01 X3.7261 Y31.4724
G01 X3.6591 Y31.4227
G01 X3.6440 Y31.4102
G01 X3.5821 Y31.3542
G01 X3.5683 Y31.3404
G01 X3.5058 Y31.2711
G01 X3.4445 Y31.1883
G01 X3.3915 Y31.1000
G01 X3.3514 Y31.0158
G01 X3.3439 Y30.9977
G01 X3.3127 Y30.9098
G01 X3.2877 Y30.8098
G01 X3.2738 Y30.7177
G01 X3.2718 Y30.6981
G01 X3.2675 Y30.6050
G01 X3.2726 Y30.5021
G01 X3.2860 Y30.4098
G01 X3.2898 Y30.3906
G01 X3.3101 Y30.3097
G01 X3.3158 Y30.2909
G01 X3.3474 Y30.2032
G01 X3.3871 Y30.1188
G01 X3.3963 Y30.1015
G01 X3.4392 Y30.0299
G01 X3.4501 Y30.0136
G01 X3.5058 Y29.9389
G01 X3.5750 Y29.8625
G01 X3.6514 Y29.7933
G01 X3.7261 Y29.7376
G01 X3.7424 Y29.7267
G01 X3.8140 Y29.6838
G01 X3.8313 Y29.6746
G01 X3.9157 Y29.6349
G01 X4.0127 Y29.6002
G01 X4.1127 Y29.5752
G01 X4.2048 Y29.5613
G01 X4.2244 Y29.5593
G01 X4.3077 Y29.5552
G01 X4.3273 Y29.5552
G00 Z2.0000
G00 X3.2655 Y33.6101
G01 F60.00
G01 Z-0.0500
G01 F100.00
G01 X3.3771 Y33.6101
G01 X3.3892 Y33.6356
G01 X3.3938 Y33.6443
G01 X3.4392 Y33.7201
G01 X3.4472 Y33.7324
G01 X3.5058 Y33.8111
G01 X3.5750 Y33.8875
G01 X3.6514 Y33.9567
G01 X3.7301 Y34.0153
G01 X3.7424 Y34.0233
G01 X3.8182 Y34.0687
G01 X3.8313 Y34.0754
G01 X3.8675 Y34.0926
G01 X3.8675 Y34.2040
G01 X3.7403 Y34.1447
G01 X3.5755 Y34.0293
G01 X3.4332 Y33.8870
G01 X3.3178 Y33.7222
G01 X3.2655 Y33.6101
G00 Z2.0000
G00 X4.7675 Y34.0926
G01 F60.00
G01 Z-0.0500
G01 F100.00
G01 X4.8037 Y34.0754
G01 X4.8168 Y34.0687
G01 X4.8926 Y34.0233
G01 X4.9049 Y34.0153
G01 X4.9836 Y33.9567
G01 X5.0600 Y33.8875
G01 X5.1292 Y33.8111
G01 X5.1878 Y33.7324
G01 X5.1958 Y33.7201
G01 X5.2412 Y33.6443
G01 X5.2479 Y33.6312
G01 X5.2651 Y33.5950
G01 X5.3765 Y33.5950
G01 X5.3172 Y33.7222
G01 X5.2018 Y33.8870
G01 X5.0595 Y34.0293
G01 X4.8947 Y34.1447
G01 X4.7675 Y34.2040
G01 X4.7675 Y34.0926
G00 Z2.0000
G00 X3.1670 Y38.0732
G01 F60.00
G01 Z-0.0500
G01 F100.00
G01 X3.1670 Y37.8568
G01 X3.1952 Y37.6423
G01 X3.2512 Y37.4333
G01 X3.3340 Y37.2334
G01 X3.3496 Y37.2066
G01 X3.4422 Y37.0461
G01 X3.5739 Y36.8744
G01 X3.7269 Y36.7214
G01 X3.8986 Y36.5897
G01 X4.0859 Y36.4815
G01 X4.2858 Y36.3987
G01 X4.4948 Y36.3427
G01 X4.7093 Y36.3145
G01 X4.9257 Y36.3145
G01 X5.1402 Y36.3427
G01 X5.3492 Y36.3987
G01 X5.5491 Y36.4815
G01 X5.7364 Y36.5897
G01 X5.9081 Y36.7214
G01 X6.0611 Y36.8744
G01 X6.1928 Y37.0461
G01 X6.3010 Y37.2334
G01 X6.3838 Y37.4333
G01 X6.4398 Y37.6423
G01 X6.4680 Y37.8568
G01 X6.4680 Y38.0732
G01 X6.4398 Y38.2877
G01 X6.3838 Y38.4967
G01 X6.3010 Y38.6966
G01 X6.1928 Y38.8839
G01 X6.0611 Y39.0556
G01 X5.9081 Y39.2086
G01 X5.7364 Y39.3403
G01 X5.5491 Y39.4485
G01 X5.3492 Y39.5313
G01 X5.1402 Y39.5873
G01 X4.9257 Y39.6155
G01 X4.7093 Y39.6155
G01 X4.4948 Y39.5873
G01 X4.2858 Y39.5313
G01 X4.0859 Y39.4485
G01 X3.9154 Y39.3500
G01 X3.8986 Y39.3403
G01 X3.7269 Y39.2086
G01 X3.5739 Y39.0556
G01 X3.4422 Y38.8839
G01 X3.3340 Y38.6966
G01 X3.2512 Y38.4967
G01 X3.1952 Y38.2877
G01 X3.1670 Y38.0732
G00 Z2.0000
G00 X3.1670 Y43.0732
G01 F60.00
G01 Z-0.0500
G01 F100.00
G01 X3.1670 Y42.8568
G01 X3.1950 Y42.6438
G01 X3.2512 Y42.4333
G01 X3.3340 Y42.2334
G01 X3.4422 Y42.0461
G01 X3.5739 Y41.8744
G01 X3.7269 Y41.7214
G01 X3.8986 Y41.5897
G01 X4.0859 Y41.4815
G01 X4.2858 Y41.3987
G01 X4.4948 Y41.3427
G01 X4.7093 Y41.3145
G01 X4.9257 Y41.3145
G01 X5.1402 Y41.3427
G01 X5.3492 Y41.3987
G01 X5.5491 Y41.4815
G01 X5.7364 Y41.5897
G01 X5.9081 Y41.7214
G01 X6.0611 Y41.8744
G01 X6.1928 Y42.0461
G01 X6.3010 Y42.2334
G01 X6.3838 Y42.4333
G01 X6.4398 Y42.6423
G01 X6.4680 Y42.8568
G01 X6.4680 Y43.0732
G01 X6.4398 Y43.2877
G01 X6.3838 Y43.4967
G01 X6.3010 Y43.6966
G01 X6.1928 Y43.8839
G01 X6.0611 Y44.0556
G01 X5.9081 Y44.2086
G01 X5.7364 Y44.3403
G01 X5.5491 Y44.4485
G01 X5.3492 Y44.5313
G01 X5.1402 Y44.5873
G01 X4.9257 Y44.6155
G01 X4.7093 Y44.6155
G01 X4.4948 Y44.5873
G01 X4.2858 Y44.5313
G01 X4.0859 Y44.4485
G01 X3.8986 Y44.3403
G01 X3.7269 Y44.2086
G01 X3.5739 Y44.0556
G01 X3.4422 Y43.8839
G01 X3.3340 Y43.6966
G01 X3.2512 Y43.4967
G01 X3.1952 Y43.2877
G01 X3.1670 Y43.0732
G00 Z2.0000
G00 X3.4675 Y47.0150
G01 F60.00
G01 Z-0.0500
G01 F100.00
G01 X5.1724 Y47.0151
G01 X5.1920 Y47.0165
G01 X5.2113 Y47.0199
G01 X5.2302 Y47.0251
G01 X5.2485 Y47.0322
G01 X5.2574 Y47.0364
G01 X5.2703 Y47.0435
G01 X5.2866 Y47.0544
G01 X5.3018 Y47.0668
G01 X5.3157 Y47.0807
G01 X5.3281 Y47.0959
G01 X5.3390 Y47.1122
G01 X5.3461 Y47.1251
G01 X5.3541 Y47.1430
G01 X5.3603 Y47.1617
G01 X5.3637 Y47.1760
G01 X5.3660 Y47.1905
G01 X5.3674 Y47.2101
G01 X5.3675 Y48.9150
G01 X5.3665 Y48.9346
G01 X5.3637 Y48.9540
G01 X5.3615 Y48.9636
G01 X5.3574 Y48.9777
G01 X5.3503 Y48.9960
G01 X5.3415 Y49.0136
G01 X5.3310 Y49.0302
G01 X5.3252 Y49.0380
G01 X5.3157 Y49.0493
G01 X5.3018 Y49.0632
G01 X5.2905 Y49.0727
G01 X5.2745 Y49.0840
G01 X5.2574 Y49.0936
G01 X5.2440 Y49.0998
G01 X5.2256 Y49.1064
G01 X5.2065 Y49.1112
G01 X5.1871 Y49.1140
G01 X5.1724 Y49.1149
G01 X3.4675 Y49.1150
G01 X3.4479 Y49.1140
G01 X3.4285 Y49.1112
G01 X3.4142 Y49.1078
G01 X3.4048 Y49.1049
G01 X3.3865 Y49.0978
G01 X3.3776 Y49.0936
G01 X3.3647 Y49.0865
G01 X3.3484 Y49.0756
G01 X3.3332 Y49.0632
G01 X3.3193 Y49.0493
G01 X3.3069 Y49.0341
G01 X3.2960 Y49.0178
G01 X3.2889 Y49.0049
G01 X3.2809 Y48.9870
G01 X3.2747 Y48.9683
G01 X3.2713 Y48.9540
G01 X3.2690 Y48.9395
G01 X3.2676 Y48.9199
G01 X3.2675 Y47.2150
G01 X3.2680 Y47.2003
G01 X3.2704 Y47.1808
G01 X3.2747 Y47.1617
G01 X3.2792 Y47.1476
G01 X3.2867 Y47.1295
G01 X3.2935 Y47.1164
G01 X3.3040 Y47.0998
G01 X3.3161 Y47.0844
G01 X3.3296 Y47.0702
G01 X3.3445 Y47.0573
G01 X3.3605 Y47.0460
G01 X3.3776 Y47.0364
G01 X3.3955 Y47.0284
G01 X3.4142 Y47.0222
G01 X3.4285 Y47.0188
G01 X3.4479 Y47.0160
G01 X3.4675 Y47.0150
G00 Z2.0000
G00 X4.3273 Y49.5552
G01 F60.00
G01 Z-0.0500
G01 F100.00
G01 X4.4204 Y49.5601
G01 X4.5127 Y49.5735
G01 X4.5319 Y49.5773
G01 X4.6223 Y49.6002
G01 X4.7102 Y49.6314
G01 X4.7283 Y49.6389
G01 X4.8125 Y49.6790
G01 X4.8967 Y49.7293
G01 X4.9089 Y49.7376
G01 X4.9759 Y49.7873
G01 X4.9910 Y49.7998
G01 X5.0600 Y49.8625
G01 X5.1260 Y49.9351
G01 X5.1352 Y49.9466
G01 X5.1849 Y50.0136
G01 X5.1932 Y50.0258
G01 X5.2412 Y50.1057
G01 X5.2479 Y50.1188
G01 X5.2674 Y50.1599
G01 X7.3940 Y50.1599
G01 X7.4222 Y50.1393
G01 X7.4643 Y50.1140
G01 X7.5087 Y50.0931
G01 X7.5502 Y50.0780
G01 X7.5596 Y50.0752
G01 X7.5929 Y50.0668
G01 X7.6121 Y50.0629
G01 X7.6510 Y50.0574
G01 X7.7000 Y50.0550
G01 X7.7490 Y50.0574
G01 X7.7879 Y50.0629
G01 X7.8071 Y50.0668
G01 X7.8451 Y50.0765
G01 X7.8822 Y50.0895
G01 X7.9003 Y50.0970
G01 X7.9357 Y50.1140
G01 X7.9695 Y50.1340
G01 X7.9858 Y50.1449
G01 X8.0172 Y50.1685
G01 X8.0536 Y50.2014
G01 X8.0865 Y50.2378
G01 X8.1101 Y50.2692
G01 X8.1184 Y50.2813
G01 X8.1361 Y50.3108
G01 X8.1432 Y50.3237
G01 X8.1600 Y50.3591
G01 X8.1655 Y50.3728
G01 X8.1770 Y50.4052
G01 X8.1811 Y50.4193
G01 X8.1904 Y50.4575
G01 X8.1954 Y50.4896
G01 X11.4723 Y53.7665
G01 X11.4829 Y53.7685
G01 X11.5067 Y53.7745
G01 X11.5255 Y53.7801
G01 X11.5531 Y53.7903
G01 X11.5886 Y53.8071
G01 X11.6223 Y53.8273
G01 X11.6461 Y53.8446
G01 X11.6613 Y53.8571
G01 X11.6794 Y53.8736
G01 X11.6863 Y53.8805
G01 X11.7093 Y53.9061
G01 X11.7327 Y53.9377
G01 X11.7529 Y53.9713
G01 X11.7657 Y53.9979
G01 X11.7715 Y54.0114
G01 X11.7798 Y54.0345
G01 X11.7855 Y54.0533
G01 X11.7914 Y54.0771
G01 X11.7933 Y54.0867
G01 X11.7970 Y54.1110
G01 X11.7986 Y54.1256
G01 X11.8001 Y54.1599
G01 X11.8001 Y141.9943
G01 X13.9157 Y144.1099
G01 X38.1507 Y144.1099
G01 X38.1682 Y144.0970
G01 X38.1763 Y144.0916
G01 X38.2058 Y144.0739
G01 X38.2187 Y144.0668
G01 X38.2587 Y144.0481
G01 X38.3002 Y144.0330
G01 X38.3096 Y144.0302
G01 X38.3429 Y144.0218
G01 X38.3621 Y144.0179
G01 X38.3961 Y144.0129
G01 X38.4059 Y144.0120
G01 X38.4402 Y144.0102
G01 X38.4549 Y144.0101
G01 X38.4990 Y144.0124
G01 X38.5475 Y144.0196
G01 X38.5951 Y144.0315
G01 X38.6322 Y144.0445
G01 X38.6503 Y144.0520
G01 X38.6813 Y144.0668
G01 X38.6942 Y144.0739
G01 X38.7278 Y144.0943
G01 X38.7672 Y144.1235
G01 X38.8036 Y144.1564
G01 X38.8365 Y144.1928
G01 X38.8657 Y144.2322
G01 X38.8861 Y144.2658
G01 X38.8932 Y144.2787
G01 X38.9080 Y144.3097
G01 X38.9155 Y144.3278
G01 X38.9270 Y144.3602
G01 X38.9298 Y144.3696
G01 X38.9382 Y144.4029
G01 X38.9413 Y144.4173
G01 X38.9476 Y144.4610
G01 X38.9500 Y144.5100
G01 X38.9476 Y144.5590
G01 X38.9421 Y144.5979
G01 X38.9394 Y144.6123
G01 X38.9311 Y144.6457
G01 X38.9254 Y144.6645
G01 X38.9138 Y144.6968
G01 X38.9100 Y144.7059
G01 X38.8954 Y144.7369
G01 X38.8886 Y144.7500
G01 X38.8657 Y144.7878
G01 X38.8365 Y144.8272
G01 X38.8036 Y144.8636
G01 X38.7710 Y144.8933
G01 X38.7595 Y144.9025
G01 X38.7318 Y144.9230
G01 X38.7237 Y144.9284
G01 X38.6942 Y144.9461
G01 X38.6813 Y144.9532
G01 X38.6503 Y144.9680
G01 X38.6322 Y144.9755
G01 X38.5951 Y144.9885
G01 X38.5571 Y144.9982
G01 X38.5427 Y145.0013
G01 X38.5039 Y145.0071
G01 X38.4892 Y145.0083
G01 X38.4500 Y145.0100
G01 X38.4108 Y145.0083
G01 X38.3961 Y145.0071
G01 X38.3573 Y145.0013
G01 X38.3429 Y144.9982
G01 X38.3049 Y144.9885
G01 X38.2632 Y144.9738
G01 X38.2541 Y144.9700
G01 X38.2231 Y144.9554
G01 X38.2100 Y144.9486
G01 X38.1763 Y144.9284
G01 X38.1682 Y144.9230
G01 X38.1507 Y144.9101
G01 X13.7500 Y144.9101
G01 X13.7108 Y144.9082
G01 X13.6719 Y144.9024
G01 X13.6386 Y144.8942
G01 X13.6292 Y144.8914
G01 X13.6060 Y144.8832
G01 X13.5879 Y144.8757
G01 X13.5614 Y144.8629
G01 X13.5277 Y144.8427
G01 X13.4962 Y144.8193
G01 X13.4706 Y144.7963
G01 X11.1171 Y142.4429
G01 X11.0907 Y142.4138
G01 X11.0730 Y142.3903
G01 X11.0647 Y142.3782
G01 X11.0520 Y142.3571
G01 X11.0449 Y142.3442
G01 X11.0323 Y142.3176
G01 X11.0268 Y142.3040
G01 X11.0171 Y142.2761
G01 X11.0076 Y142.2381
G01 X11.0018 Y142.1992
G01 X10.9999 Y142.1600
G01 X10.9999 Y54.4257
G01 X7.6228 Y51.0487
G01 X7.6073 Y51.0463
G01 X7.5977 Y51.0444
G01 X7.5596 Y51.0348
G01 X7.5455 Y51.0304
G01 X7.5087 Y51.0169
G01 X7.4731 Y51.0004
G01 X7.4600 Y50.9936
G01 X7.4263 Y50.9734
G01 X7.4182 Y50.9680
G01 X7.4075 Y50.9601
G01 X5.3045 Y50.9601
G01 X5.2911 Y50.9977
G01 X5.2856 Y51.0113
G01 X5.2458 Y51.0956
G01 X5.2387 Y51.1085
G01 X5.1932 Y51.1842
G01 X5.1849 Y51.1964
G01 X5.1292 Y51.2711
G01 X5.0667 Y51.3404
G01 X5.0564 Y51.3509
G01 X4.9910 Y51.4102
G01 X4.9759 Y51.4227
G01 X4.9008 Y51.4780
G01 X4.8210 Y51.5262
G01 X4.8037 Y51.5354
G01 X4.7193 Y51.5751
G01 X4.6270 Y51.6083
G01 X4.6128 Y51.6124
G01 X4.5223 Y51.6348
G01 X4.4302 Y51.6487
G01 X4.4106 Y51.6507
G01 X4.3273 Y51.6548
G01 X4.3077 Y51.6548
G01 X4.2146 Y51.6499
G01 X4.1223 Y51.6365
G01 X4.1031 Y51.6327
G01 X4.0127 Y51.6098
G01 X3.9157 Y51.5751
G01 X3.8225 Y51.5310
G01 X3.7424 Y51.4833
G01 X3.7261 Y51.4724
G01 X3.6514 Y51.4167
G01 X3.5750 Y51.3475
G01 X3.5058 Y51.2711
G01 X3.4501 Y51.1964
G01 X3.4392 Y51.1801
G01 X3.3963 Y51.1085
G01 X3.3871 Y51.0912
G01 X3.3474 Y51.0068
G01 X3.3158 Y50.9191
G01 X3.3101 Y50.9003
G01 X3.2898 Y50.8194
G01 X3.2860 Y50.8002
G01 X3.2726 Y50.7079
G01 X3.2675 Y50.6050
G01 X3.2718 Y50.5119
G01 X3.2738 Y50.4923
G01 X3.2877 Y50.4002
G01 X3.3127 Y50.3002
G01 X3.3474 Y50.2032
G01 X3.3871 Y50.1188
G01 X3.3963 Y50.1015
G01 X3.4392 Y50.0299
G01 X3.4501 Y50.0136
G01 X3.5058 Y49.9389
G01 X3.5750 Y49.8625
G01 X3.6514 Y49.7933
G01 X3.7261 Y49.7376
G01 X3.7424 Y49.7267
G01 X3.8140 Y49.6838
G01 X3.8313 Y49.6746
G01 X3.9157 Y49.6349
G01 X4.0127 Y49.6002
G01 X4.1127 Y49.5752
G01 X4.2048 Y49.5613
G01 X4.2244 Y49.5593
G01 X4.3077 Y49.5552
G01 X4.3273 Y49.5552
G00 Z2.0000
G00 X3.2888 Y53.6601
G01 F60.00
G01 Z-0.0500
G01 F100.00
G01 X3.4033 Y53.6601
G01 X3.4445 Y53.7283
G01 X3.4998 Y53.8034
G01 X3.5123 Y53.8185
G01 X3.5683 Y53.8804
G01 X3.5786 Y53.8909
G01 X3.6514 Y53.9567
G01 X3.7301 Y54.0153
G01 X3.7424 Y54.0233
G01 X3.8182 Y54.0687
G01 X3.8313 Y54.0754
G01 X3.8675 Y54.0926
G01 X3.8675 Y54.2040
G01 X3.7403 Y54.1447
G01 X3.5755 Y54.0293
G01 X3.4332 Y53.8870
G01 X3.3178 Y53.7222
G01 X3.2888 Y53.6601
G00 Z2.0000
G00 X4.7675 Y54.0926
G01 F60.00
G01 Z-0.0500
G01 F100.00
G01 X4.8037 Y54.0754
G01 X4.8168 Y54.0687
G01 X4.8926 Y54.0233
G01 X4.9049 Y54.0153
G01 X4.9836 Y53.9567
G01 X5.0600 Y53.8875
G01 X5.1292 Y53.8111
G01 X5.1878 Y53.7324
G01 X5.1958 Y53.7201
G01 X5.2412 Y53.6443
G01 X5.2479 Y53.6312
G01 X5.2651 Y53.5950
G01 X5.3765 Y53.5950
G01 X5.3172 Y53.7222
G01 X5.2018 Y53.8870
G01 X5.0595 Y54.0293
G01 X4.8947 Y54.1447
G01 X4.7675 Y54.2040
G01 X4.7675 Y54.0926
G00 Z2.0000
G00 X3.1670 Y58.0732
G01 F60.00
G01 Z-0.0500
G01 F100.00
G01 X3.1670 Y57.8568
G01 X3.1952 Y57.6423
G01 X3.2512 Y57.4333
G01 X3.3340 Y57.2334
G01 X3.3496 Y57.2066
G01 X3.4422 Y57.0461
G01 X3.5739 Y56.8744
G01 X3.7269 Y56.7214
G01 X3.8986 Y56.5897
G01 X4.0859 Y56.4815
G01 X4.2858 Y56.3987
G01 X4.4948 Y56.3427
G01 X4.7093 Y56.3145
G01 X4.9257 Y56.3145
G01 X5.1402 Y56.3427
G01 X5.3492 Y56.3987
G01 X5.5491 Y56.4815
G01 X5.7364 Y56.5897
G01 X5.9081 Y56.7214
G01 X6.0611 Y56.8744
G01 X6.1928 Y57.0461
G01 X6.3010 Y57.2334
G01 X6.3838 Y57.4333
G01 X6.4398 Y57.6423
G01 X6.4680 Y57.8568
G01 X6.4680 Y58.0732
G01 X6.4398 Y58.2877
G01 X6.3838 Y58.4967
G01 X6.3010 Y58.6966
G01 X6.1928 Y58.8839
G01 X6.0611 Y59.0556
G01 X5.9081 Y59.2086
G01 X5.7364 Y59.3403
G01 X5.5491 Y59.4485
G01 X5.3492 Y59.5313
G01 X5.1402 Y59.5873
G01 X4.9257 Y59.6155
G01 X4.7093 Y59.6155
G01 X4.4948 Y59.5873
G01 X4.2858 Y59.5313
G01 X4.0859 Y59.4485
G01 X3.9154 Y59.3500
G01 X3.8986 Y59.3403
G01 X3.7269 Y59.2086
G01 X3.5739 Y59.0556
G01 X3.4422 Y58.8839
G01 X3.3340 Y58.6966
G01 X3.2512 Y58.4967
G01 X3.1952 Y58.2877
G01 X3.1670 Y58.0732
G00 Z2.0000
G00 X3.1670 Y63.0732
G01 F60.00
G01 Z-0.0500
G01 F100.00
G01 X3.1670 Y62.8568
G01 X3.1950 Y62.6438
G01 X3.2512 Y62.4333
G01 X3.3340 Y62.2334
G01 X3.4422 Y62.0461
G01 X3.5739 Y61.8744
G01 X3.7269 Y61.7214
G01 X3.8986 Y61.5897
G01 X4.0859 Y61.4815
G01 X4.2858 Y61.3987
G01 X4.4948 Y61.3427
G01 X4.7093 Y61.3145
G01 X4.9257 Y61.3145
G01 X5.1402 Y61.3427
G01 X5.3492 Y61.3987
G01 X5.5491 Y61.4815
G01 X5.7364 Y61.5897
G01 X5.9081 Y61.7214
G01 X6.0611 Y61.8744
G01 X6.1928 Y62.0461
G01 X6.3010 Y62.2334
G01 X6.3838 Y62.4333
G01 X6.4398 Y62.6423
G01 X6.4680 Y62.8568
G01 X6.4680 Y63.0732
G01 X6.4398 Y63.2877
G01 X6.3838 Y63.4967
G01 X6.3010 Y63.6966
G01 X6.1928 Y63.8839
G01 X6.0611 Y64.0556
G01 X5.9081 Y64.2086
G01 X5.7364 Y64.3403
G01 X5.5491 Y64.4485
G01 X5.3492 Y64.5313
G01 X5.1402 Y64.5873
G01 X4.9257 Y64.6155
G01 X4.7093 Y64.6155
G01 X4.4948 Y64.5873
G01 X4.2858 Y64.5313
G01 X4.0859 Y64.4485
G01 X3.8986 Y64.3403
G01 X3.7269 Y64.2086
G01 X3.5739 Y64.0556
G01 X3.4422 Y63.8839
G01 X3.3340 Y63.6966
G01 X3.2512 Y63.4967
G01 X3.1952 Y63.2877
G01 X3.1670 Y63.0732
G00 Z2.0000
G00 X3.4675 Y67.0150
G01 F60.00
G01 Z-0.0500
G01 F100.00
G01 X5.1724 Y67.0151
G01 X5.1920 Y67.0165
G01 X5.2113 Y67.0199
G01 X5.2302 Y67.0251
G01 X5.2485 Y67.0322
G01 X5.2661 Y67.0410
G01 X5.2827 Y67.0515
G01 X5.2944 Y67.0604
G01 X5.3018 Y67.0668
G01 X5.3157 Y67.0807
G01 X5.3281 Y67.0959
G01 X5.3365 Y67.1080
G01 X5.3461 Y67.1251
G01 X5.3523 Y67.1385
G01 X5.3589 Y67.1569
G01 X5.3637 Y67.1760
G01 X5.3665 Y67.1954
G01 X5.3674 Y67.2101
G01 X5.3675 Y68.9150
G01 X5.3665 Y68.9346
G01 X5.3653 Y68.9443
G01 X5.3626 Y68.9588
G01 X5.3574 Y68.9777
G01 X5.3503 Y68.9960
G01 X5.3415 Y69.0136
G01 X5.3310 Y69.0302
G01 X5.3189 Y69.0456
G01 X5.3123 Y69.0529
G01 X5.3018 Y69.0632
G01 X5.2905 Y69.0727
G01 X5.2745 Y69.0840
G01 X5.2618 Y69.0914
G01 X5.2440 Y69.0998
G01 X5.2256 Y69.1064
G01 X5.2113 Y69.1101
G01 X5.1920 Y69.1135
G01 X5.1724 Y69.1149
G01 X3.4675 Y69.1150
G01 X3.4577 Y69.1148
G01 X3.4430 Y69.1135
G01 X3.4237 Y69.1101
G01 X3.4048 Y69.1049
G01 X3.3865 Y69.0978
G01 X3.3732 Y69.0914
G01 X3.3647 Y69.0865
G01 X3.3484 Y69.0756
G01 X3.3332 Y69.0632
G01 X3.3193 Y69.0493
G01 X3.3069 Y69.0341
G01 X3.2985 Y69.0220
G01 X3.2911 Y69.0093
G01 X3.2827 Y68.9915
G01 X3.2761 Y68.9731
G01 X3.2724 Y68.9588
G01 X3.2690 Y68.9395
G01 X3.2676 Y68.9199
G01 X3.2675 Y67.2150
G01 X3.2680 Y67.2003
G01 X3.2704 Y67.1808
G01 X3.2747 Y67.1617
G01 X3.2809 Y67.1430
G01 X3.2889 Y67.1251
G01 X3.2985 Y67.1080
G01 X3.3069 Y67.0959
G01 X3.3193 Y67.0807
G01 X3.3332 Y67.0668
G01 X3.3445 Y67.0573
G01 X3.3605 Y67.0460
G01 X3.3776 Y67.0364
G01 X3.3955 Y67.0284
G01 X3.4142 Y67.0222
G01 X3.4333 Y67.0179
G01 X3.4479 Y67.0160
G01 X3.4675 Y67.0150
G00 Z2.0000
G00 X4.3273 Y69.5552
G01 F60.00
G01 Z-0.0500
G01 F100.00
G01 X4.4204 Y69.5601
G01 X4.5127 Y69.5735
G01 X4.5319 Y69.5773
G01 X4.6223 Y69.6002
G01 X4.7102 Y69.6314
G01 X4.7283 Y69.6389
G01 X4.8125 Y69.6790
G01 X4.8967 Y69.7293
G01 X4.9089 Y69.7376
G01 X4.9759 Y69.7873
G01 X4.9910 Y69.7998
G01 X5.0600 Y69.8625
G01 X5.1260 Y69.9351
G01 X5.1352 Y69.9466
G01 X5.1849 Y70.0136
G01 X5.1932 Y70.0258
G01 X5.2412 Y70.1057
G01 X5.2479 Y70.1188
G01 X5.2674 Y70.1599
G01 X7.4940 Y70.1599
G01 X7.5222 Y70.1393
G01 X7.5643 Y70.1140
G01 X7.6087 Y70.0931
G01 X7.6455 Y70.0796
G01 X7.6643 Y70.0739
G01 X7.6977 Y70.0656
G01 X7.7073 Y70.0637
G01 X7.7510 Y70.0574
G01 X7.7951 Y70.0551
G01 X7.8098 Y70.0552
G01 X7.8490 Y70.0574
G01 X7.8879 Y70.0629
G01 X7.9071 Y70.0668
G01 X7.9451 Y70.0765
G01 X7.9822 Y70.0895
G01 X8.0003 Y70.0970
G01 X8.0357 Y70.1140
G01 X8.0778 Y70.1393
G01 X8.1095 Y70.1625
G01 X8.1246 Y70.1749
G01 X8.1536 Y70.2014
G01 X8.1801 Y70.2304
G01 X8.1896 Y70.2416
G01 X8.2130 Y70.2732
G01 X8.2210 Y70.2855
G01 X8.2410 Y70.3193
G01 X8.2580 Y70.3547
G01 X8.2638 Y70.3682
G01 X8.2770 Y70.4052
G01 X8.2811 Y70.4193
G01 X8.2904 Y70.4575
G01 X8.2954 Y70.4896
G01 X10.5724 Y72.7665
G01 X10.5829 Y72.7686
G01 X10.6067 Y72.7745
G01 X10.6255 Y72.7802
G01 X10.6531 Y72.7903
G01 X10.6886 Y72.8071
G01 X10.7223 Y72.8273
G01 X10.7461 Y72.8447
G01 X10.7613 Y72.8571
G01 X10.7794 Y72.8736
G01 X10.7863 Y72.8806
G01 X10.8093 Y72.9062
G01 X10.8327 Y72.9377
G01 X10.8529 Y72.9714
G01 X10.8657 Y72.9979
G01 X10.8732 Y73.0160
G01 X10.8814 Y73.0392
G01 X10.8842 Y73.0486
G01 X10.8924 Y73.0819
G01 X10.8982 Y73.1208
G01 X10.9001 Y73.1600
G01 X10.9001 Y142.6443
G01 X13.4657 Y145.2099
G01 X26.4507 Y145.2099
G01 X26.4682 Y145.1970
G01 X26.4763 Y145.1916
G01 X26.5058 Y145.1739
G01 X26.5187 Y145.1668
G01 X26.5587 Y145.1481
G01 X26.5955 Y145.1346
G01 X26.6096 Y145.1302
G01 X26.6525 Y145.1196
G01 X26.7010 Y145.1124
G01 X26.7500 Y145.1100
G01 X26.7941 Y145.1120
G01 X26.8088 Y145.1136
G01 X26.8427 Y145.1187
G01 X26.8523 Y145.1206
G01 X26.8857 Y145.1289
G01 X26.9045 Y145.1346
G01 X26.9368 Y145.1462
G01 X26.9503 Y145.1520
G01 X26.9857 Y145.1690
G01 X27.0278 Y145.1943
G01 X27.0672 Y145.2235
G01 X27.1036 Y145.2564
G01 X27.1365 Y145.2928
G01 X27.1657 Y145.3322
G01 X27.1910 Y145.3743
G01 X27.2080 Y145.4097
G01 X27.2138 Y145.4232
G01 X27.2254 Y145.4555
G01 X27.2311 Y145.4743
G01 X27.2404 Y145.5125
G01 X27.2476 Y145.5610
G01 X27.2500 Y145.6100
G01 X27.2476 Y145.6590
G01 X27.2404 Y145.7075
G01 X27.2311 Y145.7457
G01 X27.2254 Y145.7645
G01 X27.2138 Y145.7968
G01 X27.2080 Y145.8103
G01 X27.1910 Y145.8457
G01 X27.1657 Y145.8878
G01 X27.1365 Y145.9272
G01 X27.1036 Y145.9636
G01 X27.0672 Y145.9965
G01 X27.0358 Y146.0201
G01 X27.0195 Y146.0310
G01 X26.9900 Y146.0486
G01 X26.9769 Y146.0554
G01 X26.9413 Y146.0719
G01 X26.8951 Y146.0885
G01 X26.8475 Y146.1004
G01 X26.8088 Y146.1064
G01 X26.7892 Y146.1083
G01 X26.7500 Y146.1100
G01 X26.7108 Y146.1083
G01 X26.6961 Y146.1071
G01 X26.6573 Y146.1013
G01 X26.6429 Y146.0982
G01 X26.6049 Y146.0885
G01 X26.5678 Y146.0755
G01 X26.5541 Y146.0700
G01 X26.5231 Y146.0554
G01 X26.5100 Y146.0486
G01 X26.4763 Y146.0284
G01 X26.4682 Y146.0230
G01 X26.4507 Y146.0101
G01 X13.3000 Y146.0101
G01 X13.2608 Y146.0082
G01 X13.2219 Y146.0024
G01 X13.1839 Y145.9929
G01 X13.1560 Y145.9832
G01 X13.1424 Y145.9777
G01 X13.1114 Y145.9629
G01 X13.0777 Y145.9427
G01 X13.0539 Y145.9253
G01 X13.0424 Y145.9161
G01 X13.0171 Y145.8929
G01 X10.2171 Y143.0929
G01 X10.1971 Y143.0713
G01 X10.1877 Y143.0600
G01 X10.1701 Y143.0363
G01 X10.1621 Y143.0240
G01 X10.1471 Y142.9986
G01 X10.1343 Y142.9721
G01 X10.1285 Y142.9586
G01 X10.1171 Y142.9261
G01 X10.1076 Y142.8881
G01 X10.1030 Y142.8590
G01 X10.1014 Y142.8443
G01 X10.0999 Y142.8100
G01 X10.0999 Y73.4257
G01 X7.7228 Y71.0487
G01 X7.7073 Y71.0463
G01 X7.6977 Y71.0444
G01 X7.6596 Y71.0348
G01 X7.6455 Y71.0304
G01 X7.6087 Y71.0169
G01 X7.5731 Y71.0004
G01 X7.5600 Y70.9936
G01 X7.5263 Y70.9734
G01 X7.5182 Y70.9680
G01 X7.5075 Y70.9601
G01 X5.3045 Y70.9601
G01 X5.2911 Y70.9977
G01 X5.2856 Y71.0113
G01 X5.2458 Y71.0956
G01 X5.2387 Y71.1085
G01 X5.1932 Y71.1842
G01 X5.1849 Y71.1964
G01 X5.1292 Y71.2711
G01 X5.0667 Y71.3404
G01 X5.0564 Y71.3509
G01 X4.9910 Y71.4102
G01 X4.9759 Y71.4227
G01 X4.9008 Y71.4780
G01 X4.8210 Y71.5262
G01 X4.8037 Y71.5354
G01 X4.7193 Y71.5751
G01 X4.6270 Y71.6083
G01 X4.6128 Y71.6124
G01 X4.5223 Y71.6348
G01 X4.4204 Y71.6499
G01 X4.3175 Y71.6550
G01 X4.2244 Y71.6507
G01 X4.2048 Y71.6487
G01 X4.1127 Y71.6348
G01 X4.0222 Y71.6124
G01 X4.0034 Y71.6067
G01 X3.9248 Y71.5786
G01 X3.9067 Y71.5711
G01 X3.8225 Y71.5310
G01 X3.7342 Y71.4780
G01 X3.6514 Y71.4167
G01 X3.5821 Y71.3542
G01 X3.5683 Y71.3404
G01 X3.5123 Y71.2785
G01 X3.4998 Y71.2634
G01 X3.4445 Y71.1883
G01 X3.3915 Y71.1000
G01 X3.3474 Y71.0068
G01 X3.3158 Y70.9191
G01 X3.3101 Y70.9003
G01 X3.2898 Y70.8194
G01 X3.2860 Y70.8002
G01 X3.2726 Y70.7079
G01 X3.2675 Y70.6050
G01 X3.2718 Y70.5119
G01 X3.2738 Y70.4923
G01 X3.2877 Y70.4002
G01 X3.3127 Y70.3002
G01 X3.3474 Y70.2032
G01 X3.3871 Y70.1188
G01 X3.3963 Y70.1015
G01 X3.4392 Y70.0299
G01 X3.4501 Y70.0136
G01 X3.5058 Y69.9389
G01 X3.5750 Y69.8625
G01 X3.6514 Y69.7933
G01 X3.7261 Y69.7376
G01 X3.7424 Y69.7267
G01 X3.8140 Y69.6838
G01 X3.8313 Y69.6746
G01 X3.9157 Y69.6349
G01 X4.0127 Y69.6002
G01 X4.1127 Y69.5752
G01 X4.2048 Y69.5613
G01 X4.2244 Y69.5593
G01 X4.3077 Y69.5552
G01 X4.3273 Y69.5552
G00 Z2.0000
G00 X3.2888 Y73.6601
G01 F60.00
G01 Z-0.0500
G01 F100.00
G01 X3.4033 Y73.6601
G01 X3.4445 Y73.7283
G01 X3.4998 Y73.8034
G01 X3.5123 Y73.8185
G01 X3.5683 Y73.8804
G01 X3.5786 Y73.8909
G01 X3.6514 Y73.9567
G01 X3.7301 Y74.0153
G01 X3.7424 Y74.0233
G01 X3.8182 Y74.0687
G01 X3.8313 Y74.0754
G01 X3.8675 Y74.0926
G01 X3.8675 Y74.2040
G01 X3.7403 Y74.1447
G01 X3.5755 Y74.0293
G01 X3.4332 Y73.8870
G01 X3.3178 Y73.7222
G01 X3.2888 Y73.6601
G00 Z2.0000
G00 X4.7675 Y74.0926
G01 F60.00
G01 Z-0.0500
G01 F100.00
G01 X4.8037 Y74.0754
G01 X4.8168 Y74.0687
G01 X4.8926 Y74.0233
G01 X4.9049 Y74.0153
G01 X4.9836 Y73.9567
G01 X5.0600 Y73.8875
G01 X5.1292 Y73.8111
G01 X5.1878 Y73.7324
G01 X5.1958 Y73.7201
G01 X5.2412 Y73.6443
G01 X5.2479 Y73.6312
G01 X5.2651 Y73.5950
G01 X5.3765 Y73.5950
G01 X5.3172 Y73.7222
G01 X5.2018 Y73.8870
G01 X5.0595 Y74.0293
G01 X4.8947 Y74.1447
G01 X4.7675 Y74.2040
G01 X4.7675 Y74.0926
G00 Z2.0000
G00 X3.1670 Y78.0732
G01 F60.00
G01 Z-0.0500
G01 F100.00
G01 X3.1670 Y77.8568
G01 X3.1952 Y77.6423
G01 X3.2512 Y77.4333
G01 X3.3340 Y77.2334
G01 X3.3496 Y77.2066
G01 X3.4422 Y77.0461
G01 X3.5739 Y76.8744
G01 X3.7269 Y76.7214
G01 X3.8986 Y76.5897
G01 X4.0859 Y76.4815
G01 X4.2858 Y76.3987
G01 X4.4948 Y76.3427
G01 X4.7093 Y76.3145
G01 X4.9257 Y76.3145
G01 X5.1402 Y76.3427
G01 X5.3492 Y76.3987
G01 X5.5491 Y76.4815
G01 X5.7364 Y76.5897
G01 X5.9081 Y76.7214
G01 X6.0611 Y76.8744
G01 X6.1928 Y77.0461
G01 X6.3010 Y77.2334
G01 X6.3838 Y77.4333
G01 X6.4398 Y77.6423
G01 X6.4680 Y77.8568
G01 X6.4680 Y78.0732
G01 X6.4398 Y78.2877
G01 X6.3838 Y78.4967
G01 X6.3010 Y78.6966
G01 X6.1928 Y78.8839
G01 X6.0611 Y79.0556
G01 X5.9081 Y79.2086
G01 X5.7364 Y79.3403
G01 X5.5491 Y79.4485
G01 X5.3492 Y79.5313
G01 X5.1402 Y79.5873
G01 X4.9257 Y79.6155
G01 X4.7093 Y79.6155
G01 X4.4948 Y79.5873
G01 X4.2858 Y79.5313
G01 X4.0859 Y79.4485
G01 X3.9154 Y79.3500
G01 X3.8986 Y79.3403
G01 X3.7269 Y79.2086
G01 X3.5739 Y79.0556
G01 X3.4422 Y78.8839
G01 X3.3340 Y78.6966
G01 X3.2512 Y78.4967
G01 X3.1952 Y78.2877
G01 X3.1670 Y78.0732
G00 Z2.0000
G00 X3.1670 Y83.0732
G01 F60.00
G01 Z-0.0500
G01 F100.00
G01 X3.1670 Y82.8568
G01 X3.1950 Y82.6438
G01 X3.2512 Y82.4333
G01 X3.3340 Y82.2334
G01 X3.4422 Y82.0461
G01 X3.5739 Y81.8744
G01 X3.7269 Y81.7214
G01 X3.8986 Y81.5897
G01 X4.0859 Y81.4815
G01 X4.2858 Y81.3987
G01 X4.4948 Y81.3427
G01 X4.7093 Y81.3145
G01 X4.9257 Y81.3145
G01 X5.1402 Y81.3427
G01 X5.3492 Y81.3987
G01 X5.5491 Y81.4815
G01 X5.7364 Y81.5897
G01 X5.9081 Y81.7214
G01 X6.0611 Y81.8744
G01 X6.1928 Y82.0461
G01 X6.3010 Y82.2334
G01 X6.3838 Y82.4333
G01 X6.4398 Y82.6423
G01 X6.4680 Y82.8568
G01 X6.4680 Y83.0732
G01 X6.4398 Y83.2877
G01 X6.3838 Y83.4967
G01 X6.3010 Y83.6966
G01 X6.1928 Y83.8839
G01 X6.0611 Y84.0556
G01 X5.9081 Y84.2086
G01 X5.7364 Y84.3403
G01 X5.5491 Y84.4485
G01 X5.3492 Y84.5313
G01 X5.1402 Y84.5873
G01 X4.9257 Y84.6155
G01 X4.7093 Y84.6155
G01 X4.4948 Y84.5873
G01 X4.2858 Y84.5313
G01 X4.0859 Y84.4485
G01 X3.8986 Y84.3403
G01 X3.7269 Y84.2086
G01 X3.5739 Y84.0556
G01 X3.4422 Y83.8839
G01 X3.3340 Y83.6966
G01 X3.2512 Y83.4967
G01 X3.1952 Y83.2877
G01 X3.1670 Y83.0732
G00 Z2.0000
G00 X3.4675 Y87.0150
G01 F60.00
G01 Z-0.0500
G01 F100.00
G01 X5.1724 Y87.0151
G01 X5.1920 Y87.0165
G01 X5.2113 Y87.0199
G01 X5.2302 Y87.0251
G01 X5.2485 Y87.0322
G01 X5.2661 Y87.0410
G01 X5.2827 Y87.0515
G01 X5.2981 Y87.0636
G01 X5.3089 Y87.0736
G01 X5.3157 Y87.0807
G01 X5.3281 Y87.0959
G01 X5.3390 Y87.1122
G01 X5.3483 Y87.1295
G01 X5.3541 Y87.1430
G01 X5.3589 Y87.1569
G01 X5.3637 Y87.1760
G01 X5.3665 Y87.1954
G01 X5.3674 Y87.2101
G01 X5.3675 Y88.9150
G01 X5.3673 Y88.9248
G01 X5.3660 Y88.9395
G01 X5.3626 Y88.9588
G01 X5.3574 Y88.9777
G01 X5.3503 Y88.9960
G01 X5.3439 Y89.0093
G01 X5.3390 Y89.0178
G01 X5.3281 Y89.0341
G01 X5.3157 Y89.0493
G01 X5.3018 Y89.0632
G01 X5.2905 Y89.0727
G01 X5.2745 Y89.0840
G01 X5.2618 Y89.0914
G01 X5.2440 Y89.0998
G01 X5.2256 Y89.1064
G01 X5.2113 Y89.1101
G01 X5.1920 Y89.1135
G01 X5.1724 Y89.1149
G01 X3.4675 Y89.1150
G01 X3.4577 Y89.1148
G01 X3.4430 Y89.1135
G01 X3.4237 Y89.1101
G01 X3.4048 Y89.1049
G01 X3.3865 Y89.0978
G01 X3.3776 Y89.0936
G01 X3.3647 Y89.0865
G01 X3.3484 Y89.0756
G01 X3.3332 Y89.0632
G01 X3.3193 Y89.0493
G01 X3.3069 Y89.0341
G01 X3.2985 Y89.0220
G01 X3.2911 Y89.0093
G01 X3.2827 Y88.9915
G01 X3.2761 Y88.9731
G01 X3.2724 Y88.9588
G01 X3.2690 Y88.9395
G01 X3.2676 Y88.9199
G01 X3.2675 Y87.2150
G01 X3.2680 Y87.2003
G01 X3.2704 Y87.1808
G01 X3.2747 Y87.1617
G01 X3.2809 Y87.1430
G01 X3.2889 Y87.1251
G01 X3.2985 Y87.1080
G01 X3.3069 Y87.0959
G01 X3.3193 Y87.0807
G01 X3.3332 Y87.0668
G01 X3.3484 Y87.0544
G01 X3.3605 Y87.0460
G01 X3.3776 Y87.0364
G01 X3.3955 Y87.0284
G01 X3.4142 Y87.0222
G01 X3.4333 Y87.0179
G01 X3.4479 Y87.0160
G01 X3.4675 Y87.0150
G00 Z2.0000
G00 X4.3273 Y89.5552
G01 F60.00
G01 Z-0.0500
G01 F100.00
G01 X4.4204 Y89.5601
G01 X4.5127 Y89.5735
G01 X4.5319 Y89.5773
G01 X4.6223 Y89.6002
G01 X4.7102 Y89.6314
G01 X4.7283 Y89.6389
G01 X4.8125 Y89.6790
G01 X4.8967 Y89.7293
G01 X4.9089 Y89.7376
G01 X4.9759 Y89.7873
G01 X4.9910 Y89.7998
G01 X5.0600 Y89.8625
G01 X5.1260 Y89.9351
G01 X5.1352 Y89.9466
G01 X5.1849 Y90.0136
G01 X5.1932 Y90.0258
G01 X5.2412 Y90.1057
G01 X5.2479 Y90.1188
G01 X5.2674 Y90.1599
G01 X7.4440 Y90.1599
G01 X7.4722 Y90.1393
G01 X7.5143 Y90.1140
G01 X7.5587 Y90.0931
G01 X7.5955 Y90.0796
G01 X7.6143 Y90.0739
G01 X7.6477 Y90.0656
G01 X7.6573 Y90.0637
G01 X7.7010 Y90.0574
G01 X7.7451 Y90.0551
G01 X7.7598 Y90.0552
G01 X7.7990 Y90.0574
G01 X7.8379 Y90.0629
G01 X7.8523 Y90.0656
G01 X7.8904 Y90.0752
G01 X7.9045 Y90.0796
G01 X7.9413 Y90.0931
G01 X7.9769 Y90.1096
G01 X7.9942 Y90.1189
G01 X8.0278 Y90.1393
G01 X8.0595 Y90.1625
G01 X8.0710 Y90.1717
G01 X8.1000 Y90.1980
G01 X8.1103 Y90.2086
G01 X8.1365 Y90.2378
G01 X8.1601 Y90.2692
G01 X8.1710 Y90.2855
G01 X8.1910 Y90.3193
G01 X8.2119 Y90.3637
G01 X8.2254 Y90.4005
G01 X8.2298 Y90.4146
G01 X8.2394 Y90.4527
G01 X8.2413 Y90.4623
G01 X8.2434 Y90.4762
G01 X9.9251 Y92.0688
G01 X9.9363 Y92.0799
G01 X9.9490 Y92.0935
G01 X9.9593 Y92.1055
G01 X9.9736 Y92.1241
G01 X9.9793 Y92.1321
G01 X9.9853 Y92.1411
G01 X9.9976 Y92.1612
G01 X10.0051 Y92.1751
G01 X10.0133 Y92.1917
G01 X10.0215 Y92.2108
G01 X10.0296 Y92.2328
G01 X10.0342 Y92.2479
G01 X10.0390 Y92.2658
G01 X10.0424 Y92.2813
G01 X10.0463 Y92.3044
G01 X10.0482 Y92.3201
G01 X10.0498 Y92.3435
G01 X10.0501 Y92.3593
G01 X10.0501 Y143.2443
G01 X13.2157 Y146.4099
G01 X28.4000 Y146.4099
G01 X28.4392 Y146.4118
G01 X28.4781 Y146.4176
G01 X28.5161 Y146.4271
G01 X28.5486 Y146.4385
G01 X28.5621 Y146.4443
G01 X28.5886 Y146.4571
G01 X28.6223 Y146.4773
G01 X28.6538 Y146.5007
G01 X28.6829 Y146.5271
G01 X28.7093 Y146.5562
G01 X28.7308 Y146.5849
G01 X31.9233 Y149.7775
G01 X31.9486 Y149.7866
G01 X31.9621 Y149.7924
G01 X31.9886 Y149.8052
G01 X32.0140 Y149.8201
G01 X32.0263 Y149.8281
G01 X32.0500 Y149.8457
G01 X32.0613 Y149.8552
G01 X32.0829 Y149.8751
G01 X32.1093 Y149.9042
G01 X32.1327 Y149.9357
G01 X32.1529 Y149.9694
G01 X32.1677 Y150.0004
G01 X32.1732 Y150.0141
G01 X32.1829 Y150.0419
G01 X32.1914 Y150.0752
G01 X32.1941 Y150.0896
G01 X32.1976 Y150.1139
G01 X32.1992 Y150.1352
G01 X32.2118 Y150.1399
G01 X32.2208 Y150.1439
G01 X32.2962 Y150.1796
G01 X32.3135 Y150.1888
G01 X32.3933 Y150.2370
G01 X32.4761 Y150.2983
G01 X32.5525 Y150.3675
G01 X32.6152 Y150.4365
G01 X32.6277 Y150.4516
G01 X32.6774 Y150.5186
G01 X32.6857 Y150.5308
G01 X32.7360 Y150.6150
G01 X32.7761 Y150.6992
G01 X32.7836 Y150.7173
G01 X32.8117 Y150.7959
G01 X32.8174 Y150.8147
G01 X32.8398 Y150.9052
G01 X32.8537 Y150.9973
G01 X32.8557 Y151.0169
G01 X32.8600 Y151.1100
G01 X32.8549 Y151.2129
G01 X32.8398 Y151.3148
G01 X32.8148 Y151.4148
G01 X32.7801 Y151.5118
G01 X32.7360 Y151.6050
G01 X32.6830 Y151.6933
G01 X32.6277 Y151.7684
G01 X32.6152 Y151.7835
G01 X32.5592 Y151.8454
G01 X32.5454 Y151.8592
G01 X32.4761 Y151.9217
G01 X32.4014 Y151.9774
G01 X32.3851 Y151.9883
G01 X32.3050 Y152.0360
G01 X32.2163 Y152.0781
G01 X32.2027 Y152.0836
G01 X32.1241 Y152.1117
G01 X32.1053 Y152.1174
G01 X32.0148 Y152.1398
G01 X31.9129 Y152.1549
G01 X31.8100 Y152.1600
G01 X31.7169 Y152.1557
G01 X31.6973 Y152.1537
G01 X31.6148 Y152.1415
G01 X31.5956 Y152.1377
G01 X31.5052 Y152.1148
G01 X31.4082 Y152.0801
G01 X31.3150 Y152.0360
G01 X31.2349 Y151.9883
G01 X31.2186 Y151.9774
G01 X31.1516 Y151.9277
G01 X31.1365 Y151.9152
G01 X31.0675 Y151.8525
G01 X30.9983 Y151.7761
G01 X30.9370 Y151.6933
G01 X30.8840 Y151.6050
G01 X30.8399 Y151.5118
G01 X30.8083 Y151.4241
G01 X30.8026 Y151.4053
G01 X30.7823 Y151.3244
G01 X30.7785 Y151.3052
G01 X30.7651 Y151.2129
G01 X30.7602 Y151.1198
G01 X30.7602 Y151.1002
G01 X30.7651 Y151.0071
G01 X30.7785 Y150.9148
G01 X30.7823 Y150.8956
G01 X30.8052 Y150.8052
G01 X30.8399 Y150.7082
G01 X30.8840 Y150.6150
G01 X30.9370 Y150.5267
G01 X30.9983 Y150.4439
G01 X31.0675 Y150.3675
G01 X31.1439 Y150.2983
G01 X31.2226 Y150.2397
G01 X31.2418 Y150.2276
G01 X28.2243 Y147.2101
G01 X13.0500 Y147.2101
G01 X13.0108 Y147.2082
G01 X12.9719 Y147.2024
G01 X12.9339 Y147.1929
G01 X12.9060 Y147.1832
G01 X12.8924 Y147.1777
G01 X12.8614 Y147.1629
G01 X12.8277 Y147.1427
G01 X12.8039 Y147.1253
G01 X12.7924 Y147.1161
G01 X12.7671 Y147.0929
G01 X9.3671 Y143.6929
G01 X9.3407 Y143.6638
G01 X9.3173 Y143.6323
G01 X9.2971 Y143.5986
G01 X9.2823 Y143.5676
G01 X9.2768 Y143.5540
G01 X9.2671 Y143.5261
G01 X9.2576 Y143.4881
G01 X9.2518 Y143.4492
G01 X9.2499 Y143.4100
G01 X9.2499 Y92.5314
G01 X7.6862 Y91.0506
G01 X7.6525 Y91.0454
G01 X7.6143 Y91.0361
G01 X7.6002 Y91.0320
G01 X7.5632 Y91.0188
G01 X7.5497 Y91.0130
G01 X7.5187 Y90.9982
G01 X7.5100 Y90.9936
G01 X7.4763 Y90.9734
G01 X7.4682 Y90.9680
G01 X7.4575 Y90.9601
G01 X5.3045 Y90.9601
G01 X5.2911 Y90.9977
G01 X5.2856 Y91.0113
G01 X5.2458 Y91.0956
G01 X5.2387 Y91.1085
G01 X5.1932 Y91.1842
G01 X5.1849 Y91.1964
G01 X5.1292 Y91.2711
G01 X5.0667 Y91.3404
G01 X5.0564 Y91.3509
G01 X4.9836 Y91.4167
G01 X4.9089 Y91.4724
G01 X4.8926 Y91.4833
G01 X4.8125 Y91.5310
G01 X4.7283 Y91.5711
G01 X4.7102 Y91.5786
G01 X4.6270 Y91.6083
G01 X4.6128 Y91.6124
G01 X4.5223 Y91.6348
G01 X4.4204 Y91.6499
G01 X4.3175 Y91.6550
G01 X4.2244 Y91.6507
G01 X4.2048 Y91.6487
G01 X4.1127 Y91.6348
G01 X4.0222 Y91.6124
G01 X4.0034 Y91.6067
G01 X3.9157 Y91.5751
G01 X3.8313 Y91.5354
G01 X3.8140 Y91.5262
G01 X3.7424 Y91.4833
G01 X3.7261 Y91.4724
G01 X3.6591 Y91.4227
G01 X3.6440 Y91.4102
G01 X3.5750 Y91.3475
G01 X3.5058 Y91.2711
G01 X3.4445 Y91.1883
G01 X3.3963 Y91.1085
G01 X3.3871 Y91.0912
G01 X3.3514 Y91.0158
G01 X3.3439 Y90.9977
G01 X3.3127 Y90.9098
G01 X3.2877 Y90.8098
G01 X3.2726 Y90.7079
G01 X3.2677 Y90.6148
G01 X3.2677 Y90.5952
G01 X3.2718 Y90.5119
G01 X3.2738 Y90.4923
G01 X3.2877 Y90.4002
G01 X3.3127 Y90.3002
G01 X3.3474 Y90.2032
G01 X3.3871 Y90.1188
G01 X3.3963 Y90.1015
G01 X3.4392 Y90.0299
G01 X3.4501 Y90.0136
G01 X3.5058 Y89.9389
G01 X3.5750 Y89.8625
G01 X3.6514 Y89.7933
G01 X3.7261 Y89.7376
G01 X3.7424 Y89.7267
G01 X3.8140 Y89.6838
G01 X3.8313 Y89.6746
G01 X3.9157 Y89.6349
G01 X4.0127 Y89.6002
G01 X4.1127 Y89.5752
G01 X4.2048 Y89.5613
G01 X4.2244 Y89.5593
G01 X4.3077 Y89.5552
G01 X4.3273 Y89.5552
G00 Z2.0000
G00 X3.2655 Y93.6101
G01 F60.00
G01 Z-0.0500
G01 F100.00
G01 X3.3771 Y93.6101
G01 X3.3892 Y93.6356
G01 X3.3938 Y93.6443
G01 X3.4392 Y93.7201
G01 X3.4472 Y93.7324
G01 X3.5058 Y93.8111
G01 X3.5750 Y93.8875
G01 X3.6514 Y93.9567
G01 X3.7301 Y94.0153
G01 X3.7424 Y94.0233
G01 X3.8182 Y94.0687
G01 X3.8313 Y94.0754
G01 X3.8675 Y94.0926
G01 X3.8675 Y94.2040
G01 X3.7403 Y94.1447
G01 X3.5755 Y94.0293
G01 X3.4332 Y93.8870
G01 X3.3178 Y93.7222
G01 X3.2655 Y93.6101
G00 Z2.0000
G00 X4.7675 Y94.0926
G01 F60.00
G01 Z-0.0500
G01 F100.00
G01 X4.8037 Y94.0754
G01 X4.8168 Y94.0687
G01 X4.8926 Y94.0233
G01 X4.9049 Y94.0153
G01 X4.9836 Y93.9567
G01 X5.0600 Y93.8875
G01 X5.1292 Y93.8111
G01 X5.1878 Y93.7324
G01 X5.1958 Y93.7201
G01 X5.2412 Y93.6443
G01 X5.2479 Y93.6312
G01 X5.2651 Y93.5950
G01 X5.3765 Y93.5950
G01 X5.3172 Y93.7222
G01 X5.2018 Y93.8870
G01 X5.0595 Y94.0293
G01 X4.8947 Y94.1447
G01 X4.7675 Y94.2040
G01 X4.7675 Y94.0926
G00 Z2.0000
G00 X3.1670 Y98.0732
G01 F60.00
G01 Z-0.0500
G01 F100.00
G01 X3.1670 Y97.8568
G01 X3.1952 Y97.6423
G01 X3.2512 Y97.4333
G01 X3.3340 Y97.2334
G01 X3.3496 Y97.2066
G01 X3.4422 Y97.0461
G01 X3.5739 Y96.8744
G01 X3.7269 Y96.7214
G01 X3.8986 Y96.5897
G01 X4.0859 Y96.4815
G01 X4.2858 Y96.3987
G01 X4.4948 Y96.3427
G01 X4.7093 Y96.3145
G01 X4.9257 Y96.3145
G01 X5.1402 Y96.3427
G01 X5.3492 Y96.3987
G01 X5.5491 Y96.4815
G01 X5.7364 Y96.5897
G01 X5.9081 Y96.7214
G01 X6.0611 Y96.8744
G01 X6.1928 Y97.0461
G01 X6.3010 Y97.2334
G01 X6.3838 Y97.4333
G01 X6.4398 Y97.6423
G01 X6.4680 Y97.8568
G01 X6.4680 Y98.0732
G01 X6.4398 Y98.2877
G01 X6.3838 Y98.4967
G01 X6.3010 Y98.6966
G01 X6.1928 Y98.8839
G01 X6.0611 Y99.0556
G01 X5.9081 Y99.2086
G01 X5.7364 Y99.3403
G01 X5.5491 Y99.4485
G01 X5.3492 Y99.5313
G01 X5.1402 Y99.5873
G01 X4.9257 Y99.6155
G01 X4.7093 Y99.6155
G01 X4.4948 Y99.5873
G01 X4.2858 Y99.5313
G01 X4.0859 Y99.4485
G01 X3.9154 Y99.3500
G01 X3.8986 Y99.3403
G01 X3.7269 Y99.2086
G01 X3.5739 Y99.0556
G01 X3.4422 Y98.8839
G01 X3.3340 Y98.6966
G01 X3.2512 Y98.4967
G01 X3.1952 Y98.2877
G01 X3.1670 Y98.0732
G00 Z2.0000
G00 X3.1670 Y103.0732
G01 F60.00
G01 Z-0.0500
G01 F100.00
G01 X3.1670 Y102.8568
G01 X3.1950 Y102.6438
G01 X3.2512 Y102.4333
G01 X3.3340 Y102.2334
G01 X3.4422 Y102.0461
G01 X3.5739 Y101.8744
G01 X3.7269 Y101.7214
G01 X3.8986 Y101.5897
G01 X4.0859 Y101.4815
G01 X4.2858 Y101.3987
G01 X4.4948 Y101.3427
G01 X4.7093 Y101.3145
G01 X4.9257 Y101.3145
G01 X5.1402 Y101.3427
G01 X5.3492 Y101.3987
G01 X5.5491 Y101.4815
G01 X5.7364 Y101.5897
G01 X5.9081 Y101.7214
G01 X6.0611 Y101.8744
G01 X6.1928 Y102.0461
G01 X6.3010 Y102.2334
G01 X6.3838 Y102.4333
G01 X6.4398 Y102.6423
G01 X6.4680 Y102.8568
G01 X6.4680 Y103.0732
G01 X6.4398 Y103.2877
G01 X6.3838 Y103.4967
G01 X6.3010 Y103.6966
G01 X6.1928 Y103.8839
G01 X6.0611 Y104.0556
G01 X5.9081 Y104.2086
G01 X5.7364 Y104.3403
G01 X5.5491 Y104.4485
G01 X5.3492 Y104.5313
G01 X5.1402 Y104.5873
G01 X4.9257 Y104.6155
G01 X4.7093 Y104.6155
G01 X4.4948 Y104.5873
G01 X4.2858 Y104.5313
G01 X4.0859 Y104.4485
G01 X3.8986 Y104.3403
G01 X3.7269 Y104.2086
G01 X3.5739 Y104.0556
G01 X3.4422 Y103.8839
G01 X3.3340 Y103.6966
G01 X3.2512 Y103.4967
G01 X3.1952 Y103.2877
G01 X3.1670 Y103.0732
G00 Z2.0000
G00 X3.4675 Y107.0150
G01 F60.00
G01 Z-0.0500
G01 F100.00
G01 X5.1724 Y107.0151
G01 X5.1920 Y107.0165
G01 X5.2113 Y107.0199
G01 X5.2302 Y107.0251
G01 X5.2485 Y107.0322
G01 X5.2661 Y107.0410
G01 X5.2827 Y107.0515
G01 X5.2981 Y107.0636
G01 X5.3089 Y107.0736
G01 X5.3157 Y107.0807
G01 X5.3281 Y107.0959
G01 X5.3390 Y107.1122
G01 X5.3483 Y107.1295
G01 X5.3541 Y107.1430
G01 X5.3589 Y107.1569
G01 X5.3637 Y107.1760
G01 X5.3665 Y107.1954
G01 X5.3674 Y107.2101
G01 X5.3675 Y108.9150
G01 X5.3673 Y108.9248
G01 X5.3660 Y108.9395
G01 X5.3626 Y108.9588
G01 X5.3574 Y108.9777
G01 X5.3503 Y108.9960
G01 X5.3439 Y109.0093
G01 X5.3390 Y109.0178
G01 X5.3281 Y109.0341
G01 X5.3157 Y109.0493
G01 X5.3018 Y109.0632
G01 X5.2905 Y109.0727
G01 X5.2745 Y109.0840
G01 X5.2618 Y109.0914
G01 X5.2440 Y109.0998
G01 X5.2256 Y109.1064
G01 X5.2113 Y109.1101
G01 X5.1920 Y109.1135
G01 X5.1724 Y109.1149
G01 X3.4675 Y109.1150
G01 X3.4577 Y109.1148
G01 X3.4430 Y109.1135
G01 X3.4237 Y109.1101
G01 X3.4048 Y109.1049
G01 X3.3865 Y109.0978
G01 X3.3776 Y109.0936
G01 X3.3647 Y109.0865
G01 X3.3484 Y109.0756
G01 X3.3332 Y109.0632
G01 X3.3193 Y109.0493
G01 X3.3069 Y109.0341
G01 X3.2985 Y109.0220
G01 X3.2911 Y109.0093
G01 X3.2827 Y108.9915
G01 X3.2761 Y108.9731
G01 X3.2724 Y108.9588
G01 X3.2690 Y108.9395
G01 X3.2676 Y108.9199
G01 X3.2675 Y107.2150
G01 X3.2680 Y107.2003
G01 X3.2704 Y107.1808
G01 X3.2747 Y107.1617
G01 X3.2809 Y107.1430
G01 X3.2889 Y107.1251
G01 X3.2985 Y107.1080
G01 X3.3069 Y107.0959
G01 X3.3193 Y107.0807
G01 X3.3332 Y107.0668
G01 X3.3484 Y107.0544
G01 X3.3605 Y107.0460
G01 X3.3776 Y107.0364
G01 X3.3955 Y107.0284
G01 X3.4142 Y107.0222
G01 X3.4333 Y107.0179
G01 X3.4479 Y107.0160
G01 X3.4675 Y107.0150
G00 Z2.0000
G00 X4.3273 Y109.5552
G01 F60.00
G01 Z-0.0500
G01 F100.00
G01 X4.4204 Y109.5601
G01 X4.5127 Y109.5735
G01 X4.5319 Y109.5773
G01 X4.6223 Y109.6002
G01 X4.7102 Y109.6314
G01 X4.7283 Y109.6389
G01 X4.8125 Y109.6790
G01 X4.8967 Y109.7293
G01 X4.9089 Y109.7376
G01 X4.9759 Y109.7873
G01 X4.9910 Y109.7998
G01 X5.0600 Y109.8625
G01 X5.1260 Y109.9351
G01 X5.1352 Y109.9466
G01 X5.1849 Y110.0136
G01 X5.1932 Y110.0258
G01 X5.2412 Y110.1057
G01 X5.2479 Y110.1188
G01 X5.2674 Y110.1599
G01 X7.3940 Y110.1599
G01 X7.4222 Y110.1393
G01 X7.4558 Y110.1189
G01 X7.4731 Y110.1096
G01 X7.5087 Y110.0931
G01 X7.5455 Y110.0796
G01 X7.5643 Y110.0739
G01 X7.6025 Y110.0646
G01 X7.6412 Y110.0586
G01 X7.6608 Y110.0567
G01 X7.7000 Y110.0550
G01 X7.7392 Y110.0567
G01 X7.7539 Y110.0579
G01 X7.7975 Y110.0646
G01 X7.8357 Y110.0739
G01 X7.8498 Y110.0780
G01 X7.8868 Y110.0912
G01 X7.9003 Y110.0970
G01 X7.9357 Y110.1140
G01 X7.9695 Y110.1340
G01 X7.9858 Y110.1449
G01 X8.0172 Y110.1685
G01 X8.0464 Y110.1947
G01 X8.0570 Y110.2050
G01 X8.0833 Y110.2340
G01 X8.0896 Y110.2416
G01 X8.1101 Y110.2692
G01 X8.1210 Y110.2855
G01 X8.1410 Y110.3193
G01 X8.1619 Y110.3637
G01 X8.1785 Y110.4099
G01 X8.1882 Y110.4479
G01 X8.1921 Y110.4671
G01 X8.1976 Y110.5063
G01 X8.7840 Y111.1332
G01 X8.7986 Y111.1385
G01 X8.8076 Y111.1422
G01 X8.8342 Y111.1548
G01 X8.8471 Y111.1619
G01 X8.8682 Y111.1746
G01 X8.8803 Y111.1829
G01 X8.9038 Y111.2007
G01 X8.9294 Y111.2236
G01 X8.9397 Y111.2341
G01 X8.9593 Y111.2561
G01 X8.9770 Y111.2796
G01 X8.9853 Y111.2918
G01 X9.0029 Y111.3213
G01 X9.0177 Y111.3523
G01 X9.0232 Y111.3660
G01 X9.0329 Y111.3938
G01 X9.0414 Y111.4271
G01 X9.0441 Y111.4416
G01 X9.0482 Y111.4707
G01 X9.0501 Y111.5099
G01 X9.0501 Y143.5843
G01 X14.2829 Y148.8171
G01 X14.3029 Y148.8387
G01 X14.3123 Y148.8500
G01 X14.3299 Y148.8737
G01 X14.3379 Y148.8860
G01 X14.3529 Y148.9114
G01 X14.3657 Y148.9379
G01 X14.3715 Y148.9514
G01 X14.3814 Y148.9792
G01 X14.3855 Y148.9933
G01 X14.3924 Y149.0219
G01 X14.3976 Y149.0559
G01 X14.3989 Y149.0706
G01 X14.4001 Y149.1000
G01 X14.4001 Y150.1283
G01 X14.4273 Y150.1381
G01 X14.4363 Y150.1419
G01 X14.5162 Y150.1796
G01 X14.5293 Y150.1863
G01 X14.6133 Y150.2370
G01 X14.6923 Y150.2953
G01 X14.7035 Y150.3048
G01 X14.7654 Y150.3608
G01 X14.7792 Y150.3746
G01 X14.8417 Y150.4439
G01 X14.9003 Y150.5226
G01 X14.9083 Y150.5349
G01 X14.9512 Y150.6065
G01 X14.9604 Y150.6238
G01 X15.0001 Y150.7082
G01 X15.0348 Y150.8052
G01 X15.0598 Y150.9052
G01 X15.0737 Y150.9973
G01 X15.0757 Y151.0169
G01 X15.0798 Y151.1002
G01 X15.0799 Y151.1149
G01 X15.0749 Y151.2129
G01 X15.0598 Y151.3148
G01 X15.0348 Y151.4148
G01 X15.0036 Y151.5027
G01 X14.9961 Y151.5208
G01 X14.9604 Y151.5962
G01 X14.9512 Y151.6135
G01 X14.9030 Y151.6933
G01 X14.8417 Y151.7761
G01 X14.7725 Y151.8525
G01 X14.7035 Y151.9152
G01 X14.6884 Y151.9277
G01 X14.6214 Y151.9774
G01 X14.6051 Y151.9883
G01 X14.5250 Y152.0360
G01 X14.4318 Y152.0801
G01 X14.3348 Y152.1148
G01 X14.2396 Y152.1388
G01 X14.2252 Y152.1415
G01 X14.1329 Y152.1549
G01 X14.0300 Y152.1600
G01 X13.9271 Y152.1549
G01 X13.8252 Y152.1398
G01 X13.7252 Y152.1148
G01 X13.6282 Y152.0801
G01 X13.5350 Y152.0360
G01 X13.4467 Y151.9830
G01 X13.3639 Y151.9217
G01 X13.2875 Y151.8525
G01 X13.2183 Y151.7761
G01 X13.1570 Y151.6933
G01 X13.1040 Y151.6050
G01 X13.0599 Y151.5118
G01 X13.0252 Y151.4148
G01 X13.0012 Y151.3196
G01 X12.9985 Y151.3052
G01 X12.9851 Y151.2129
G01 X12.9802 Y151.1198
G01 X12.9802 Y151.1002
G01 X12.9843 Y151.0169
G01 X12.9863 Y150.9973
G01 X13.0002 Y150.9052
G01 X13.0252 Y150.8052
G01 X13.0599 Y150.7082
G01 X13.1017 Y150.6194
G01 X13.1088 Y150.6065
G01 X13.1570 Y150.5267
G01 X13.2123 Y150.4516
G01 X13.2248 Y150.4365
G01 X13.2808 Y150.3746
G01 X13.2911 Y150.3641
G01 X13.3639 Y150.2983
G01 X13.4467 Y150.2370
G01 X13.5350 Y150.1840
G01 X13.5999 Y150.1530
G01 X13.5999 Y149.2657
G01 X8.5894 Y144.2552
G01 X8.5671 Y144.2514
G01 X8.5433 Y144.2455
G01 X8.5292 Y144.2414
G01 X8.4969 Y144.2296
G01 X8.4658 Y144.2151
G01 X8.4571 Y144.2105
G01 X8.4360 Y144.1979
G01 X8.4197 Y144.1870
G01 X8.3962 Y144.1693
G01 X8.3671 Y144.1429
G01 X8.3439 Y144.1176
G01 X8.3347 Y144.1061
G01 X8.3173 Y144.0823
G01 X8.2971 Y144.0486
G01 X8.2823 Y144.0176
G01 X8.2768 Y144.0040
G01 X8.2671 Y143.9761
G01 X8.2586 Y143.9429
G01 X8.2559 Y143.9284
G01 X8.2518 Y143.8992
G01 X8.2499 Y143.8600
G01 X8.2499 Y111.7337
G01 X7.6048 Y111.0458
G01 X7.5929 Y111.0432
G01 X7.5549 Y111.0335
G01 X7.5178 Y111.0205
G01 X7.5041 Y111.0150
G01 X7.4731 Y111.0004
G01 X7.4600 Y110.9936
G01 X7.4263 Y110.9734
G01 X7.4182 Y110.9680
G01 X7.4075 Y110.9601
G01 X5.3045 Y110.9601
G01 X5.2911 Y110.9977
G01 X5.2856 Y111.0113
G01 X5.2458 Y111.0956
G01 X5.2387 Y111.1085
G01 X5.1932 Y111.1842
G01 X5.1849 Y111.1964
G01 X5.1292 Y111.2711
G01 X5.0634 Y111.3439
G01 X5.0529 Y111.3542
G01 X4.9836 Y111.4167
G01 X4.9008 Y111.4780
G01 X4.8125 Y111.5310
G01 X4.7283 Y111.5711
G01 X4.7148 Y111.5769
G01 X4.6223 Y111.6098
G01 X4.5319 Y111.6327
G01 X4.5127 Y111.6365
G01 X4.4204 Y111.6499
G01 X4.3273 Y111.6548
G01 X4.3077 Y111.6548
G01 X4.2244 Y111.6507
G01 X4.2048 Y111.6487
G01 X4.1127 Y111.6348
G01 X4.0127 Y111.6098
G01 X3.9157 Y111.5751
G01 X3.8313 Y111.5354
G01 X3.8182 Y111.5287
G01 X3.7342 Y111.4780
G01 X3.6514 Y111.4167
G01 X3.5750 Y111.3475
G01 X3.5123 Y111.2785
G01 X3.4998 Y111.2634
G01 X3.4501 Y111.1964
G01 X3.4392 Y111.1801
G01 X3.3915 Y111.1000
G01 X3.3474 Y111.0068
G01 X3.3127 Y110.9098
G01 X3.2898 Y110.8194
G01 X3.2860 Y110.8002
G01 X3.2738 Y110.7177
G01 X3.2718 Y110.6981
G01 X3.2675 Y110.6050
G01 X3.2726 Y110.5021
G01 X3.2877 Y110.4002
G01 X3.3101 Y110.3097
G01 X3.3158 Y110.2909
G01 X3.3439 Y110.2123
G01 X3.3514 Y110.1942
G01 X3.3915 Y110.1100
G01 X3.4445 Y110.0217
G01 X3.5058 Y109.9389
G01 X3.5683 Y109.8696
G01 X3.5821 Y109.8558
G01 X3.6440 Y109.7998
G01 X3.6591 Y109.7873
G01 X3.7342 Y109.7320
G01 X3.8225 Y109.6790
G01 X3.9157 Y109.6349
G01 X4.0034 Y109.6033
G01 X4.0222 Y109.5976
G01 X4.1031 Y109.5773
G01 X4.1223 Y109.5735
G01 X4.2146 Y109.5601
G01 X4.3077 Y109.5552
G01 X4.3273 Y109.5552
G00 Z2.0000
G00 X3.2888 Y113.6601
G01 F60.00
G01 Z-0.0500
G01 F100.00
G01 X3.4033 Y113.6601
G01 X3.4445 Y113.7283
G01 X3.4998 Y113.8034
G01 X3.5123 Y113.8185
G01 X3.5683 Y113.8804
G01 X3.5786 Y113.8909
G01 X3.6514 Y113.9567
G01 X3.7301 Y114.0153
G01 X3.7424 Y114.0233
G01 X3.8182 Y114.0687
G01 X3.8313 Y114.0754
G01 X3.8675 Y114.0926
G01 X3.8675 Y114.2040
G01 X3.7403 Y114.1447
G01 X3.5755 Y114.0293
G01 X3.4332 Y113.8870
G01 X3.3178 Y113.7222
G01 X3.2888 Y113.6601
G00 Z2.0000
G00 X4.7675 Y114.0926
G01 F60.00
G01 Z-0.0500
G01 F100.00
G01 X4.8037 Y114.0754
G01 X4.8168 Y114.0687
G01 X4.8926 Y114.0233
G01 X4.9049 Y114.0153
G01 X4.9836 Y113.9567
G01 X5.0600 Y113.8875
G01 X5.1292 Y113.8111
G01 X5.1878 Y113.7324
G01 X5.1958 Y113.7201
G01 X5.2412 Y113.6443
G01 X5.2479 Y113.6312
G01 X5.2651 Y113.5950
G01 X5.3765 Y113.5950
G01 X5.3172 Y113.7222
G01 X5.2018 Y113.8870
G01 X5.0595 Y114.0293
G01 X4.8947 Y114.1447
G01 X4.7675 Y114.2040
G01 X4.7675 Y114.0926
G00 Z2.0000
G00 X3.1670 Y118.0732
G01 F60.00
G01 Z-0.0500
G01 F100.00
G01 X3.1670 Y117.8568
G01 X3.1952 Y117.6423
G01 X3.2512 Y117.4333
G01 X3.3340 Y117.2334
G01 X3.3496 Y117.2066
G01 X3.4422 Y117.0461
G01 X3.5739 Y116.8744
G01 X3.7269 Y116.7214
G01 X3.8986 Y116.5897
G01 X4.0859 Y116.4815
G01 X4.2858 Y116.3987
G01 X4.4948 Y116.3427
G01 X4.7093 Y116.3145
G01 X4.9257 Y116.3145
G01 X5.1402 Y116.3427
G01 X5.3492 Y116.3987
G01 X5.5491 Y116.4815
G01 X5.7364 Y116.5897
G01 X5.9081 Y116.7214
G01 X6.0611 Y116.8744
G01 X6.1928 Y117.0461
G01 X6.3010 Y117.2334
G01 X6.3838 Y117.4333
G01 X6.4398 Y117.6423
G01 X6.4680 Y117.8568
G01 X6.4680 Y118.0732
G01 X6.4398 Y118.2877
G01 X6.3838 Y118.4967
G01 X6.3010 Y118.6966
G01 X6.1928 Y118.8839
G01 X6.0611 Y119.0556
G01 X5.9081 Y119.2086
G01 X5.7364 Y119.3403
G01 X5.5491 Y119.4485
G01 X5.3492 Y119.5313
G01 X5.1402 Y119.5873
G01 X4.9257 Y119.6155
G01 X4.7093 Y119.6155
G01 X4.4948 Y119.5873
G01 X4.2858 Y119.5313
G01 X4.0859 Y119.4485
G01 X3.9154 Y119.3500
G01 X3.8986 Y119.3403
G01 X3.7269 Y119.2086
G01 X3.5739 Y119.0556
G01 X3.4422 Y118.8839
G01 X3.3340 Y118.6966
G01 X3.2512 Y118.4967
G01 X3.1952 Y118.2877
G01 X3.1670 Y118.0732
G00 Z2.0000
G00 X3.1295 Y123.2082
G01 F60.00
G01 Z-0.0500
G01 F100.00
G01 X3.1295 Y122.9918
G01 X3.1577 Y122.7773
G01 X3.2137 Y122.5683
G01 X3.2965 Y122.3684
G01 X3.4047 Y122.1811
G01 X3.5364 Y122.0094
G01 X3.6894 Y121.8564
G01 X3.8611 Y121.7247
G01 X4.0484 Y121.6165
G01 X4.2483 Y121.5337
G01 X4.4573 Y121.4777
G01 X4.6718 Y121.4495
G01 X4.8882 Y121.4495
G01 X5.1027 Y121.4777
G01 X5.3117 Y121.5337
G01 X5.5116 Y121.6165
G01 X5.6989 Y121.7247
G01 X5.8706 Y121.8564
G01 X6.0236 Y122.0094
G01 X6.1553 Y122.1811
G01 X6.2635 Y122.3684
G01 X6.3463 Y122.5683
G01 X6.4023 Y122.7773
G01 X6.4305 Y122.9918
G01 X6.4305 Y123.2082
G01 X6.4023 Y123.4227
G01 X6.3463 Y123.6317
G01 X6.2635 Y123.8316
G01 X6.1553 Y124.0189
G01 X6.0236 Y124.1906
G01 X5.8706 Y124.3436
G01 X5.6989 Y124.4753
G01 X5.5116 Y124.5835
G01 X5.3117 Y124.6663
G01 X5.1027 Y124.7223
G01 X4.8882 Y124.7505
G01 X4.6718 Y124.7505
G01 X4.4573 Y124.7223
G01 X4.2483 Y124.6663
G01 X4.0484 Y124.5835
G01 X3.8611 Y124.4753
G01 X3.6894 Y124.3436
G01 X3.5364 Y124.1906
G01 X3.4047 Y124.0189
G01 X3.2965 Y123.8316
G01 X3.2137 Y123.6317
G01 X3.1577 Y123.4227
G01 X3.1295 Y123.2082
G00 Z2.0000
G00 X3.4675 Y127.0150
G01 F60.00
G01 Z-0.0500
G01 F100.00
G01 X5.1724 Y127.0151
G01 X5.1920 Y127.0165
G01 X5.2113 Y127.0199
G01 X5.2302 Y127.0251
G01 X5.2485 Y127.0322
G01 X5.2661 Y127.0410
G01 X5.2827 Y127.0515
G01 X5.2981 Y127.0636
G01 X5.3089 Y127.0736
G01 X5.3157 Y127.0807
G01 X5.3281 Y127.0959
G01 X5.3390 Y127.1122
G01 X5.3483 Y127.1295
G01 X5.3541 Y127.1430
G01 X5.3589 Y127.1569
G01 X5.3637 Y127.1760
G01 X5.3665 Y127.1954
G01 X5.3674 Y127.2101
G01 X5.3675 Y128.9150
G01 X5.3670 Y128.9297
G01 X5.3660 Y128.9395
G01 X5.3626 Y128.9588
G01 X5.3574 Y128.9777
G01 X5.3503 Y128.9960
G01 X5.3415 Y129.0136
G01 X5.3310 Y129.0302
G01 X5.3189 Y129.0456
G01 X5.3089 Y129.0564
G01 X5.3018 Y129.0632
G01 X5.2905 Y129.0727
G01 X5.2745 Y129.0840
G01 X5.2574 Y129.0936
G01 X5.2395 Y129.1016
G01 X5.2208 Y129.1078
G01 X5.2065 Y129.1112
G01 X5.1871 Y129.1140
G01 X5.1724 Y129.1149
G01 X3.4675 Y129.1150
G01 X3.4479 Y129.1140
G01 X3.4285 Y129.1112
G01 X3.4094 Y129.1064
G01 X3.3955 Y129.1016
G01 X3.3865 Y129.0978
G01 X3.3689 Y129.0890
G01 X3.3523 Y129.0785
G01 X3.3369 Y129.0664
G01 X3.3296 Y129.0598
G01 X3.3193 Y129.0493
G01 X3.3098 Y129.0380
G01 X3.2985 Y129.0220
G01 X3.2889 Y129.0049
G01 X3.2809 Y128.9870
G01 X3.2761 Y128.9731
G01 X3.2713 Y128.9540
G01 X3.2690 Y128.9395
G01 X3.2676 Y128.9199
G01 X3.2675 Y127.2150
G01 X3.2680 Y127.2003
G01 X3.2704 Y127.1808
G01 X3.2747 Y127.1617
G01 X3.2809 Y127.1430
G01 X3.2889 Y127.1251
G01 X3.2985 Y127.1080
G01 X3.3069 Y127.0959
G01 X3.3193 Y127.0807
G01 X3.3332 Y127.0668
G01 X3.3484 Y127.0544
G01 X3.3605 Y127.0460
G01 X3.3776 Y127.0364
G01 X3.3955 Y127.0284
G01 X3.4142 Y127.0222
G01 X3.4333 Y127.0179
G01 X3.4479 Y127.0160
G01 X3.4675 Y127.0150
G00 Z2.0000
G00 X4.3273 Y129.5552
G01 F60.00
G01 Z-0.0500
G01 F100.00
G01 X4.4204 Y129.5601
G01 X4.5127 Y129.5735
G01 X4.5319 Y129.5773
G01 X4.6223 Y129.6002
G01 X4.7193 Y129.6349
G01 X4.8037 Y129.6746
G01 X4.8210 Y129.6838
G01 X4.9008 Y129.7320
G01 X4.9836 Y129.7933
G01 X5.0529 Y129.8558
G01 X5.0667 Y129.8696
G01 X5.1292 Y129.9389
G01 X5.1905 Y130.0217
G01 X5.2387 Y130.1015
G01 X5.2479 Y130.1188
G01 X5.2836 Y130.1942
G01 X5.2902 Y130.2099
G01 X7.3440 Y130.2099
G01 X7.3682 Y130.1920
G01 X7.3763 Y130.1866
G01 X7.4058 Y130.1689
G01 X7.4187 Y130.1618
G01 X7.4587 Y130.1431
G01 X7.4955 Y130.1296
G01 X7.5096 Y130.1252
G01 X7.5525 Y130.1146
G01 X7.6010 Y130.1074
G01 X7.6500 Y130.1050
G01 X7.6990 Y130.1074
G01 X7.7379 Y130.1129
G01 X7.7571 Y130.1168
G01 X7.7951 Y130.1265
G01 X7.8413 Y130.1431
G01 X7.8857 Y130.1640
G01 X7.9195 Y130.1840
G01 X7.9358 Y130.1949
G01 X7.9634 Y130.2154
G01 X7.9746 Y130.2249
G01 X8.0036 Y130.2514
G01 X8.0365 Y130.2878
G01 X8.0657 Y130.3272
G01 X8.0861 Y130.3608
G01 X8.0954 Y130.3781
G01 X8.1100 Y130.4091
G01 X8.1138 Y130.4182
G01 X8.1285 Y130.4599
G01 X8.1394 Y130.5027
G01 X8.1421 Y130.5171
G01 X8.1476 Y130.5560
G01 X8.1500 Y130.6050
G01 X8.1476 Y130.6540
G01 X8.1421 Y130.6929
G01 X8.1394 Y130.7073
G01 X8.1285 Y130.7501
G01 X8.1155 Y130.7872
G01 X8.1100 Y130.8009
G01 X8.0954 Y130.8319
G01 X8.0886 Y130.8450
G01 X8.0684 Y130.8787
G01 X8.0630 Y130.8868
G01 X8.0501 Y130.9043
G01 X8.0501 Y144.0678
G01 X9.2734 Y145.5713
G01 X9.2936 Y145.5991
G01 X9.3136 Y145.6329
G01 X9.3303 Y145.6684
G01 X9.3403 Y145.6961
G01 X9.3447 Y145.7102
G01 X9.3527 Y145.7436
G01 X9.3572 Y145.7727
G01 X9.3587 Y145.7874
G01 X9.3601 Y145.8217
G01 X9.3580 Y145.8609
G01 X9.3538 Y145.8900
G01 X9.3499 Y145.9093
G01 X9.3438 Y145.9330
G01 X9.3401 Y145.9447
G01 X9.3401 Y150.1355
G01 X9.3518 Y150.1399
G01 X9.3608 Y150.1439
G01 X9.4362 Y150.1796
G01 X9.4535 Y150.1888
G01 X9.5333 Y150.2370
G01 X9.6161 Y150.2983
G01 X9.6925 Y150.3675
G01 X9.7552 Y150.4365
G01 X9.7677 Y150.4516
G01 X9.8230 Y150.5267
G01 X9.8760 Y150.6150
G01 X9.9161 Y150.6992
G01 X9.9236 Y150.7173
G01 X9.9548 Y150.8052
G01 X9.9777 Y150.8956
G01 X9.9815 Y150.9148
G01 X9.9949 Y151.0071
G01 X9.9998 Y151.1002
G01 X9.9998 Y151.1198
G01 X9.9957 Y151.2031
G01 X9.9937 Y151.2227
G01 X9.9798 Y151.3148
G01 X9.9574 Y151.4053
G01 X9.9517 Y151.4241
G01 X9.9201 Y151.5118
G01 X9.8760 Y151.6050
G01 X9.8230 Y151.6933
G01 X9.7617 Y151.7761
G01 X9.6925 Y151.8525
G01 X9.6235 Y151.9152
G01 X9.6084 Y151.9277
G01 X9.5414 Y151.9774
G01 X9.5251 Y151.9883
G01 X9.4450 Y152.0360
G01 X9.3518 Y152.0801
G01 X9.2548 Y152.1148
G01 X9.1596 Y152.1388
G01 X9.1452 Y152.1415
G01 X9.0529 Y152.1549
G01 X8.9500 Y152.1600
G01 X8.8471 Y152.1549
G01 X8.7452 Y152.1398
G01 X8.6452 Y152.1148
G01 X8.5482 Y152.0801
G01 X8.4550 Y152.0360
G01 X8.3667 Y151.9830
G01 X8.2839 Y151.9217
G01 X8.2075 Y151.8525
G01 X8.1383 Y151.7761
G01 X8.0770 Y151.6933
G01 X8.0240 Y151.6050
G01 X7.9799 Y151.5118
G01 X7.9452 Y151.4148
G01 X7.9223 Y151.3244
G01 X7.9185 Y151.3052
G01 X7.9063 Y151.2227
G01 X7.9043 Y151.2031
G01 X7.9000 Y151.1100
G01 X7.9043 Y151.0169
G01 X7.9063 Y150.9973
G01 X7.9202 Y150.9052
G01 X7.9452 Y150.8052
G01 X7.9799 Y150.7082
G01 X8.0240 Y150.6150
G01 X8.0770 Y150.5267
G01 X8.1323 Y150.4516
G01 X8.1448 Y150.4365
G01 X8.2008 Y150.3746
G01 X8.2146 Y150.3608
G01 X8.2839 Y150.2983
G01 X8.3667 Y150.2370
G01 X8.4550 Y150.1840
G01 X8.5399 Y150.1436
G01 X8.5399 Y145.9376
G01 X7.3366 Y144.4587
G01 X7.3171 Y144.4319
G01 X7.3020 Y144.4071
G01 X7.2942 Y144.3929
G01 X7.2799 Y144.3619
G01 X7.2670 Y144.3257
G01 X7.2597 Y144.2976
G01 X7.2564 Y144.2818
G01 X7.2517 Y144.2480
G01 X7.2499 Y144.2100
G01 X7.2499 Y131.0101
G01 X5.2862 Y131.0101
G01 X5.2435 Y131.1000
G01 X5.1905 Y131.1883
G01 X5.1292 Y131.2711
G01 X5.0600 Y131.3475
G01 X4.9836 Y131.4167
G01 X4.9008 Y131.4780
G01 X4.8125 Y131.5310
G01 X4.7283 Y131.5711
G01 X4.7102 Y131.5786
G01 X4.6316 Y131.6067
G01 X4.6128 Y131.6124
G01 X4.5223 Y131.6348
G01 X4.4302 Y131.6487
G01 X4.4106 Y131.6507
G01 X4.3175 Y131.6550
G01 X4.2244 Y131.6507
G01 X4.2048 Y131.6487
G01 X4.1127 Y131.6348
G01 X4.0127 Y131.6098
G01 X3.9157 Y131.5751
G01 X3.8269 Y131.5333
G01 X3.8140 Y131.5262
G01 X3.7342 Y131.4780
G01 X3.6591 Y131.4227
G01 X3.6440 Y131.4102
G01 X3.5821 Y131.3542
G01 X3.5683 Y131.3404
G01 X3.5058 Y131.2711
G01 X3.4445 Y131.1883
G01 X3.3915 Y131.1000
G01 X3.3474 Y131.0068
G01 X3.3127 Y130.9098
G01 X3.2898 Y130.8194
G01 X3.2860 Y130.8002
G01 X3.2738 Y130.7177
G01 X3.2718 Y130.6981
G01 X3.2675 Y130.6050
G01 X3.2726 Y130.5021
G01 X3.2877 Y130.4002
G01 X3.3101 Y130.3097
G01 X3.3158 Y130.2909
G01 X3.3439 Y130.2123
G01 X3.3514 Y130.1942
G01 X3.3915 Y130.1100
G01 X3.4445 Y130.0217
G01 X3.5058 Y129.9389
G01 X3.5683 Y129.8696
G01 X3.5821 Y129.8558
G01 X3.6440 Y129.7998
G01 X3.6591 Y129.7873
G01 X3.7342 Y129.7320
G01 X3.8225 Y129.6790
G01 X3.9157 Y129.6349
G01 X4.0034 Y129.6033
G01 X4.0222 Y129.5976
G01 X4.1031 Y129.5773
G01 X4.1223 Y129.5735
G01 X4.2146 Y129.5601
G01 X4.3077 Y129.5552
G01 X4.3273 Y129.5552
G00 Z2.0000
G00 X3.2585 Y133.5950
G01 F60.00
G01 Z-0.0500
G01 F100.00
G01 X3.3699 Y133.5950
G01 X3.3871 Y133.6312
G01 X3.3938 Y133.6443
G01 X3.4392 Y133.7201
G01 X3.4472 Y133.7324
G01 X3.5058 Y133.8111
G01 X3.5750 Y133.8875
G01 X3.6514 Y133.9567
G01 X3.7301 Y134.0153
G01 X3.7424 Y134.0233
G01 X3.8182 Y134.0687
G01 X3.8313 Y134.0754
G01 X3.8675 Y134.0926
G01 X3.8675 Y134.2040
G01 X3.7403 Y134.1447
G01 X3.5755 Y134.0293
G01 X3.4332 Y133.8870
G01 X3.3178 Y133.7222
G01 X3.2585 Y133.5950
G00 Z2.0000
G00 X4.7675 Y134.0926
G01 F60.00
G01 Z-0.0500
G01 F100.00
G01 X4.8037 Y134.0754
G01 X4.8168 Y134.0687
G01 X4.8926 Y134.0233
G01 X4.9049 Y134.0153
G01 X4.9836 Y133.9567
G01 X5.0600 Y133.8875
G01 X5.1292 Y133.8111
G01 X5.1878 Y133.7324
G01 X5.1958 Y133.7201
G01 X5.2412 Y133.6443
G01 X5.2479 Y133.6312
G01 X5.2651 Y133.5950
G01 X5.3765 Y133.5950
G01 X5.3172 Y133.7222
G01 X5.2018 Y133.8870
G01 X5.0595 Y134.0293
G01 X4.8947 Y134.1447
G01 X4.7675 Y134.2040
G01 X4.7675 Y134.0926
G00 Z2.0000
G00 X3.1995 Y138.2182
G01 F60.00
G01 Z-0.0500
G01 F100.00
G01 X3.1995 Y138.0018
G01 X3.2277 Y137.7873
G01 X3.2837 Y137.5783
G01 X3.3665 Y137.3784
G01 X3.4747 Y137.1911
G01 X3.6064 Y137.0194
G01 X3.7594 Y136.8664
G01 X3.9311 Y136.7347
G01 X4.1184 Y136.6265
G01 X4.3183 Y136.5437
G01 X4.5273 Y136.4877
G01 X4.7418 Y136.4595
G01 X4.9582 Y136.4595
G01 X5.1727 Y136.4877
G01 X5.3817 Y136.5437
G01 X5.5816 Y136.6265
G01 X5.7689 Y136.7347
G01 X5.9406 Y136.8664
G01 X6.0936 Y137.0194
G01 X6.2253 Y137.1911
G01 X6.3335 Y137.3784
G01 X6.4163 Y137.5783
G01 X6.4723 Y137.7873
G01 X6.5005 Y138.0018
G01 X6.5005 Y138.2182
G01 X6.4723 Y138.4327
G01 X6.4163 Y138.6417
G01 X6.3335 Y138.8416
G01 X6.2253 Y139.0289
G01 X6.0936 Y139.2006
G01 X5.9406 Y139.3536
G01 X5.7689 Y139.4853
G01 X5.5816 Y139.5935
G01 X5.3817 Y139.6763
G01 X5.1727 Y139.7323
G01 X4.9582 Y139.7605
G01 X4.7418 Y139.7605
G01 X4.5273 Y139.7323
G01 X4.3183 Y139.6763
G01 X4.1184 Y139.5935
G01 X3.9311 Y139.4853
G01 X3.7594 Y139.3536
G01 X3.6064 Y139.2006
G01 X3.4747 Y139.0289
G01 X3.3665 Y138.8416
G01 X3.2837 Y138.6417
G01 X3.2277 Y138.4327
G01 X3.1995 Y138.2182
G00 Z2.0000
G00 X3.8798 Y150.0602
G01 F60.00
G01 Z-0.0500
G01 F100.00
G01 X3.9729 Y150.0651
G01 X4.0748 Y150.0802
G01 X4.1748 Y150.1052
G01 X4.2718 Y150.1399
G01 X4.3650 Y150.1840
G01 X4.4533 Y150.2370
G01 X4.5361 Y150.2983
G01 X4.6125 Y150.3675
G01 X4.6817 Y150.4439
G01 X4.7430 Y150.5267
G01 X4.7960 Y150.6150
G01 X4.8401 Y150.7082
G01 X4.8748 Y150.8052
G01 X4.8998 Y150.9052
G01 X4.9149 Y151.0071
G01 X4.9200 Y151.1100
G01 X4.9149 Y151.2129
G01 X4.8998 Y151.3148
G01 X4.8748 Y151.4148
G01 X4.8401 Y151.5118
G01 X4.7960 Y151.6050
G01 X4.7430 Y151.6933
G01 X4.6817 Y151.7761
G01 X4.6125 Y151.8525
G01 X4.5361 Y151.9217
G01 X4.4533 Y151.9830
G01 X4.3650 Y152.0360
G01 X4.2718 Y152.0801
G01 X4.1748 Y152.1148
G01 X4.0748 Y152.1398
G01 X3.9729 Y152.1549
G01 X3.8700 Y152.1600
G01 X3.7671 Y152.1549
G01 X3.6652 Y152.1398
G01 X3.5652 Y152.1148
G01 X3.4682 Y152.0801
G01 X3.3750 Y152.0360
G01 X3.2867 Y151.9830
G01 X3.2039 Y151.9217
G01 X3.1275 Y151.8525
G01 X3.0583 Y151.7761
G01 X2.9970 Y151.6933
G01 X2.9440 Y151.6050
G01 X2.8999 Y151.5118
G01 X2.8652 Y151.4148
G01 X2.8402 Y151.3148
G01 X2.8251 Y151.2129
G01 X2.8200 Y151.1100
G01 X2.8251 Y151.0071
G01 X2.8402 Y150.9052
G01 X2.8652 Y150.8052
G01 X2.8999 Y150.7082
G01 X2.9440 Y150.6150
G01 X2.9970 Y150.5267
G01 X3.0583 Y150.4439
G01 X3.1275 Y150.3675
G01 X3.2039 Y150.2983
G01 X3.2867 Y150.2370
G01 X3.3750 Y150.1840
G01 X3.4682 Y150.1399
G01 X3.5652 Y150.1052
G01 X3.6652 Y150.0802
G01 X3.7671 Y150.0651
G01 X3.8602 Y150.0602
G01 X3.8798 Y150.0602
G00 Z2.0000
G00 X2.7848 Y150.7150
G01 F60.00
G01 Z-0.0500
G01 F100.00
G01 X2.8698 Y150.5326
G01 X2.9853 Y150.3676
G01 X3.1276 Y150.2253
G01 X3.2925 Y150.1098
G01 X3.4750 Y150.0248
G01 X3.6695 Y149.9727
G01 X3.8700 Y149.9551
G01 X4.0705 Y149.9727
G01 X4.2650 Y150.0248
G01 X4.4474 Y150.1098
G01 X4.6124 Y150.2253
G01 X4.7547 Y150.3676
G01 X4.8746 Y150.5389
G01 X4.8832 Y150.5503
G01 X4.8894 Y150.5575
G01 X4.8993 Y150.5678
G01 X4.9099 Y150.5774
G01 X4.9681 Y150.6240
G01 X4.9842 Y150.6356
G01 X4.9970 Y150.6433
G01 X5.0059 Y150.6478
G01 X5.0241 Y150.6556
G01 X5.0431 Y150.6615
G01 X5.0577 Y150.6646
G01 X5.0724 Y150.6667
G01 X5.1419 Y150.6739
G01 X5.1617 Y150.6750
G01 X5.1816 Y150.6741
G01 X5.2012 Y150.6712
G01 X5.2205 Y150.6664
G01 X5.2392 Y150.6597
G01 X5.2527 Y150.6535
G01 X5.3237 Y150.6173
G01 X5.3401 Y150.6069
G01 X5.3554 Y150.5950
G01 X5.3626 Y150.5885
G01 X5.3728 Y150.5781
G01 X5.3927 Y150.5551
G01 X5.4024 Y150.5431
G01 X5.5253 Y150.3677
G01 X5.6676 Y150.2253
G01 X5.8325 Y150.1098
G01 X6.0150 Y150.0248
G01 X6.2095 Y149.9727
G01 X6.4100 Y149.9551
G01 X6.6105 Y149.9727
G01 X6.8050 Y150.0248
G01 X6.9874 Y150.1098
G01 X7.1524 Y150.2253
G01 X7.2947 Y150.3676
G01 X7.4146 Y150.5389
G01 X7.4202 Y150.5465
G01 X7.4294 Y150.5575
G01 X7.4393 Y150.5678
G01 X7.4499 Y150.5774
G01 X7.5120 Y150.6271
G01 X7.5201 Y150.6329
G01 X7.5327 Y150.6408
G01 X7.5504 Y150.6499
G01 X7.5688 Y150.6572
G01 X7.5831 Y150.6615
G01 X7.5928 Y150.6637
G01 X7.6124 Y150.6667
G01 X7.6869 Y150.6744
G01 X7.7067 Y150.6749
G01 X7.7166 Y150.6745
G01 X7.7314 Y150.6729
G01 X7.7461 Y150.6702
G01 X7.7605 Y150.6664
G01 X7.7746 Y150.6615
G01 X7.7883 Y150.6557
G01 X7.8637 Y150.6173
G01 X7.8720 Y150.6123
G01 X7.8840 Y150.6041
G01 X7.8990 Y150.5918
G01 X7.9128 Y150.5781
G01 X7.9327 Y150.5551
G01 X7.9424 Y150.5431
G01 X8.0653 Y150.3677
G01 X8.2076 Y150.2253
G01 X8.3052 Y150.1569
G01 X8.3200 Y150.1449
G01 X8.3335 Y150.1316
G01 X8.3428 Y150.1207
G01 X8.3923 Y150.0585
G01 X8.4003 Y150.0466
G01 X8.4052 Y150.0383
G01 X8.4136 Y150.0211
G01 X8.4204 Y150.0031
G01 X8.4244 Y149.9893
G01 X8.4265 Y149.9799
G01 X8.4374 Y149.9233
G01 X8.4390 Y149.9089
G01 X8.4395 Y149.8943
G01 X8.4395 Y146.0885
G01 X8.4390 Y146.0742
G01 X8.4381 Y146.0647
G01 X8.4349 Y146.0460
G01 X8.4314 Y146.0321
G01 X8.4117 Y145.9651
G01 X8.4053 Y145.9467
G01 X8.3993 Y145.9333
G01 X8.3924 Y145.9204
G01 X8.3846 Y145.9081
G01 X8.3703 Y145.8884
G01 X7.2884 Y144.5586
G01 X7.2733 Y144.5415
G01 X7.2612 Y144.5291
G01 X7.2500 Y144.5126
G01 X7.2402 Y144.4995
G01 X7.2307 Y144.4877
G01 X7.2249 Y144.4769
G01 X7.2159 Y144.4616
G01 X7.2065 Y144.4471
G01 X7.2006 Y144.4330
G01 X7.1937 Y144.4182
G01 X7.1846 Y144.4005
G01 X7.1810 Y144.3889
G01 X7.1751 Y144.3721
G01 X7.1687 Y144.3560
G01 X7.1657 Y144.3411
G01 X7.1618 Y144.3252
G01 X7.1563 Y144.3060
G01 X7.1551 Y144.2939
G01 X7.1526 Y144.2763
G01 X7.1495 Y144.2593
G01 X7.1494 Y144.2441
G01 X7.1487 Y144.2277
G01 X7.1471 Y144.2079
G01 X7.1486 Y144.1907
G01 X7.1495 Y144.1678
G01 X7.1495 Y131.4345
G01 X7.1490 Y131.4202
G01 X7.1475 Y131.4060
G01 X7.1449 Y131.3920
G01 X7.1427 Y131.3827
G01 X7.1203 Y131.3064
G01 X7.1170 Y131.2970
G01 X7.1112 Y131.2832
G01 X7.1020 Y131.2657
G01 X7.0910 Y131.2491
G01 X7.0785 Y131.2337
G01 X7.0645 Y131.2196
G01 X7.0003 Y131.1642
G01 X6.9839 Y131.1527
G01 X6.9665 Y131.1429
G01 X6.9482 Y131.1348
G01 X6.9292 Y131.1286
G01 X6.8680 Y131.1151
G01 X6.8492 Y131.1119
G01 X6.8398 Y131.1110
G01 X6.8255 Y131.1105
G01 X5.5272 Y131.1107
G01 X5.5082 Y131.1125
G01 X5.4896 Y131.1161
G01 X5.4087 Y131.1397
G01 X5.3952 Y131.1446
G01 X5.3820 Y131.1504
G01 X5.3652 Y131.1596
G01 X5.3532 Y131.1676
G01 X5.3418 Y131.1764
G01 X5.3311 Y131.1860
G01 X5.2931 Y131.2226
G01 X5.2832 Y131.2333
G01 X5.2713 Y131.2487
G01 X5.2022 Y131.3474
G01 X5.0599 Y131.4897
G01 X4.8843 Y131.6127
G01 X4.8768 Y131.6185
G01 X4.8660 Y131.6279
G01 X4.8593 Y131.6346
G01 X4.8497 Y131.6452
G01 X4.8031 Y131.7034
G01 X4.7942 Y131.7154
G01 X4.7838 Y131.7323
G01 X4.7793 Y131.7412
G01 X4.7733 Y131.7548
G01 X4.7669 Y131.7736
G01 X4.7644 Y131.7832
G01 X4.7616 Y131.7979
G01 X4.7524 Y131.8871
G01 X4.7523 Y131.9070
G01 X4.7542 Y131.9267
G01 X4.7580 Y131.9462
G01 X4.7622 Y131.9605
G01 X4.7655 Y131.9699
G01 X4.7736 Y131.9880
G01 X4.8074 Y132.0547
G01 X4.8174 Y132.0714
G01 X4.8289 Y132.0870
G01 X4.8386 Y132.0979
G01 X4.8490 Y132.1081
G01 X4.8719 Y132.1280
G01 X4.8840 Y132.1377
G01 X5.0595 Y132.2607
G01 X5.2018 Y132.4030
G01 X5.3172 Y132.5678
G01 X5.3765 Y132.6950
G01 X5.2651 Y132.6950
G01 X5.2479 Y132.6588
G01 X5.2412 Y132.6457
G01 X5.1958 Y132.5699
G01 X5.1878 Y132.5576
G01 X5.1292 Y132.4789
G01 X5.0667 Y132.4096
G01 X5.0564 Y132.3991
G01 X4.9836 Y132.3333
G01 X4.9008 Y132.2720
G01 X4.8125 Y132.2190
G01 X4.7283 Y132.1789
G01 X4.7148 Y132.1731
G01 X4.6223 Y132.1402
G01 X4.5223 Y132.1152
G01 X4.4204 Y132.1001
G01 X4.3175 Y132.0950
G01 X4.2146 Y132.1001
G01 X4.1127 Y132.1152
G01 X4.0127 Y132.1402
G01 X3.9202 Y132.1731
G01 X3.9112 Y132.1769
G01 X3.8991 Y132.1825
G01 X3.8017 Y132.0851
G01 X3.8350 Y132.0433
G01 X3.8436 Y132.0311
G01 X3.8488 Y132.0226
G01 X3.8557 Y132.0094
G01 X3.8617 Y131.9958
G01 X3.8667 Y131.9818
G01 X3.8716 Y131.9625
G01 X3.8747 Y131.9429
G01 X3.8818 Y131.8734
G01 X3.8828 Y131.8585
G01 X3.8827 Y131.8436
G01 X3.8808 Y131.8239
G01 X3.8770 Y131.8044
G01 X3.8712 Y131.7854
G01 X3.8636 Y131.7670
G01 X3.8299 Y131.7002
G01 X3.8228 Y131.6875
G01 X3.8176 Y131.6793
G01 X3.8091 Y131.6674
G01 X3.7964 Y131.6527
G01 X3.7824 Y131.6393
G01 X3.7591 Y131.6193
G01 X3.7510 Y131.6129
G01 X3.5751 Y131.4897
G01 X3.4328 Y131.3474
G01 X3.3173 Y131.1824
G01 X3.2323 Y131.0000
G01 X3.1802 Y130.8056
G01 X3.1626 Y130.6050
G01 X3.1801 Y130.4045
G01 X3.2323 Y130.2100
G01 X3.3173 Y130.0276
G01 X3.4328 Y129.8627
G01 X3.5457 Y129.7497
G01 X3.5581 Y129.7353
G01 X3.5666 Y129.7238
G01 X3.5717 Y129.7158
G01 X3.6100 Y129.6462
G01 X3.6186 Y129.6283
G01 X3.6239 Y129.6144
G01 X3.6281 Y129.6001
G01 X3.6313 Y129.5856
G01 X3.6338 Y129.5659
G01 X3.6343 Y129.5559
G01 X3.6342 Y129.5410
G01 X3.6285 Y129.4614
G01 X3.6256 Y129.4418
G01 X3.6234 Y129.4321
G01 X3.6193 Y129.4178
G01 X3.6141 Y129.4038
G01 X3.6100 Y129.3948
G01 X3.6056 Y129.3859
G01 X3.5980 Y129.3731
G01 X3.5895 Y129.3608
G01 X3.5477 Y129.3049
G01 X3.5414 Y129.2970
G01 X3.5348 Y129.2894
G01 X3.5278 Y129.2821
G01 X3.5204 Y129.2752
G01 X3.5127 Y129.2687
G01 X3.5047 Y129.2626
G01 X3.4964 Y129.2569
G01 X3.4878 Y129.2517
G01 X3.4482 Y129.2300
G01 X3.4353 Y129.2240
G01 X3.3220 Y129.1815
G01 X3.2528 Y129.1297
G01 X3.2010 Y129.0605
G01 X3.1696 Y128.9761
G01 X3.1670 Y128.9522
G01 X3.1670 Y127.1779
G01 X3.1696 Y127.1539
G01 X3.2010 Y127.0695
G01 X3.2528 Y127.0003
G01 X3.3220 Y126.9485
G01 X3.4064 Y126.9171
G01 X3.4303 Y126.9145
G01 X5.2047 Y126.9145
G01 X5.2286 Y126.9171
G01 X5.3130 Y126.9485
G01 X5.3822 Y127.0003
G01 X5.4340 Y127.0695
G01 X5.4654 Y127.1539
G01 X5.4680 Y127.1778
G01 X5.4680 Y128.9522
G01 X5.4654 Y128.9761
G01 X5.4340 Y129.0605
G01 X5.3822 Y129.1297
G01 X5.3130 Y129.1815
G01 X5.2041 Y129.2221
G01 X5.1910 Y129.2279
G01 X5.1743 Y129.2370
G01 X5.1586 Y129.2477
G01 X5.0987 Y129.2926
G01 X5.0837 Y129.3057
G01 X5.0701 Y129.3201
G01 X5.0580 Y129.3359
G01 X5.0500 Y129.3484
G01 X5.0408 Y129.3660
G01 X5.0351 Y129.3798
G01 X5.0107 Y129.4453
G01 X5.0060 Y129.4594
G01 X5.0024 Y129.4738
G01 X4.9998 Y129.4885
G01 X4.9988 Y129.4984
G01 X4.9981 Y129.5133
G01 X4.9985 Y129.5282
G01 X5.0008 Y129.5479
G01 X5.0175 Y129.6259
G01 X5.0199 Y129.6357
G01 X5.0228 Y129.6454
G01 X5.0261 Y129.6549
G01 X5.0321 Y129.6688
G01 X5.0366 Y129.6778
G01 X5.0416 Y129.6866
G01 X5.0498 Y129.6992
G01 X5.0768 Y129.7353
G01 X5.0893 Y129.7497
G01 X5.2022 Y129.8626
G01 X5.2811 Y129.9752
G01 X5.2900 Y129.9864
G01 X5.2963 Y129.9935
G01 X5.3064 Y130.0035
G01 X5.3136 Y130.0098
G01 X5.3718 Y130.0565
G01 X5.3834 Y130.0651
G01 X5.3955 Y130.0728
G01 X5.4082 Y130.0796
G01 X5.4214 Y130.0855
G01 X5.4349 Y130.0904
G01 X5.4487 Y130.0944
G01 X5.5099 Y130.1066
G01 X5.5243 Y130.1086
G01 X5.5389 Y130.1094
G01 X7.2165 Y130.1095
G01 X7.2318 Y130.1089
G01 X7.2420 Y130.1079
G01 X7.2521 Y130.1063
G01 X7.2670 Y130.1030
G01 X7.3476 Y130.0796
G01 X7.3572 Y130.0760
G01 X7.3665 Y130.0720
G01 X7.3757 Y130.0675
G01 X7.3877 Y130.0606
G01 X7.5155 Y130.0159
G01 X7.6500 Y130.0007
G01 X7.7940 Y130.0169
G01 X7.8082 Y130.0176
G01 X7.8225 Y130.0173
G01 X7.8414 Y130.0154
G01 X7.9198 Y130.0017
G01 X7.9391 Y129.9968
G01 X7.9531 Y129.9919
G01 X7.9668 Y129.9860
G01 X7.9800 Y129.9790
G01 X7.9926 Y129.9712
G01 X8.0085 Y129.9592
G01 X8.0709 Y129.9020
G01 X8.0809 Y129.8915
G01 X8.0902 Y129.8804
G01 X8.0986 Y129.8686
G01 X8.1062 Y129.8562
G01 X8.1128 Y129.8433
G01 X8.1185 Y129.8300
G01 X8.1246 Y129.8116
G01 X8.1422 Y129.7478
G01 X8.1446 Y129.7383
G01 X8.1473 Y129.7238
G01 X8.1490 Y129.7092
G01 X8.1495 Y129.6944
G01 X8.1495 Y111.9011
G01 X8.1490 Y111.8869
G01 X8.1481 Y111.8774
G01 X8.1459 Y111.8633
G01 X8.1427 Y111.8494
G01 X8.1217 Y111.7777
G01 X8.1186 Y111.7682
G01 X8.1151 Y111.7588
G01 X8.1089 Y111.7451
G01 X8.1042 Y111.7362
G01 X8.0991 Y111.7276
G01 X8.0906 Y111.7152
G01 X8.0739 Y111.6936
G01 X8.0621 Y111.6798
G01 X7.6133 Y111.2000
G01 X7.5995 Y111.1866
G01 X7.5844 Y111.1745
G01 X7.5269 Y111.1368
G01 X7.5145 Y111.1293
G01 X7.5016 Y111.1228
G01 X7.4883 Y111.1172
G01 X7.4280 Y111.0960
G01 X7.4159 Y111.0911
G01 X7.4026 Y111.0865
G01 X7.3267 Y111.0655
G01 X7.3072 Y111.0620
G01 X7.2874 Y111.0606
G01 X5.5717 Y111.0605
G01 X5.5575 Y111.0610
G01 X5.5386 Y111.0633
G01 X5.5292 Y111.0651
G01 X5.5154 Y111.0686
G01 X5.4483 Y111.0883
G01 X5.4302 Y111.0946
G01 X5.4128 Y111.1026
G01 X5.4002 Y111.1096
G01 X5.3882 Y111.1176
G01 X5.3768 Y111.1264
G01 X5.3661 Y111.1360
G01 X5.3281 Y111.1726
G01 X5.3214 Y111.1796
G01 X5.3121 Y111.1908
G01 X5.2022 Y111.3474
G01 X5.0599 Y111.4897
G01 X4.8843 Y111.6127
G01 X4.8731 Y111.6215
G01 X4.8593 Y111.6346
G01 X4.8467 Y111.6489
G01 X4.7970 Y111.7113
G01 X4.7862 Y111.7280
G01 X4.7815 Y111.7367
G01 X4.7752 Y111.7502
G01 X4.7699 Y111.7641
G01 X4.7669 Y111.7736
G01 X4.7624 Y111.7930
G01 X4.7603 Y111.8077
G01 X4.7532 Y111.8772
G01 X4.7522 Y111.8921
G01 X4.7521 Y111.9020
G01 X4.7535 Y111.9218
G01 X4.7550 Y111.9317
G01 X4.7580 Y111.9462
G01 X4.7638 Y111.9652
G01 X4.7714 Y111.9836
G01 X4.8074 Y112.0547
G01 X4.8147 Y112.0673
G01 X4.8259 Y112.0832
G01 X4.8353 Y112.0943
G01 X4.8454 Y112.1048
G01 X4.8719 Y112.1280
G01 X4.8799 Y112.1346
G01 X4.8882 Y112.1407
G01 X5.0595 Y112.2607
G01 X5.2018 Y112.4030
G01 X5.3172 Y112.5678
G01 X5.3765 Y112.6950
G01 X5.2651 Y112.6950
G01 X5.2479 Y112.6588
G01 X5.2412 Y112.6457
G01 X5.1958 Y112.5699
G01 X5.1878 Y112.5576
G01 X5.1292 Y112.4789
G01 X5.0634 Y112.4061
G01 X5.0529 Y112.3958
G01 X4.9910 Y112.3398
G01 X4.9759 Y112.3273
G01 X4.9008 Y112.2720
G01 X4.8168 Y112.2213
G01 X4.8037 Y112.2146
G01 X4.7193 Y112.1749
G01 X4.6316 Y112.1433
G01 X4.6128 Y112.1376
G01 X4.5223 Y112.1152
G01 X4.4302 Y112.1013
G01 X4.4106 Y112.0993
G01 X4.3175 Y112.0950
G01 X4.2244 Y112.0993
G01 X4.2048 Y112.1013
G01 X4.1127 Y112.1152
G01 X4.0222 Y112.1376
G01 X4.0034 Y112.1433
G01 X3.9157 Y112.1749
G01 X3.8313 Y112.2146
G01 X3.8182 Y112.2213
G01 X3.7342 Y112.2720
G01 X3.6591 Y112.3273
G01 X3.6440 Y112.3398
G01 X3.5821 Y112.3958
G01 X3.5716 Y112.4061
G01 X3.5058 Y112.4789
G01 X3.4472 Y112.5576
G01 X3.4392 Y112.5699
G01 X3.3938 Y112.6457
G01 X3.3871 Y112.6588
G01 X3.3699 Y112.6950
G01 X3.2585 Y112.6950
G01 X3.3178 Y112.5678
G01 X3.4332 Y112.4030
G01 X3.5755 Y112.2607
G01 X3.7468 Y112.1407
G01 X3.7582 Y112.1321
G01 X3.7654 Y112.1259
G01 X3.7757 Y112.1160
G01 X3.7853 Y112.1054
G01 X3.8380 Y112.0393
G01 X3.8488 Y112.0226
G01 X3.8578 Y112.0049
G01 X3.8651 Y111.9865
G01 X3.8706 Y111.9674
G01 X3.8741 Y111.9478
G01 X3.8818 Y111.8734
G01 X3.8826 Y111.8635
G01 X3.8829 Y111.8486
G01 X3.8815 Y111.8288
G01 X3.8781 Y111.8092
G01 X3.8728 Y111.7901
G01 X3.8676 Y111.7761
G01 X3.8614 Y111.7626
G01 X3.8253 Y111.6917
G01 X3.8149 Y111.6753
G01 X3.8029 Y111.6599
G01 X3.7964 Y111.6527
G01 X3.7860 Y111.6425
G01 X3.7631 Y111.6226
G01 X3.7510 Y111.6129
G01 X3.5751 Y111.4897
G01 X3.4328 Y111.3474
G01 X3.3173 Y111.1824
G01 X3.2323 Y111.0000
G01 X3.1802 Y110.8056
G01 X3.1626 Y110.6050
G01 X3.1801 Y110.4045
G01 X3.2323 Y110.2100
G01 X3.3173 Y110.0276
G01 X3.4328 Y109.8627
G01 X3.5457 Y109.7497
G01 X3.5552 Y109.7390
G01 X3.5610 Y109.7315
G01 X3.5717 Y109.7158
G01 X3.6123 Y109.6418
G01 X3.6205 Y109.6237
G01 X3.6268 Y109.6049
G01 X3.6313 Y109.5856
G01 X3.6334 Y109.5708
G01 X3.6344 Y109.5510
G01 X3.6339 Y109.5361
G01 X3.6280 Y109.4565
G01 X3.6256 Y109.4418
G01 X3.6234 Y109.4321
G01 X3.6177 Y109.4131
G01 X3.6100 Y109.3948
G01 X3.6056 Y109.3859
G01 X3.5980 Y109.3731
G01 X3.5895 Y109.3608
G01 X3.5446 Y109.3009
G01 X3.5348 Y109.2894
G01 X3.5278 Y109.2821
G01 X3.5204 Y109.2752
G01 X3.5127 Y109.2687
G01 X3.5047 Y109.2626
G01 X3.4964 Y109.2569
G01 X3.4878 Y109.2517
G01 X3.4482 Y109.2300
G01 X3.4353 Y109.2240
G01 X3.3220 Y109.1815
G01 X3.2528 Y109.1297
G01 X3.2010 Y109.0605
G01 X3.1696 Y108.9761
G01 X3.1670 Y108.9522
G01 X3.1670 Y107.1779
G01 X3.1696 Y107.1539
G01 X3.2010 Y107.0695
G01 X3.2528 Y107.0003
G01 X3.3220 Y106.9485
G01 X3.4064 Y106.9171
G01 X3.4303 Y106.9145
G01 X5.2047 Y106.9145
G01 X5.2286 Y106.9171
G01 X5.3130 Y106.9485
G01 X5.3822 Y107.0003
G01 X5.4340 Y107.0695
G01 X5.4654 Y107.1539
G01 X5.4680 Y107.1778
G01 X5.4680 Y108.9522
G01 X5.4654 Y108.9761
G01 X5.4340 Y109.0605
G01 X5.3822 Y109.1297
G01 X5.3130 Y109.1815
G01 X5.2041 Y109.2221
G01 X5.1868 Y109.2300
G01 X5.1743 Y109.2370
G01 X5.1586 Y109.2477
G01 X5.0987 Y109.2926
G01 X5.0837 Y109.3057
G01 X5.0734 Y109.3164
G01 X5.0639 Y109.3278
G01 X5.0526 Y109.3442
G01 X5.0429 Y109.3615
G01 X5.0369 Y109.3752
G01 X5.0107 Y109.4453
G01 X5.0060 Y109.4594
G01 X5.0024 Y109.4738
G01 X5.0006 Y109.4836
G01 X4.9988 Y109.4984
G01 X4.9982 Y109.5083
G01 X4.9985 Y109.5282
G01 X5.0008 Y109.5479
G01 X5.0175 Y109.6259
G01 X5.0199 Y109.6357
G01 X5.0244 Y109.6502
G01 X5.0280 Y109.6596
G01 X5.0321 Y109.6688
G01 X5.0366 Y109.6778
G01 X5.0416 Y109.6866
G01 X5.0498 Y109.6992
G01 X5.0768 Y109.7353
G01 X5.0893 Y109.7497
G01 X5.2022 Y109.8626
G01 X5.2461 Y109.9252
G01 X5.2549 Y109.9364
G01 X5.2613 Y109.9435
G01 X5.2714 Y109.9535
G01 X5.2786 Y109.9598
G01 X5.3368 Y110.0065
G01 X5.3484 Y110.0151
G01 X5.3605 Y110.0228
G01 X5.3732 Y110.0296
G01 X5.3863 Y110.0355
G01 X5.3999 Y110.0404
G01 X5.4137 Y110.0444
G01 X5.4749 Y110.0566
G01 X5.4893 Y110.0586
G01 X5.5038 Y110.0594
G01 X7.2716 Y110.0594
G01 X7.2818 Y110.0589
G01 X7.2920 Y110.0579
G01 X7.3021 Y110.0563
G01 X7.3120 Y110.0543
G01 X7.3928 Y110.0312
G01 X7.4072 Y110.0260
G01 X7.4165 Y110.0220
G01 X7.4257 Y110.0175
G01 X7.4377 Y110.0106
G01 X7.5655 Y109.9659
G01 X7.7000 Y109.9507
G01 X7.8345 Y109.9659
G01 X7.9622 Y110.0105
G01 X8.0768 Y110.0825
G01 X8.1725 Y110.1782
G01 X8.2445 Y110.2928
G01 X8.2871 Y110.4146
G01 X8.2928 Y110.4291
G01 X8.2972 Y110.4385
G01 X8.3021 Y110.4477
G01 X8.3312 Y110.4959
G01 X8.3368 Y110.5046
G01 X8.3461 Y110.5172
G01 X8.3563 Y110.5289
G01 X8.5889 Y110.7776
G01 X8.5990 Y110.7877
G01 X8.6136 Y110.7999
G01 X8.6292 Y110.8108
G01 X8.6935 Y110.8487
G01 X8.7110 Y110.8580
G01 X8.7295 Y110.8654
G01 X8.7437 Y110.8698
G01 X8.7582 Y110.8731
G01 X8.7779 Y110.8758
G01 X8.7978 Y110.8765
G01 X8.8775 Y110.8734
G01 X8.8923 Y110.8720
G01 X8.9021 Y110.8704
G01 X8.9166 Y110.8670
G01 X8.9309 Y110.8627
G01 X8.9448 Y110.8572
G01 X8.9538 Y110.8530
G01 X8.9669 Y110.8459
G01 X8.9794 Y110.8379
G01 X9.0407 Y110.7950
G01 X9.0561 Y110.7824
G01 X9.0668 Y110.7721
G01 X9.0767 Y110.7609
G01 X9.0857 Y110.7491
G01 X9.0938 Y110.7366
G01 X9.1010 Y110.7235
G01 X9.1072 Y110.7100
G01 X9.1338 Y110.6454
G01 X9.1403 Y110.6272
G01 X9.1439 Y110.6132
G01 X9.1473 Y110.5941
G01 X9.1485 Y110.5797
G01 X9.1495 Y110.5563
G01 X9.1495 Y92.7140
G01 X9.1490 Y92.6998
G01 X9.1481 Y92.6903
G01 X9.1467 Y92.6809
G01 X9.1439 Y92.6669
G01 X9.1203 Y92.5861
G01 X9.1155 Y92.5726
G01 X9.1097 Y92.5595
G01 X9.1005 Y92.5427
G01 X9.0897 Y92.5269
G01 X9.0648 Y92.4964
G01 X9.0517 Y92.4822
G01 X7.7030 Y91.2048
G01 X7.6888 Y91.1926
G01 X7.6736 Y91.1817
G01 X7.6212 Y91.1499
G01 X7.6046 Y91.1413
G01 X7.5872 Y91.1342
G01 X7.4780 Y91.0960
G01 X7.4659 Y91.0911
G01 X7.4526 Y91.0865
G01 X7.3767 Y91.0655
G01 X7.3572 Y91.0620
G01 X7.3424 Y91.0607
G01 X5.5717 Y91.0605
G01 X5.5622 Y91.0607
G01 X5.5480 Y91.0619
G01 X5.5386 Y91.0633
G01 X5.5246 Y91.0661
G01 X5.4392 Y91.0912
G01 X5.4214 Y91.0984
G01 X5.4085 Y91.1048
G01 X5.4002 Y91.1096
G01 X5.3844 Y91.1204
G01 X5.3696 Y91.1327
G01 X5.3281 Y91.1726
G01 X5.3214 Y91.1797
G01 X5.3121 Y91.1908
G01 X5.2022 Y91.3474
G01 X5.0599 Y91.4897
G01 X4.8843 Y91.6127
G01 X4.8696 Y91.6247
G01 X4.8560 Y91.6380
G01 X4.8467 Y91.6489
G01 X4.8000 Y91.7074
G01 X4.7914 Y91.7195
G01 X4.7862 Y91.7280
G01 X4.7772 Y91.7457
G01 X4.7699 Y91.7641
G01 X4.7644 Y91.7832
G01 X4.7609 Y91.8028
G01 X4.7532 Y91.8772
G01 X4.7522 Y91.8921
G01 X4.7521 Y91.9020
G01 X4.7530 Y91.9169
G01 X4.7550 Y91.9317
G01 X4.7569 Y91.9414
G01 X4.7593 Y91.9510
G01 X4.7638 Y91.9652
G01 X4.7714 Y91.9836
G01 X4.8074 Y92.0547
G01 X4.8147 Y92.0673
G01 X4.8201 Y92.0754
G01 X4.8289 Y92.0870
G01 X4.8420 Y92.1014
G01 X4.8526 Y92.1113
G01 X4.8799 Y92.1346
G01 X4.8882 Y92.1407
G01 X5.0595 Y92.2607
G01 X5.2018 Y92.4030
G01 X5.3172 Y92.5678
G01 X5.3765 Y92.6950
G01 X5.2651 Y92.6950
G01 X5.2479 Y92.6588
G01 X5.2412 Y92.6457
G01 X5.1958 Y92.5699
G01 X5.1878 Y92.5576
G01 X5.1292 Y92.4789
G01 X5.0634 Y92.4061
G01 X5.0529 Y92.3958
G01 X4.9910 Y92.3398
G01 X4.9759 Y92.3273
G01 X4.9008 Y92.2720
G01 X4.8168 Y92.2213
G01 X4.8037 Y92.2146
G01 X4.7193 Y92.1749
G01 X4.6316 Y92.1433
G01 X4.6128 Y92.1376
G01 X4.5223 Y92.1152
G01 X4.4302 Y92.1013
G01 X4.4106 Y92.0993
G01 X4.3175 Y92.0950
G01 X4.2244 Y92.0993
G01 X4.2048 Y92.1013
G01 X4.1127 Y92.1152
G01 X4.0222 Y92.1376
G01 X4.0034 Y92.1433
G01 X3.9157 Y92.1749
G01 X3.8313 Y92.2146
G01 X3.8182 Y92.2213
G01 X3.7342 Y92.2720
G01 X3.6591 Y92.3273
G01 X3.6440 Y92.3398
G01 X3.5821 Y92.3958
G01 X3.5716 Y92.4061
G01 X3.5058 Y92.4789
G01 X3.4472 Y92.5576
G01 X3.4392 Y92.5699
G01 X3.3938 Y92.6457
G01 X3.3871 Y92.6588
G01 X3.3699 Y92.6950
G01 X3.2585 Y92.6950
G01 X3.3178 Y92.5678
G01 X3.4332 Y92.4030
G01 X3.5755 Y92.2607
G01 X3.7468 Y92.1407
G01 X3.7545 Y92.1351
G01 X3.7654 Y92.1259
G01 X3.7757 Y92.1160
G01 X3.7853 Y92.1054
G01 X3.8380 Y92.0393
G01 X3.8488 Y92.0226
G01 X3.8578 Y92.0049
G01 X3.8651 Y91.9865
G01 X3.8706 Y91.9674
G01 X3.8741 Y91.9478
G01 X3.8818 Y91.8734
G01 X3.8826 Y91.8635
G01 X3.8829 Y91.8486
G01 X3.8815 Y91.8288
G01 X3.8781 Y91.8092
G01 X3.8728 Y91.7901
G01 X3.8676 Y91.7761
G01 X3.8614 Y91.7626
G01 X3.8253 Y91.6917
G01 X3.8149 Y91.6753
G01 X3.8029 Y91.6599
G01 X3.7964 Y91.6527
G01 X3.7860 Y91.6425
G01 X3.7631 Y91.6226
G01 X3.7510 Y91.6129
G01 X3.5751 Y91.4897
G01 X3.4328 Y91.3474
G01 X3.3173 Y91.1824
G01 X3.2323 Y91.0000
G01 X3.1802 Y90.8056
G01 X3.1626 Y90.6050
G01 X3.1801 Y90.4045
G01 X3.2323 Y90.2100
G01 X3.3173 Y90.0276
G01 X3.4328 Y89.8627
G01 X3.5457 Y89.7497
G01 X3.5581 Y89.7353
G01 X3.5666 Y89.7238
G01 X3.5717 Y89.7158
G01 X3.6123 Y89.6418
G01 X3.6205 Y89.6237
G01 X3.6268 Y89.6049
G01 X3.6313 Y89.5856
G01 X3.6334 Y89.5708
G01 X3.6344 Y89.5510
G01 X3.6339 Y89.5361
G01 X3.6280 Y89.4565
G01 X3.6256 Y89.4418
G01 X3.6234 Y89.4321
G01 X3.6177 Y89.4131
G01 X3.6100 Y89.3948
G01 X3.6056 Y89.3859
G01 X3.5980 Y89.3731
G01 X3.5895 Y89.3608
G01 X3.5446 Y89.3009
G01 X3.5348 Y89.2894
G01 X3.5278 Y89.2821
G01 X3.5204 Y89.2752
G01 X3.5127 Y89.2687
G01 X3.5047 Y89.2626
G01 X3.4964 Y89.2569
G01 X3.4878 Y89.2517
G01 X3.4482 Y89.2300
G01 X3.4353 Y89.2240
G01 X3.3220 Y89.1815
G01 X3.2528 Y89.1297
G01 X3.2010 Y89.0605
G01 X3.1696 Y88.9761
G01 X3.1670 Y88.9522
G01 X3.1670 Y87.1779
G01 X3.1696 Y87.1539
G01 X3.2010 Y87.0695
G01 X3.2528 Y87.0003
G01 X3.3220 Y86.9485
G01 X3.4064 Y86.9171
G01 X3.4303 Y86.9145
G01 X5.2047 Y86.9145
G01 X5.2286 Y86.9171
G01 X5.3130 Y86.9485
G01 X5.3822 Y87.0003
G01 X5.4340 Y87.0695
G01 X5.4654 Y87.1539
G01 X5.4680 Y87.1778
G01 X5.4680 Y88.9522
G01 X5.4654 Y88.9761
G01 X5.4340 Y89.0605
G01 X5.3822 Y89.1297
G01 X5.3130 Y89.1815
G01 X5.2041 Y89.2221
G01 X5.1868 Y89.2300
G01 X5.1743 Y89.2370
G01 X5.1586 Y89.2477
G01 X5.0987 Y89.2926
G01 X5.0837 Y89.3057
G01 X5.0734 Y89.3164
G01 X5.0639 Y89.3278
G01 X5.0526 Y89.3442
G01 X5.0429 Y89.3615
G01 X5.0369 Y89.3752
G01 X5.0107 Y89.4453
G01 X5.0060 Y89.4594
G01 X5.0024 Y89.4738
G01 X5.0006 Y89.4836
G01 X4.9988 Y89.4984
G01 X4.9982 Y89.5083
G01 X4.9985 Y89.5282
G01 X5.0008 Y89.5479
G01 X5.0175 Y89.6259
G01 X5.0199 Y89.6357
G01 X5.0244 Y89.6502
G01 X5.0280 Y89.6596
G01 X5.0321 Y89.6688
G01 X5.0366 Y89.6778
G01 X5.0416 Y89.6866
G01 X5.0498 Y89.6992
G01 X5.0768 Y89.7353
G01 X5.0893 Y89.7497
G01 X5.2022 Y89.8626
G01 X5.2461 Y89.9252
G01 X5.2549 Y89.9364
G01 X5.2613 Y89.9435
G01 X5.2714 Y89.9535
G01 X5.2823 Y89.9628
G01 X5.3406 Y90.0094
G01 X5.3564 Y90.0203
G01 X5.3689 Y90.0274
G01 X5.3819 Y90.0336
G01 X5.3953 Y90.0389
G01 X5.4091 Y90.0432
G01 X5.4231 Y90.0465
G01 X5.4749 Y90.0566
G01 X5.4893 Y90.0586
G01 X5.5038 Y90.0594
G01 X7.3216 Y90.0594
G01 X7.3318 Y90.0589
G01 X7.3420 Y90.0579
G01 X7.3521 Y90.0563
G01 X7.3620 Y90.0543
G01 X7.4428 Y90.0312
G01 X7.4524 Y90.0279
G01 X7.4665 Y90.0220
G01 X7.4757 Y90.0175
G01 X7.4877 Y90.0106
G01 X7.6155 Y89.9659
G01 X7.7500 Y89.9507
G01 X7.8845 Y89.9659
G01 X8.0122 Y90.0105
G01 X8.1268 Y90.0825
G01 X8.2225 Y90.1782
G01 X8.2945 Y90.2928
G01 X8.3190 Y90.3629
G01 X8.3266 Y90.3804
G01 X8.3333 Y90.3930
G01 X8.3727 Y90.4541
G01 X8.3842 Y90.4693
G01 X8.3937 Y90.4800
G01 X9.4527 Y91.4832
G01 X9.4598 Y91.4895
G01 X9.4709 Y91.4985
G01 X9.4867 Y91.5091
G01 X9.4992 Y91.5160
G01 X9.5614 Y91.5478
G01 X9.5749 Y91.5541
G01 X9.5889 Y91.5594
G01 X9.6031 Y91.5636
G01 X9.6177 Y91.5667
G01 X9.6325 Y91.5688
G01 X9.6473 Y91.5697
G01 X9.6672 Y91.5692
G01 X9.7515 Y91.5607
G01 X9.7710 Y91.5568
G01 X9.7853 Y91.5526
G01 X9.7992 Y91.5473
G01 X9.8128 Y91.5411
G01 X9.8300 Y91.5312
G01 X9.8422 Y91.5227
G01 X9.9048 Y91.4732
G01 X9.9159 Y91.4632
G01 X9.9262 Y91.4524
G01 X9.9356 Y91.4410
G01 X9.9442 Y91.4288
G01 X9.9543 Y91.4116
G01 X9.9625 Y91.3936
G01 X9.9901 Y91.3137
G01 X9.9939 Y91.3000
G01 X9.9974 Y91.2814
G01 X9.9989 Y91.2673
G01 X9.9995 Y91.2479
G01 X9.9995 Y73.6015
G01 X9.9990 Y73.5873
G01 X9.9975 Y73.5731
G01 X9.9949 Y73.5590
G01 X9.9914 Y73.5452
G01 X9.9703 Y73.4734
G01 X9.9653 Y73.4596
G01 X9.9593 Y73.4462
G01 X9.9523 Y73.4332
G01 X9.9415 Y73.4168
G01 X9.9189 Y73.3883
G01 X9.9083 Y73.3763
G01 X7.7309 Y71.1988
G01 X7.7158 Y71.1858
G01 X7.7036 Y71.1770
G01 X7.6484 Y71.1424
G01 X7.6353 Y71.1352
G01 X7.6263 Y71.1310
G01 X7.6124 Y71.1255
G01 X7.5280 Y71.0960
G01 X7.5158 Y71.0910
G01 X7.5026 Y71.0865
G01 X7.4315 Y71.0666
G01 X7.4170 Y71.0635
G01 X7.4072 Y71.0620
G01 X7.3924 Y71.0607
G01 X7.3825 Y71.0605
G01 X5.5670 Y71.0606
G01 X5.5575 Y71.0610
G01 X5.5433 Y71.0625
G01 X5.5246 Y71.0661
G01 X5.4392 Y71.0912
G01 X5.4258 Y71.0964
G01 X5.4085 Y71.1048
G01 X5.3962 Y71.1122
G01 X5.3806 Y71.1234
G01 X5.3696 Y71.1327
G01 X5.3316 Y71.1692
G01 X5.3214 Y71.1797
G01 X5.3151 Y71.1870
G01 X5.3063 Y71.1987
G01 X5.2022 Y71.3474
G01 X5.0599 Y71.4897
G01 X4.8843 Y71.6127
G01 X4.8731 Y71.6215
G01 X4.8626 Y71.6312
G01 X4.8528 Y71.6416
G01 X4.8467 Y71.6489
G01 X4.8031 Y71.7034
G01 X4.7942 Y71.7154
G01 X4.7838 Y71.7323
G01 X4.7793 Y71.7412
G01 X4.7733 Y71.7548
G01 X4.7699 Y71.7641
G01 X4.7656 Y71.7784
G01 X4.7616 Y71.7979
G01 X4.7532 Y71.8772
G01 X4.7521 Y71.8970
G01 X4.7530 Y71.9169
G01 X4.7559 Y71.9365
G01 X4.7607 Y71.9558
G01 X4.7655 Y71.9699
G01 X4.7736 Y71.9880
G01 X4.8074 Y72.0547
G01 X4.8174 Y72.0714
G01 X4.8259 Y72.0832
G01 X4.8353 Y72.0943
G01 X4.8454 Y72.1048
G01 X4.8719 Y72.1280
G01 X4.8799 Y72.1346
G01 X4.8882 Y72.1407
G01 X5.0595 Y72.2607
G01 X5.2018 Y72.4030
G01 X5.3172 Y72.5678
G01 X5.3765 Y72.6950
G01 X5.2651 Y72.6950
G01 X5.2479 Y72.6588
G01 X5.2412 Y72.6457
G01 X5.1958 Y72.5699
G01 X5.1878 Y72.5576
G01 X5.1292 Y72.4789
G01 X5.0634 Y72.4061
G01 X5.0529 Y72.3958
G01 X4.9910 Y72.3398
G01 X4.9759 Y72.3273
G01 X4.9008 Y72.2720
G01 X4.8168 Y72.2213
G01 X4.8037 Y72.2146
G01 X4.7193 Y72.1749
G01 X4.6316 Y72.1433
G01 X4.6128 Y72.1376
G01 X4.5223 Y72.1152
G01 X4.4302 Y72.1013
G01 X4.4106 Y72.0993
G01 X4.3175 Y72.0950
G01 X4.2244 Y72.0993
G01 X4.2048 Y72.1013
G01 X4.1127 Y72.1152
G01 X4.0222 Y72.1376
G01 X4.0034 Y72.1433
G01 X3.9157 Y72.1749
G01 X3.8313 Y72.2146
G01 X3.8182 Y72.2213
G01 X3.7342 Y72.2720
G01 X3.6591 Y72.3273
G01 X3.6440 Y72.3398
G01 X3.5821 Y72.3958
G01 X3.5716 Y72.4061
G01 X3.5058 Y72.4789
G01 X3.4472 Y72.5576
G01 X3.4392 Y72.5699
G01 X3.3938 Y72.6457
G01 X3.3871 Y72.6588
G01 X3.3699 Y72.6950
G01 X3.2585 Y72.6950
G01 X3.3178 Y72.5678
G01 X3.4332 Y72.4030
G01 X3.5755 Y72.2607
G01 X3.7468 Y72.1407
G01 X3.7582 Y72.1321
G01 X3.7654 Y72.1259
G01 X3.7757 Y72.1160
G01 X3.7853 Y72.1054
G01 X3.8380 Y72.0393
G01 X3.8488 Y72.0226
G01 X3.8578 Y72.0049
G01 X3.8651 Y71.9865
G01 X3.8706 Y71.9674
G01 X3.8741 Y71.9478
G01 X3.8818 Y71.8734
G01 X3.8828 Y71.8585
G01 X3.8829 Y71.8486
G01 X3.8815 Y71.8288
G01 X3.8781 Y71.8092
G01 X3.8728 Y71.7901
G01 X3.8676 Y71.7761
G01 X3.8614 Y71.7626
G01 X3.8253 Y71.6917
G01 X3.8149 Y71.6753
G01 X3.8029 Y71.6599
G01 X3.7964 Y71.6527
G01 X3.7860 Y71.6425
G01 X3.7631 Y71.6226
G01 X3.7510 Y71.6129
G01 X3.5751 Y71.4897
G01 X3.4328 Y71.3474
G01 X3.3173 Y71.1824
G01 X3.2323 Y71.0000
G01 X3.1802 Y70.8056
G01 X3.1626 Y70.6050
G01 X3.1801 Y70.4045
G01 X3.2323 Y70.2100
G01 X3.3173 Y70.0276
G01 X3.4328 Y69.8627
G01 X3.5457 Y69.7497
G01 X3.5581 Y69.7353
G01 X3.5666 Y69.7238
G01 X3.5717 Y69.7158
G01 X3.6123 Y69.6418
G01 X3.6205 Y69.6237
G01 X3.6268 Y69.6049
G01 X3.6313 Y69.5856
G01 X3.6338 Y69.5659
G01 X3.6344 Y69.5510
G01 X3.6339 Y69.5361
G01 X3.6280 Y69.4565
G01 X3.6256 Y69.4418
G01 X3.6234 Y69.4321
G01 X3.6177 Y69.4131
G01 X3.6100 Y69.3948
G01 X3.6056 Y69.3859
G01 X3.5980 Y69.3731
G01 X3.5895 Y69.3608
G01 X3.5446 Y69.3009
G01 X3.5382 Y69.2931
G01 X3.5313 Y69.2857
G01 X3.5204 Y69.2752
G01 X3.5127 Y69.2687
G01 X3.5047 Y69.2626
G01 X3.4964 Y69.2569
G01 X3.4878 Y69.2517
G01 X3.4482 Y69.2300
G01 X3.4353 Y69.2240
G01 X3.3220 Y69.1815
G01 X3.2528 Y69.1297
G01 X3.2010 Y69.0605
G01 X3.1696 Y68.9761
G01 X3.1670 Y68.9522
G01 X3.1670 Y67.1779
G01 X3.1696 Y67.1539
G01 X3.2010 Y67.0695
G01 X3.2528 Y67.0003
G01 X3.3220 Y66.9485
G01 X3.4064 Y66.9171
G01 X3.4303 Y66.9145
G01 X5.2047 Y66.9145
G01 X5.2286 Y66.9171
G01 X5.3130 Y66.9485
G01 X5.3822 Y67.0003
G01 X5.4340 Y67.0695
G01 X5.4654 Y67.1539
G01 X5.4680 Y67.1778
G01 X5.4680 Y68.9522
G01 X5.4654 Y68.9761
G01 X5.4340 Y69.0605
G01 X5.3822 Y69.1297
G01 X5.3130 Y69.1815
G01 X5.2041 Y69.2221
G01 X5.1868 Y69.2300
G01 X5.1743 Y69.2370
G01 X5.1586 Y69.2477
G01 X5.0987 Y69.2926
G01 X5.0873 Y69.3022
G01 X5.0734 Y69.3164
G01 X5.0609 Y69.3318
G01 X5.0526 Y69.3442
G01 X5.0452 Y69.3571
G01 X5.0369 Y69.3752
G01 X5.0107 Y69.4453
G01 X5.0060 Y69.4594
G01 X5.0035 Y69.4690
G01 X5.0006 Y69.4836
G01 X4.9992 Y69.4935
G01 X4.9982 Y69.5083
G01 X4.9985 Y69.5282
G01 X5.0008 Y69.5479
G01 X5.0175 Y69.6259
G01 X5.0199 Y69.6357
G01 X5.0228 Y69.6454
G01 X5.0261 Y69.6549
G01 X5.0321 Y69.6688
G01 X5.0390 Y69.6822
G01 X5.0442 Y69.6908
G01 X5.0498 Y69.6992
G01 X5.0768 Y69.7353
G01 X5.0893 Y69.7497
G01 X5.2022 Y69.8626
G01 X5.2461 Y69.9252
G01 X5.2549 Y69.9364
G01 X5.2613 Y69.9435
G01 X5.2714 Y69.9535
G01 X5.2823 Y69.9628
G01 X5.3368 Y70.0065
G01 X5.3524 Y70.0177
G01 X5.3647 Y70.0252
G01 X5.3775 Y70.0317
G01 X5.3908 Y70.0373
G01 X5.4091 Y70.0432
G01 X5.4231 Y70.0465
G01 X5.4749 Y70.0566
G01 X5.4893 Y70.0586
G01 X5.5038 Y70.0594
G01 X7.3716 Y70.0594
G01 X7.3818 Y70.0589
G01 X7.3920 Y70.0579
G01 X7.4021 Y70.0563
G01 X7.4120 Y70.0543
G01 X7.4928 Y70.0312
G01 X7.5072 Y70.0260
G01 X7.5165 Y70.0220
G01 X7.5257 Y70.0175
G01 X7.5377 Y70.0106
G01 X7.6655 Y69.9659
G01 X7.8000 Y69.9507
G01 X7.9345 Y69.9659
G01 X8.0622 Y70.0105
G01 X8.1768 Y70.0825
G01 X8.2725 Y70.1782
G01 X8.3445 Y70.2928
G01 X8.3776 Y70.3874
G01 X8.3834 Y70.4012
G01 X8.3903 Y70.4145
G01 X8.4274 Y70.4740
G01 X8.4361 Y70.4861
G01 X8.4492 Y70.5013
G01 X10.3464 Y72.3986
G01 X10.3568 Y72.4083
G01 X10.3680 Y72.4173
G01 X10.3757 Y72.4228
G01 X10.3878 Y72.4304
G01 X10.4621 Y72.4707
G01 X10.4758 Y72.4767
G01 X10.4898 Y72.4816
G01 X10.5042 Y72.4855
G01 X10.5188 Y72.4883
G01 X10.5386 Y72.4904
G01 X10.5535 Y72.4906
G01 X10.6430 Y72.4842
G01 X10.6577 Y72.4819
G01 X10.6722 Y72.4784
G01 X10.6864 Y72.4739
G01 X10.7047 Y72.4663
G01 X10.7179 Y72.4594
G01 X10.7347 Y72.4487
G01 X10.8024 Y72.3978
G01 X10.8135 Y72.3878
G01 X10.8239 Y72.3771
G01 X10.8334 Y72.3656
G01 X10.8420 Y72.3535
G01 X10.8521 Y72.3364
G01 X10.8585 Y72.3229
G01 X10.8898 Y72.2389
G01 X10.8938 Y72.2246
G01 X10.8974 Y72.2052
G01 X10.8988 Y72.1904
G01 X10.8995 Y72.1695
G01 X10.8995 Y54.6015
G01 X10.8986 Y54.5825
G01 X10.8967 Y54.5684
G01 X10.8949 Y54.5590
G01 X10.8914 Y54.5452
G01 X10.8717 Y54.4781
G01 X10.8670 Y54.4642
G01 X10.8614 Y54.4506
G01 X10.8547 Y54.4375
G01 X10.8497 Y54.4290
G01 X10.8415 Y54.4168
G01 X10.8355 Y54.4090
G01 X10.8155 Y54.3842
G01 X10.8046 Y54.3724
G01 X7.6309 Y51.1988
G01 X7.6158 Y51.1858
G01 X7.6036 Y51.1770
G01 X7.5484 Y51.1424
G01 X7.5397 Y51.1375
G01 X7.5263 Y51.1310
G01 X7.5124 Y51.1255
G01 X7.4280 Y51.0960
G01 X7.4158 Y51.0910
G01 X7.4070 Y51.0879
G01 X7.3267 Y51.0655
G01 X7.3170 Y51.0635
G01 X7.3023 Y51.0615
G01 X7.2825 Y51.0605
G01 X5.5670 Y51.0606
G01 X5.5480 Y51.0619
G01 X5.5339 Y51.0641
G01 X5.5246 Y51.0661
G01 X5.4392 Y51.0912
G01 X5.4214 Y51.0984
G01 X5.4043 Y51.1072
G01 X5.3882 Y51.1176
G01 X5.3768 Y51.1264
G01 X5.3661 Y51.1360
G01 X5.3281 Y51.1726
G01 X5.3182 Y51.1833
G01 X5.3121 Y51.1908
G01 X5.2022 Y51.3474
G01 X5.0599 Y51.4897
G01 X4.8843 Y51.6127
G01 X4.8731 Y51.6215
G01 X4.8626 Y51.6312
G01 X4.8528 Y51.6416
G01 X4.8467 Y51.6489
G01 X4.8031 Y51.7034
G01 X4.7942 Y51.7154
G01 X4.7862 Y51.7280
G01 X4.7815 Y51.7367
G01 X4.7733 Y51.7548
G01 X4.7669 Y51.7736
G01 X4.7634 Y51.7881
G01 X4.7616 Y51.7979
G01 X4.7532 Y51.8772
G01 X4.7521 Y51.8970
G01 X4.7530 Y51.9169
G01 X4.7550 Y51.9317
G01 X4.7593 Y51.9510
G01 X4.7655 Y51.9699
G01 X4.7736 Y51.9880
G01 X4.8074 Y52.0547
G01 X4.8147 Y52.0673
G01 X4.8259 Y52.0832
G01 X4.8353 Y52.0943
G01 X4.8454 Y52.1048
G01 X4.8719 Y52.1280
G01 X4.8799 Y52.1346
G01 X4.8882 Y52.1407
G01 X5.0595 Y52.2607
G01 X5.2018 Y52.4030
G01 X5.3172 Y52.5678
G01 X5.3765 Y52.6950
G01 X5.2651 Y52.6950
G01 X5.2479 Y52.6588
G01 X5.2412 Y52.6457
G01 X5.1958 Y52.5699
G01 X5.1878 Y52.5576
G01 X5.1292 Y52.4789
G01 X5.0634 Y52.4061
G01 X5.0529 Y52.3958
G01 X4.9910 Y52.3398
G01 X4.9759 Y52.3273
G01 X4.9008 Y52.2720
G01 X4.8168 Y52.2213
G01 X4.8037 Y52.2146
G01 X4.7193 Y52.1749
G01 X4.6316 Y52.1433
G01 X4.6128 Y52.1376
G01 X4.5223 Y52.1152
G01 X4.4302 Y52.1013
G01 X4.4106 Y52.0993
G01 X4.3175 Y52.0950
G01 X4.2244 Y52.0993
G01 X4.2048 Y52.1013
G01 X4.1127 Y52.1152
G01 X4.0222 Y52.1376
G01 X4.0034 Y52.1433
G01 X3.9157 Y52.1749
G01 X3.8313 Y52.2146
G01 X3.8182 Y52.2213
G01 X3.7342 Y52.2720
G01 X3.6591 Y52.3273
G01 X3.6440 Y52.3398
G01 X3.5821 Y52.3958
G01 X3.5716 Y52.4061
