(G-CODE GENERATED BY FLATCAM v8.994 - www.flatcam.org - Version Date: 2020/11/7)

(Name: Beecounter-User_5.gbr_edit_iso_combined_cnc)
(Type: G-code from Geometry)
(Units: MM)

(Created on Monday, 16 December 2024 at 16:08)

(This preprocessor is the default preprocessor used by FlatCAM.)
(It is made to work with MACH3 compatible motion controllers.)

(TOOL DIAMETER: 1.5 mm)
(Feedrate_XY: 120.0 mm/min)
(Feedrate_Z: 60.0 mm/min)
(Feedrate rapids 1500.0 mm/min)

(Z_Cut: -1.3062 mm)
(Z_Move: 2.0 mm)
(Z Start: None mm)
(Z End: 15.0 mm)
(X,Y End: None mm)
(Steps per circle: 64)
(Preprocessor Geometry: default)

(X range:    4.0300 ...   55.7500  mm)
(Y range:    7.1700 ...  138.6600  mm)

(Spindle Speed: 0.0 RPM)
G21
G90
G94

G01 F120.00

M5
G00 Z15.0000
G00 X0.0000 Y0.0000
T1
M6    
(MSG, Change to Tool Dia = 1.5000)
M0
G00 Z15.0000

M03
G01 F120.00
G00 X5.7200 Y17.1700
G01 F60.00
G01 Z-1.3062
G01 F120.00
G01 X5.7200 Y8.7700
G01 X8.1200 Y8.7700
G01 X8.1200 Y17.1700
G01 X5.7200 Y17.1700
G00 Z2.0000
G00 X4.1200 Y17.9700
G01 F60.00
G01 Z-1.3062
G01 F120.00
G01 X4.1200 Y7.9700
G01 X4.1202 Y7.9516
G01 X4.1211 Y7.9283
G01 X4.1238 Y7.8916
G01 X4.1259 Y7.8733
G01 X4.1291 Y7.8502
G01 X4.1353 Y7.8139
G01 X4.1392 Y7.7959
G01 X4.1493 Y7.7554
G01 X4.1600 Y7.7202
G01 X4.1660 Y7.7028
G01 X4.1740 Y7.6809
G01 X4.1809 Y7.6638
G01 X4.1881 Y7.6469
G01 X4.1979 Y7.6258
G01 X4.2144 Y7.5929
G01 X4.2233 Y7.5767
G01 X4.2351 Y7.5566
G01 X4.2548 Y7.5255
G01 X4.2652 Y7.5104
G01 X4.2789 Y7.4915
G01 X4.3016 Y7.4625
G01 X4.3134 Y7.4484
G01 X4.3289 Y7.4310
G01 X4.3543 Y7.4043
G01 X4.3675 Y7.3914
G01 X4.3846 Y7.3756
G01 X4.3984 Y7.3634
G01 X4.4268 Y7.3401
G01 X4.4454 Y7.3260
G01 X4.4755 Y7.3048
G01 X4.4910 Y7.2948
G01 X4.5108 Y7.2826
G01 X4.5267 Y7.2733
G01 X4.5592 Y7.2560
G01 X4.5802 Y7.2458
G01 X4.6138 Y7.2309
G01 X4.6309 Y7.2240
G01 X4.6528 Y7.2160
G01 X4.6702 Y7.2100
G01 X4.7054 Y7.1993
G01 X4.7280 Y7.1934
G01 X4.7639 Y7.1853
G01 X4.7820 Y7.1820
G01 X4.8050 Y7.1783
G01 X4.8416 Y7.1738
G01 X4.8599 Y7.1722
G01 X4.8832 Y7.1709
G01 X4.9200 Y7.1700
G01 X8.9384 Y7.1702
G01 X8.9801 Y7.1722
G01 X9.0167 Y7.1759
G01 X9.0580 Y7.1820
G01 X9.0941 Y7.1892
G01 X9.1120 Y7.1934
G01 X9.1346 Y7.1993
G01 X9.1522 Y7.2044
G01 X9.1872 Y7.2160
G01 X9.2091 Y7.2240
G01 X9.2262 Y7.2309
G01 X9.2431 Y7.2381
G01 X9.2642 Y7.2479
G01 X9.2808 Y7.2560
G01 X9.3133 Y7.2733
G01 X9.3334 Y7.2851
G01 X9.3645 Y7.3048
G01 X9.3946 Y7.3260
G01 X9.4132 Y7.3401
G01 X9.4275 Y7.3516
G01 X9.4554 Y7.3756
G01 X9.4725 Y7.3914
G01 X9.4857 Y7.4043
G01 X9.5111 Y7.4310
G01 X9.5266 Y7.4484
G01 X9.5499 Y7.4768
G01 X9.5640 Y7.4954
G01 X9.5748 Y7.5104
G01 X9.5952 Y7.5410
G01 X9.6074 Y7.5608
G01 X9.6256 Y7.5929
G01 X9.6340 Y7.6092
G01 X9.6442 Y7.6302
G01 X9.6591 Y7.6638
G01 X9.6660 Y7.6809
G01 X9.6740 Y7.7028
G01 X9.6856 Y7.7378
G01 X9.6954 Y7.7732
G01 X9.7008 Y7.7959
G01 X9.7080 Y7.8320
G01 X9.7109 Y7.8502
G01 X9.7141 Y7.8733
G01 X9.7162 Y7.8916
G01 X9.7189 Y7.9283
G01 X9.7198 Y7.9516
G01 X9.7200 Y17.9700
G01 X9.7198 Y17.9884
G01 X9.7189 Y18.0117
G01 X9.7162 Y18.0484
G01 X9.7141 Y18.0667
G01 X9.7109 Y18.0898
G01 X9.7080 Y18.1080
G01 X9.7008 Y18.1441
G01 X9.6907 Y18.1846
G01 X9.6800 Y18.2198
G01 X9.6740 Y18.2372
G01 X9.6660 Y18.2591
G01 X9.6591 Y18.2762
G01 X9.6519 Y18.2931
G01 X9.6421 Y18.3142
G01 X9.6340 Y18.3308
G01 X9.6167 Y18.3633
G01 X9.6049 Y18.3834
G01 X9.5852 Y18.4145
G01 X9.5748 Y18.4296
G01 X9.5611 Y18.4485
G01 X9.5384 Y18.4775
G01 X9.5266 Y18.4916
G01 X9.4986 Y18.5225
G01 X9.4857 Y18.5357
G01 X9.4590 Y18.5611
G01 X9.4416 Y18.5766
G01 X9.4275 Y18.5884
G01 X9.3985 Y18.6111
G01 X9.3796 Y18.6248
G01 X9.3645 Y18.6352
G01 X9.3334 Y18.6549
G01 X9.3133 Y18.6667
G01 X9.2971 Y18.6756
G01 X9.2642 Y18.6921
G01 X9.2431 Y18.7019
G01 X9.2262 Y18.7091
G01 X9.1918 Y18.7224
G01 X9.1698 Y18.7300
G01 X9.1522 Y18.7356
G01 X9.1168 Y18.7454
G01 X9.0941 Y18.7508
G01 X9.0580 Y18.7580
G01 X9.0398 Y18.7609
G01 X9.0167 Y18.7641
G01 X8.9984 Y18.7662
G01 X8.9617 Y18.7689
G01 X8.9384 Y18.7698
G01 X8.9200 Y18.7700
G01 X4.9200 Y18.7700
G01 X4.8832 Y18.7691
G01 X4.8599 Y18.7678
G01 X4.8233 Y18.7641
G01 X4.7820 Y18.7580
G01 X4.7459 Y18.7508
G01 X4.7054 Y18.7407
G01 X4.6702 Y18.7300
G01 X4.6309 Y18.7160
G01 X4.5969 Y18.7019
G01 X4.5758 Y18.6921
G01 X4.5429 Y18.6756
G01 X4.5267 Y18.6667
G01 X4.5066 Y18.6549
G01 X4.4755 Y18.6352
G01 X4.4604 Y18.6248
G01 X4.4415 Y18.6111
G01 X4.4125 Y18.5884
G01 X4.3846 Y18.5644
G01 X4.3675 Y18.5486
G01 X4.3543 Y18.5357
G01 X4.3289 Y18.5090
G01 X4.3134 Y18.4916
G01 X4.2901 Y18.4632
G01 X4.2652 Y18.4296
G01 X4.2448 Y18.3990
G01 X4.2233 Y18.3633
G01 X4.2060 Y18.3308
G01 X4.1881 Y18.2931
G01 X4.1740 Y18.2591
G01 X4.1660 Y18.2372
G01 X4.1544 Y18.2022
G01 X4.1493 Y18.1846
G01 X4.1434 Y18.1620
G01 X4.1353 Y18.1261
G01 X4.1291 Y18.0898
G01 X4.1259 Y18.0667
G01 X4.1238 Y18.0484
G01 X4.1211 Y18.0117
G01 X4.1202 Y17.9884
G01 X4.1200 Y17.9700
G00 Z2.0000
G00 X5.8000 Y37.2000
G01 F60.00
G01 Z-1.3062
G01 F120.00
G01 X5.8000 Y28.8000
G01 X8.2000 Y28.8000
G01 X8.2000 Y37.2000
G01 X5.8000 Y37.2000
G00 Z2.0000
G00 X4.2000 Y38.0000
G01 F60.00
G01 Z-1.3062
G01 F120.00
G01 X4.2000 Y28.0000
G01 X4.2002 Y27.9816
G01 X4.2011 Y27.9583
G01 X4.2038 Y27.9216
G01 X4.2059 Y27.9033
G01 X4.2091 Y27.8802
G01 X4.2120 Y27.8620
G01 X4.2192 Y27.8259
G01 X4.2293 Y27.7854
G01 X4.2400 Y27.7502
G01 X4.2460 Y27.7328
G01 X4.2540 Y27.7109
G01 X4.2609 Y27.6938
G01 X4.2681 Y27.6769
G01 X4.2779 Y27.6558
G01 X4.2860 Y27.6392
G01 X4.3033 Y27.6067
G01 X4.3151 Y27.5866
G01 X4.3348 Y27.5555
G01 X4.3452 Y27.5404
G01 X4.3589 Y27.5215
G01 X4.3701 Y27.5068
G01 X4.3934 Y27.4784
G01 X4.4089 Y27.4610
G01 X4.4343 Y27.4343
G01 X4.4475 Y27.4214
G01 X4.4646 Y27.4056
G01 X4.4784 Y27.3934
G01 X4.5068 Y27.3701
G01 X4.5254 Y27.3560
G01 X4.5555 Y27.3348
G01 X4.5710 Y27.3248
G01 X4.5908 Y27.3126
G01 X4.6067 Y27.3033
G01 X4.6392 Y27.2860
G01 X4.6602 Y27.2758
G01 X4.6938 Y27.2609
G01 X4.7109 Y27.2540
G01 X4.7328 Y27.2460
G01 X4.7502 Y27.2400
G01 X4.7854 Y27.2293
G01 X4.8080 Y27.2234
G01 X4.8439 Y27.2153
G01 X4.8620 Y27.2120
G01 X4.8850 Y27.2083
G01 X4.9216 Y27.2038
G01 X4.9399 Y27.2022
G01 X4.9632 Y27.2009
G01 X5.0000 Y27.2000
G01 X9.0184 Y27.2002
G01 X9.0601 Y27.2022
G01 X9.0967 Y27.2059
G01 X9.1380 Y27.2120
G01 X9.1561 Y27.2153
G01 X9.1920 Y27.2234
G01 X9.2146 Y27.2293
G01 X9.2322 Y27.2344
G01 X9.2672 Y27.2460
G01 X9.2891 Y27.2540
G01 X9.3062 Y27.2609
G01 X9.3231 Y27.2681
G01 X9.3442 Y27.2779
G01 X9.3771 Y27.2944
G01 X9.3933 Y27.3033
G01 X9.4134 Y27.3151
G01 X9.4445 Y27.3348
G01 X9.4746 Y27.3560
G01 X9.4932 Y27.3701
G01 X9.5216 Y27.3934
G01 X9.5354 Y27.4056
G01 X9.5525 Y27.4214
G01 X9.5657 Y27.4343
G01 X9.5911 Y27.4610
G01 X9.6066 Y27.4784
G01 X9.6299 Y27.5068
G01 X9.6440 Y27.5254
G01 X9.6548 Y27.5404
G01 X9.6752 Y27.5710
G01 X9.6874 Y27.5908
G01 X9.7056 Y27.6229
G01 X9.7140 Y27.6392
G01 X9.7242 Y27.6602
G01 X9.7391 Y27.6938
G01 X9.7460 Y27.7109
G01 X9.7540 Y27.7328
G01 X9.7656 Y27.7678
G01 X9.7754 Y27.8032
G01 X9.7808 Y27.8259
G01 X9.7880 Y27.8620
G01 X9.7909 Y27.8802
G01 X9.7941 Y27.9033
G01 X9.7962 Y27.9216
G01 X9.7989 Y27.9583
G01 X9.7998 Y27.9816
G01 X9.8000 Y38.0000
G01 X9.7998 Y38.0184
G01 X9.7989 Y38.0417
G01 X9.7962 Y38.0784
G01 X9.7941 Y38.0967
G01 X9.7909 Y38.1198
G01 X9.7880 Y38.1380
G01 X9.7808 Y38.1741
G01 X9.7707 Y38.2146
G01 X9.7656 Y38.2322
G01 X9.7540 Y38.2672
G01 X9.7460 Y38.2891
G01 X9.7391 Y38.3062
G01 X9.7319 Y38.3231
G01 X9.7221 Y38.3442
G01 X9.7140 Y38.3608
G01 X9.6967 Y38.3933
G01 X9.6849 Y38.4134
G01 X9.6652 Y38.4445
G01 X9.6548 Y38.4596
G01 X9.6411 Y38.4785
G01 X9.6299 Y38.4932
G01 X9.6066 Y38.5216
G01 X9.5911 Y38.5390
G01 X9.5657 Y38.5657
G01 X9.5525 Y38.5786
G01 X9.5354 Y38.5944
G01 X9.5216 Y38.6066
G01 X9.4932 Y38.6299
G01 X9.4596 Y38.6548
G01 X9.4445 Y38.6652
G01 X9.4134 Y38.6849
G01 X9.3933 Y38.6967
G01 X9.3771 Y38.7056
G01 X9.3442 Y38.7221
G01 X9.3231 Y38.7319
G01 X9.3062 Y38.7391
G01 X9.2718 Y38.7524
G01 X9.2498 Y38.7600
G01 X9.2322 Y38.7656
G01 X9.1968 Y38.7754
G01 X9.1741 Y38.7808
G01 X9.1561 Y38.7847
G01 X9.1198 Y38.7909
G01 X9.0967 Y38.7941
G01 X9.0784 Y38.7962
G01 X9.0417 Y38.7989
G01 X9.0184 Y38.7998
G01 X9.0000 Y38.8000
G01 X5.0000 Y38.8000
G01 X4.9632 Y38.7991
G01 X4.9399 Y38.7978
G01 X4.9033 Y38.7941
G01 X4.8620 Y38.7880
G01 X4.8259 Y38.7808
G01 X4.7854 Y38.7707
G01 X4.7502 Y38.7600
G01 X4.7109 Y38.7460
G01 X4.6769 Y38.7319
G01 X4.6558 Y38.7221
G01 X4.6229 Y38.7056
G01 X4.6067 Y38.6967
G01 X4.5866 Y38.6849
G01 X4.5555 Y38.6652
G01 X4.5404 Y38.6548
G01 X4.5215 Y38.6411
G01 X4.4925 Y38.6184
G01 X4.4646 Y38.5944
G01 X4.4475 Y38.5786
G01 X4.4343 Y38.5657
G01 X4.4089 Y38.5390
G01 X4.3934 Y38.5216
G01 X4.3701 Y38.4932
G01 X4.3452 Y38.4596
G01 X4.3248 Y38.4290
G01 X4.3033 Y38.3933
G01 X4.2860 Y38.3608
G01 X4.2681 Y38.3231
G01 X4.2540 Y38.2891
G01 X4.2460 Y38.2672
G01 X4.2344 Y38.2322
G01 X4.2293 Y38.2146
G01 X4.2234 Y38.1920
G01 X4.2153 Y38.1561
G01 X4.2091 Y38.1198
G01 X4.2059 Y38.0967
G01 X4.2038 Y38.0784
G01 X4.2011 Y38.0417
G01 X4.2002 Y38.0184
G01 X4.2000 Y38.0000
G00 Z2.0000
G00 X5.8000 Y57.0000
G01 F60.00
G01 Z-1.3062
G01 F120.00
G01 X5.8000 Y48.6000
G01 X8.2000 Y48.6000
G01 X8.2000 Y57.0000
G01 X5.8000 Y57.0000
G00 Z2.0000
G00 X4.2000 Y57.8000
G01 F60.00
G01 Z-1.3062
G01 F120.00
G01 X4.2000 Y47.8000
G01 X4.2002 Y47.7816
G01 X4.2011 Y47.7583
G01 X4.2038 Y47.7216
G01 X4.2059 Y47.7033
G01 X4.2091 Y47.6802
G01 X4.2120 Y47.6620
G01 X4.2192 Y47.6259
G01 X4.2293 Y47.5854
G01 X4.2400 Y47.5502
G01 X4.2460 Y47.5328
G01 X4.2540 Y47.5109
G01 X4.2609 Y47.4938
G01 X4.2681 Y47.4769
G01 X4.2779 Y47.4558
G01 X4.2944 Y47.4229
G01 X4.3033 Y47.4067
G01 X4.3151 Y47.3866
G01 X4.3348 Y47.3555
G01 X4.3452 Y47.3404
G01 X4.3589 Y47.3215
G01 X4.3816 Y47.2925
G01 X4.3934 Y47.2784
G01 X4.4089 Y47.2610
G01 X4.4343 Y47.2343
G01 X4.4475 Y47.2214
G01 X4.4646 Y47.2056
G01 X4.4784 Y47.1934
G01 X4.5068 Y47.1701
G01 X4.5254 Y47.1560
G01 X4.5555 Y47.1348
G01 X4.5710 Y47.1248
G01 X4.5908 Y47.1126
G01 X4.6067 Y47.1033
G01 X4.6392 Y47.0860
G01 X4.6602 Y47.0758
G01 X4.6938 Y47.0609
G01 X4.7109 Y47.0540
G01 X4.7328 Y47.0460
G01 X4.7678 Y47.0344
G01 X4.7854 Y47.0293
G01 X4.8080 Y47.0234
G01 X4.8439 Y47.0153
G01 X4.8620 Y47.0120
G01 X4.8850 Y47.0083
G01 X4.9216 Y47.0038
G01 X4.9399 Y47.0022
G01 X4.9632 Y47.0009
G01 X5.0000 Y47.0000
G01 X9.0184 Y47.0002
G01 X9.0601 Y47.0022
G01 X9.0967 Y47.0059
G01 X9.1380 Y47.0120
G01 X9.1741 Y47.0192
G01 X9.1920 Y47.0234
G01 X9.2146 Y47.0293
G01 X9.2322 Y47.0344
G01 X9.2672 Y47.0460
G01 X9.2891 Y47.0540
G01 X9.3062 Y47.0609
G01 X9.3231 Y47.0681
G01 X9.3442 Y47.0779
G01 X9.3771 Y47.0944
G01 X9.3933 Y47.1033
G01 X9.4134 Y47.1151
G01 X9.4445 Y47.1348
G01 X9.4746 Y47.1560
G01 X9.4932 Y47.1701
G01 X9.5216 Y47.1934
G01 X9.5354 Y47.2056
G01 X9.5525 Y47.2214
G01 X9.5657 Y47.2343
G01 X9.5911 Y47.2610
G01 X9.6066 Y47.2784
G01 X9.6299 Y47.3068
G01 X9.6440 Y47.3254
G01 X9.6548 Y47.3404
G01 X9.6752 Y47.3710
G01 X9.6874 Y47.3908
G01 X9.7056 Y47.4229
G01 X9.7140 Y47.4392
G01 X9.7242 Y47.4602
G01 X9.7319 Y47.4769
G01 X9.7460 Y47.5109
G01 X9.7540 Y47.5328
G01 X9.7656 Y47.5678
G01 X9.7754 Y47.6032
G01 X9.7808 Y47.6259
G01 X9.7880 Y47.6620
G01 X9.7909 Y47.6802
G01 X9.7941 Y47.7033
G01 X9.7962 Y47.7216
G01 X9.7989 Y47.7583
G01 X9.7998 Y47.7816
G01 X9.8000 Y57.8000
G01 X9.7998 Y57.8184
G01 X9.7989 Y57.8417
G01 X9.7962 Y57.8784
G01 X9.7941 Y57.8967
G01 X9.7909 Y57.9198
G01 X9.7880 Y57.9380
G01 X9.7808 Y57.9741
G01 X9.7707 Y58.0146
G01 X9.7656 Y58.0322
G01 X9.7540 Y58.0672
G01 X9.7460 Y58.0891
G01 X9.7391 Y58.1062
G01 X9.7319 Y58.1231
G01 X9.7221 Y58.1442
G01 X9.7140 Y58.1608
G01 X9.6967 Y58.1933
G01 X9.6849 Y58.2134
G01 X9.6652 Y58.2445
G01 X9.6548 Y58.2596
G01 X9.6411 Y58.2785
G01 X9.6299 Y58.2932
G01 X9.6066 Y58.3216
G01 X9.5911 Y58.3390
G01 X9.5657 Y58.3657
G01 X9.5525 Y58.3786
G01 X9.5354 Y58.3944
G01 X9.5216 Y58.4066
G01 X9.4932 Y58.4299
G01 X9.4596 Y58.4548
G01 X9.4445 Y58.4652
G01 X9.4134 Y58.4849
G01 X9.3933 Y58.4967
G01 X9.3771 Y58.5056
G01 X9.3442 Y58.5221
G01 X9.3231 Y58.5319
G01 X9.3062 Y58.5391
G01 X9.2718 Y58.5524
G01 X9.2498 Y58.5600
G01 X9.2322 Y58.5656
G01 X9.1968 Y58.5754
G01 X9.1741 Y58.5808
G01 X9.1561 Y58.5847
G01 X9.1198 Y58.5909
G01 X9.0967 Y58.5941
G01 X9.0784 Y58.5962
G01 X9.0417 Y58.5989
G01 X9.0184 Y58.5998
G01 X9.0000 Y58.6000
G01 X5.0000 Y58.6000
G01 X4.9632 Y58.5991
G01 X4.9399 Y58.5978
G01 X4.9033 Y58.5941
G01 X4.8620 Y58.5880
G01 X4.8259 Y58.5808
G01 X4.7854 Y58.5707
G01 X4.7502 Y58.5600
G01 X4.7109 Y58.5460
G01 X4.6769 Y58.5319
G01 X4.6558 Y58.5221
G01 X4.6229 Y58.5056
G01 X4.6067 Y58.4967
G01 X4.5866 Y58.4849
G01 X4.5555 Y58.4652
G01 X4.5404 Y58.4548
G01 X4.5215 Y58.4411
G01 X4.4925 Y58.4184
G01 X4.4646 Y58.3944
G01 X4.4475 Y58.3786
G01 X4.4343 Y58.3657
G01 X4.4089 Y58.3390
G01 X4.3934 Y58.3216
G01 X4.3701 Y58.2932
G01 X4.3452 Y58.2596
G01 X4.3248 Y58.2290
G01 X4.3033 Y58.1933
G01 X4.2860 Y58.1608
G01 X4.2681 Y58.1231
G01 X4.2540 Y58.0891
G01 X4.2460 Y58.0672
G01 X4.2344 Y58.0322
G01 X4.2293 Y58.0146
G01 X4.2234 Y57.9920
G01 X4.2153 Y57.9561
G01 X4.2091 Y57.9198
G01 X4.2059 Y57.8967
G01 X4.2038 Y57.8784
G01 X4.2011 Y57.8417
G01 X4.2002 Y57.8184
G01 X4.2000 Y57.8000
G00 Z2.0000
G00 X5.8800 Y77.2000
G01 F60.00
G01 Z-1.3062
G01 F120.00
G01 X5.8800 Y68.8000
G01 X8.2800 Y68.8000
G01 X8.2800 Y77.2000
G01 X5.8800 Y77.2000
G00 Z2.0000
G00 X4.2800 Y78.0000
G01 F60.00
G01 Z-1.3062
G01 F120.00
G01 X4.2800 Y68.0000
G01 X4.2809 Y67.9632
G01 X4.2822 Y67.9399
G01 X4.2838 Y67.9216
G01 X4.2859 Y67.9033
G01 X4.2891 Y67.8802
G01 X4.2920 Y67.8620
G01 X4.2992 Y67.8259
G01 X4.3093 Y67.7854
G01 X4.3200 Y67.7502
G01 X4.3260 Y67.7328
G01 X4.3340 Y67.7109
G01 X4.3409 Y67.6938
G01 X4.3481 Y67.6769
G01 X4.3579 Y67.6558
G01 X4.3660 Y67.6392
G01 X4.3833 Y67.6067
G01 X4.3951 Y67.5866
G01 X4.4148 Y67.5555
G01 X4.4252 Y67.5403
G01 X4.4389 Y67.5215
G01 X4.4501 Y67.5068
G01 X4.4734 Y67.4784
G01 X4.4889 Y67.4610
G01 X4.5143 Y67.4343
G01 X4.5275 Y67.4214
G01 X4.5446 Y67.4056
G01 X4.5584 Y67.3934
G01 X4.5868 Y67.3701
G01 X4.6054 Y67.3560
G01 X4.6355 Y67.3348
G01 X4.6510 Y67.3248
G01 X4.6708 Y67.3126
G01 X4.7029 Y67.2944
G01 X4.7192 Y67.2860
G01 X4.7402 Y67.2758
G01 X4.7738 Y67.2609
G01 X4.7909 Y67.2540
G01 X4.8128 Y67.2460
G01 X4.8478 Y67.2344
G01 X4.8654 Y67.2293
G01 X4.8880 Y67.2234
G01 X4.9239 Y67.2153
G01 X4.9420 Y67.2120
G01 X4.9650 Y67.2083
G01 X5.0016 Y67.2038
G01 X5.0199 Y67.2022
G01 X5.0432 Y67.2009
G01 X5.0800 Y67.2000
G01 X9.0984 Y67.2002
G01 X9.1401 Y67.2022
G01 X9.1767 Y67.2059
G01 X9.2180 Y67.2120
G01 X9.2541 Y67.2192
G01 X9.2720 Y67.2234
G01 X9.2946 Y67.2293
G01 X9.3122 Y67.2344
G01 X9.3472 Y67.2460
G01 X9.3691 Y67.2540
G01 X9.3861 Y67.2609
G01 X9.4031 Y67.2681
G01 X9.4242 Y67.2779
G01 X9.4571 Y67.2944
G01 X9.4733 Y67.3033
G01 X9.4934 Y67.3151
G01 X9.5245 Y67.3348
G01 X9.5546 Y67.3560
G01 X9.5732 Y67.3701
G01 X9.5875 Y67.3816
G01 X9.6154 Y67.4056
G01 X9.6325 Y67.4214
G01 X9.6457 Y67.4343
G01 X9.6711 Y67.4610
G01 X9.6866 Y67.4784
G01 X9.7099 Y67.5068
G01 X9.7240 Y67.5254
G01 X9.7452 Y67.5555
G01 X9.7552 Y67.5710
G01 X9.7674 Y67.5908
G01 X9.7856 Y67.6229
G01 X9.7940 Y67.6392
G01 X9.8042 Y67.6602
G01 X9.8191 Y67.6938
G01 X9.8260 Y67.7109
G01 X9.8340 Y67.7328
G01 X9.8456 Y67.7678
G01 X9.8554 Y67.8032
G01 X9.8608 Y67.8259
G01 X9.8680 Y67.8620
G01 X9.8709 Y67.8802
G01 X9.8741 Y67.9033
G01 X9.8762 Y67.9216
G01 X9.8789 Y67.9583
G01 X9.8798 Y67.9816
G01 X9.8800 Y78.0000
G01 X9.8791 Y78.0368
G01 X9.8778 Y78.0601
G01 X9.8762 Y78.0784
G01 X9.8741 Y78.0967
G01 X9.8709 Y78.1198
G01 X9.8680 Y78.1380
G01 X9.8608 Y78.1741
G01 X9.8507 Y78.2146
G01 X9.8400 Y78.2498
G01 X9.8340 Y78.2672
G01 X9.8260 Y78.2891
G01 X9.8191 Y78.3062
G01 X9.8119 Y78.3231
G01 X9.8021 Y78.3442
G01 X9.7856 Y78.3771
G01 X9.7767 Y78.3933
G01 X9.7649 Y78.4134
G01 X9.7452 Y78.4445
G01 X9.7348 Y78.4597
G01 X9.7211 Y78.4785
G01 X9.6984 Y78.5075
G01 X9.6866 Y78.5216
G01 X9.6586 Y78.5525
G01 X9.6325 Y78.5786
G01 X9.6190 Y78.5911
G01 X9.6016 Y78.6066
G01 X9.5875 Y78.6184
G01 X9.5585 Y78.6411
G01 X9.5397 Y78.6548
G01 X9.5090 Y78.6752
G01 X9.4934 Y78.6849
G01 X9.4733 Y78.6967
G01 X9.4571 Y78.7056
G01 X9.4242 Y78.7221
G01 X9.4031 Y78.7319
G01 X9.3861 Y78.7391
G01 X9.3518 Y78.7524
G01 X9.3298 Y78.7600
G01 X9.3122 Y78.7656
G01 X9.2768 Y78.7754
G01 X9.2541 Y78.7808
G01 X9.2361 Y78.7847
G01 X9.1998 Y78.7909
G01 X9.1767 Y78.7941
G01 X9.1584 Y78.7962
G01 X9.1217 Y78.7989
G01 X9.0984 Y78.7998
G01 X9.0800 Y78.8000
G01 X5.0800 Y78.8000
G01 X5.0432 Y78.7991
G01 X5.0199 Y78.7978
G01 X4.9833 Y78.7941
G01 X4.9420 Y78.7880
G01 X4.9059 Y78.7808
G01 X4.8654 Y78.7707
G01 X4.8302 Y78.7600
G01 X4.7909 Y78.7460
G01 X4.7569 Y78.7319
G01 X4.7358 Y78.7221
G01 X4.7029 Y78.7056
G01 X4.6867 Y78.6967
G01 X4.6666 Y78.6849
G01 X4.6355 Y78.6652
G01 X4.6054 Y78.6440
G01 X4.5868 Y78.6299
G01 X4.5725 Y78.6184
G01 X4.5446 Y78.5944
G01 X4.5275 Y78.5786
G01 X4.5143 Y78.5657
G01 X4.4889 Y78.5390
G01 X4.4734 Y78.5216
G01 X4.4501 Y78.4932
G01 X4.4252 Y78.4597
G01 X4.4048 Y78.4290
G01 X4.3833 Y78.3933
G01 X4.3660 Y78.3608
G01 X4.3481 Y78.3231
G01 X4.3340 Y78.2891
G01 X4.3260 Y78.2672
G01 X4.3144 Y78.2322
G01 X4.3093 Y78.2146
G01 X4.3034 Y78.1920
G01 X4.2953 Y78.1561
G01 X4.2891 Y78.1198
G01 X4.2859 Y78.0967
G01 X4.2838 Y78.0784
G01 X4.2822 Y78.0601
G01 X4.2809 Y78.0368
G01 X4.2800 Y78.0000
G00 Z2.0000
G00 X5.8000 Y97.1600
G01 F60.00
G01 Z-1.3062
G01 F120.00
G01 X5.8000 Y88.7600
G01 X8.2000 Y88.7600
G01 X8.2000 Y97.1600
G01 X5.8000 Y97.1600
G00 Z2.0000
G00 X4.2000 Y97.9600
G01 F60.00
G01 Z-1.3062
G01 F120.00
G01 X4.2000 Y87.9600
G01 X4.2009 Y87.9232
G01 X4.2022 Y87.8999
G01 X4.2038 Y87.8816
G01 X4.2059 Y87.8633
G01 X4.2091 Y87.8402
G01 X4.2120 Y87.8220
G01 X4.2192 Y87.7859
G01 X4.2293 Y87.7454
G01 X4.2400 Y87.7102
G01 X4.2460 Y87.6928
G01 X4.2540 Y87.6709
G01 X4.2609 Y87.6538
G01 X4.2681 Y87.6369
G01 X4.2779 Y87.6158
G01 X4.2860 Y87.5992
G01 X4.3033 Y87.5667
G01 X4.3151 Y87.5466
G01 X4.3348 Y87.5155
G01 X4.3452 Y87.5003
G01 X4.3589 Y87.4815
G01 X4.3701 Y87.4668
G01 X4.3934 Y87.4384
G01 X4.4089 Y87.4210
G01 X4.4343 Y87.3943
G01 X4.4475 Y87.3814
G01 X4.4646 Y87.3656
G01 X4.4784 Y87.3534
G01 X4.5068 Y87.3301
G01 X4.5254 Y87.3160
G01 X4.5555 Y87.2948
G01 X4.5710 Y87.2848
G01 X4.5908 Y87.2726
G01 X4.6229 Y87.2544
G01 X4.6392 Y87.2460
G01 X4.6602 Y87.2358
G01 X4.6938 Y87.2209
G01 X4.7109 Y87.2140
G01 X4.7328 Y87.2060
G01 X4.7678 Y87.1944
G01 X4.7854 Y87.1893
G01 X4.8080 Y87.1834
G01 X4.8439 Y87.1753
G01 X4.8620 Y87.1720
G01 X4.8850 Y87.1683
G01 X4.9216 Y87.1638
G01 X4.9399 Y87.1622
G01 X4.9632 Y87.1609
G01 X5.0000 Y87.1600
G01 X9.0184 Y87.1602
G01 X9.0601 Y87.1622
G01 X9.0967 Y87.1659
G01 X9.1380 Y87.1720
G01 X9.1741 Y87.1792
G01 X9.1920 Y87.1834
G01 X9.2146 Y87.1893
G01 X9.2322 Y87.1944
G01 X9.2672 Y87.2060
G01 X9.2891 Y87.2140
G01 X9.3061 Y87.2209
G01 X9.3231 Y87.2281
G01 X9.3442 Y87.2379
G01 X9.3771 Y87.2544
G01 X9.3933 Y87.2633
G01 X9.4134 Y87.2751
G01 X9.4445 Y87.2948
G01 X9.4746 Y87.3160
G01 X9.4932 Y87.3301
G01 X9.5075 Y87.3416
G01 X9.5354 Y87.3656
G01 X9.5525 Y87.3814
G01 X9.5657 Y87.3943
G01 X9.5911 Y87.4210
G01 X9.6066 Y87.4384
G01 X9.6299 Y87.4668
G01 X9.6440 Y87.4854
G01 X9.6652 Y87.5155
G01 X9.6752 Y87.5310
G01 X9.6874 Y87.5508
G01 X9.7056 Y87.5829
G01 X9.7140 Y87.5992
G01 X9.7242 Y87.6202
G01 X9.7391 Y87.6538
G01 X9.7460 Y87.6709
G01 X9.7540 Y87.6928
G01 X9.7656 Y87.7278
G01 X9.7754 Y87.7632
G01 X9.7808 Y87.7859
G01 X9.7880 Y87.8220
G01 X9.7909 Y87.8402
G01 X9.7941 Y87.8633
G01 X9.7962 Y87.8816
G01 X9.7989 Y87.9183
G01 X9.7998 Y87.9416
G01 X9.8000 Y97.9600
G01 X9.7991 Y97.9968
G01 X9.7978 Y98.0201
G01 X9.7962 Y98.0384
G01 X9.7941 Y98.0567
G01 X9.7909 Y98.0798
G01 X9.7880 Y98.0980
G01 X9.7808 Y98.1341
G01 X9.7707 Y98.1746
G01 X9.7600 Y98.2098
G01 X9.7540 Y98.2272
G01 X9.7460 Y98.2491
G01 X9.7391 Y98.2662
G01 X9.7319 Y98.2831
G01 X9.7221 Y98.3042
G01 X9.7056 Y98.3371
G01 X9.6967 Y98.3533
G01 X9.6849 Y98.3734
G01 X9.6652 Y98.4045
G01 X9.6548 Y98.4197
G01 X9.6411 Y98.4385
G01 X9.6184 Y98.4675
G01 X9.6066 Y98.4816
G01 X9.5786 Y98.5125
G01 X9.5525 Y98.5386
G01 X9.5390 Y98.5511
G01 X9.5216 Y98.5666
G01 X9.5075 Y98.5784
G01 X9.4785 Y98.6011
G01 X9.4597 Y98.6148
G01 X9.4290 Y98.6352
G01 X9.4134 Y98.6449
G01 X9.3933 Y98.6567
G01 X9.3771 Y98.6656
G01 X9.3442 Y98.6821
G01 X9.3231 Y98.6919
G01 X9.3061 Y98.6991
G01 X9.2718 Y98.7124
G01 X9.2498 Y98.7200
G01 X9.2322 Y98.7256
G01 X9.1968 Y98.7354
G01 X9.1741 Y98.7408
G01 X9.1561 Y98.7447
G01 X9.1198 Y98.7509
G01 X9.0967 Y98.7541
G01 X9.0784 Y98.7562
G01 X9.0417 Y98.7589
G01 X9.0184 Y98.7598
G01 X9.0000 Y98.7600
G01 X5.0000 Y98.7600
G01 X4.9632 Y98.7591
G01 X4.9399 Y98.7578
G01 X4.9033 Y98.7541
G01 X4.8620 Y98.7480
G01 X4.8259 Y98.7408
G01 X4.7854 Y98.7307
G01 X4.7502 Y98.7200
G01 X4.7109 Y98.7060
G01 X4.6769 Y98.6919
G01 X4.6558 Y98.6821
G01 X4.6229 Y98.6656
G01 X4.6067 Y98.6567
G01 X4.5866 Y98.6449
G01 X4.5555 Y98.6252
G01 X4.5254 Y98.6040
G01 X4.5068 Y98.5899
G01 X4.4925 Y98.5784
G01 X4.4646 Y98.5544
G01 X4.4475 Y98.5386
G01 X4.4343 Y98.5257
G01 X4.4089 Y98.4990
G01 X4.3934 Y98.4816
G01 X4.3701 Y98.4532
G01 X4.3452 Y98.4197
G01 X4.3248 Y98.3890
G01 X4.3033 Y98.3533
G01 X4.2860 Y98.3208
G01 X4.2681 Y98.2831
G01 X4.2540 Y98.2491
G01 X4.2460 Y98.2272
G01 X4.2344 Y98.1922
G01 X4.2293 Y98.1746
G01 X4.2234 Y98.1520
G01 X4.2153 Y98.1161
G01 X4.2091 Y98.0798
G01 X4.2059 Y98.0567
G01 X4.2038 Y98.0384
G01 X4.2022 Y98.0201
G01 X4.2009 Y97.9968
G01 X4.2000 Y97.9600
G00 Z2.0000
G00 X5.7100 Y117.2000
G01 F60.00
G01 Z-1.3062
G01 F120.00
G01 X5.7100 Y108.8000
G01 X8.1100 Y108.8000
G01 X8.1100 Y117.2000
G01 X5.7100 Y117.2000
G00 Z2.0000
G00 X4.1100 Y118.0000
G01 F60.00
G01 Z-1.3062
G01 F120.00
G01 X4.1100 Y108.0000
G01 X4.1109 Y107.9632
G01 X4.1122 Y107.9399
G01 X4.1138 Y107.9216
G01 X4.1159 Y107.9033
G01 X4.1191 Y107.8802
G01 X4.1220 Y107.8620
G01 X4.1292 Y107.8259
G01 X4.1393 Y107.7854
G01 X4.1500 Y107.7502
G01 X4.1560 Y107.7328
G01 X4.1640 Y107.7109
G01 X4.1709 Y107.6938
G01 X4.1781 Y107.6769
G01 X4.1879 Y107.6558
G01 X4.1960 Y107.6392
G01 X4.2133 Y107.6067
G01 X4.2251 Y107.5866
G01 X4.2448 Y107.5555
G01 X4.2552 Y107.5403
G01 X4.2689 Y107.5215
G01 X4.2801 Y107.5068
G01 X4.3034 Y107.4784
G01 X4.3189 Y107.4610
G01 X4.3443 Y107.4343
G01 X4.3575 Y107.4214
G01 X4.3746 Y107.4056
G01 X4.3884 Y107.3934
G01 X4.4168 Y107.3701
G01 X4.4354 Y107.3560
G01 X4.4655 Y107.3348
G01 X4.4810 Y107.3248
G01 X4.5008 Y107.3126
G01 X4.5329 Y107.2944
G01 X4.5492 Y107.2860
G01 X4.5702 Y107.2758
G01 X4.6038 Y107.2609
G01 X4.6209 Y107.2540
G01 X4.6428 Y107.2460
G01 X4.6778 Y107.2344
G01 X4.6954 Y107.2293
G01 X4.7180 Y107.2234
G01 X4.7539 Y107.2153
G01 X4.7720 Y107.2120
G01 X4.7950 Y107.2083
G01 X4.8316 Y107.2038
G01 X4.8499 Y107.2022
G01 X4.8732 Y107.2009
G01 X4.9100 Y107.2000
G01 X8.9284 Y107.2002
G01 X8.9701 Y107.2022
G01 X9.0067 Y107.2059
G01 X9.0480 Y107.2120
G01 X9.0841 Y107.2192
G01 X9.1020 Y107.2234
G01 X9.1246 Y107.2293
G01 X9.1422 Y107.2344
G01 X9.1772 Y107.2460
G01 X9.1991 Y107.2540
G01 X9.2161 Y107.2609
G01 X9.2331 Y107.2681
G01 X9.2542 Y107.2779
G01 X9.2871 Y107.2944
G01 X9.3033 Y107.3033
G01 X9.3234 Y107.3151
G01 X9.3545 Y107.3348
G01 X9.3846 Y107.3560
G01 X9.4032 Y107.3701
G01 X9.4175 Y107.3816
G01 X9.4454 Y107.4056
G01 X9.4625 Y107.4214
G01 X9.4757 Y107.4343
G01 X9.5011 Y107.4610
G01 X9.5166 Y107.4784
G01 X9.5399 Y107.5068
G01 X9.5540 Y107.5254
G01 X9.5752 Y107.5555
G01 X9.5852 Y107.5710
G01 X9.5974 Y107.5908
G01 X9.6156 Y107.6229
G01 X9.6240 Y107.6392
G01 X9.6342 Y107.6602
G01 X9.6491 Y107.6938
G01 X9.6560 Y107.7109
G01 X9.6640 Y107.7328
G01 X9.6756 Y107.7678
G01 X9.6854 Y107.8032
G01 X9.6908 Y107.8259
G01 X9.6980 Y107.8620
G01 X9.7009 Y107.8802
G01 X9.7041 Y107.9033
G01 X9.7062 Y107.9216
G01 X9.7089 Y107.9583
G01 X9.7098 Y107.9816
G01 X9.7100 Y118.0000
G01 X9.7091 Y118.0368
G01 X9.7078 Y118.0601
G01 X9.7062 Y118.0784
G01 X9.7041 Y118.0967
G01 X9.7009 Y118.1198
G01 X9.6980 Y118.1380
G01 X9.6908 Y118.1741
G01 X9.6807 Y118.2146
G01 X9.6700 Y118.2498
G01 X9.6640 Y118.2672
G01 X9.6560 Y118.2891
G01 X9.6491 Y118.3062
G01 X9.6419 Y118.3231
G01 X9.6321 Y118.3442
G01 X9.6156 Y118.3771
G01 X9.6067 Y118.3933
G01 X9.5949 Y118.4134
G01 X9.5752 Y118.4445
G01 X9.5648 Y118.4597
G01 X9.5511 Y118.4785
G01 X9.5284 Y118.5075
G01 X9.5166 Y118.5216
G01 X9.4886 Y118.5525
G01 X9.4625 Y118.5786
G01 X9.4490 Y118.5911
G01 X9.4316 Y118.6066
G01 X9.4175 Y118.6184
G01 X9.3885 Y118.6411
G01 X9.3697 Y118.6548
G01 X9.3390 Y118.6752
G01 X9.3234 Y118.6849
G01 X9.3033 Y118.6967
G01 X9.2871 Y118.7056
G01 X9.2542 Y118.7221
G01 X9.2331 Y118.7319
G01 X9.2161 Y118.7391
G01 X9.1818 Y118.7524
G01 X9.1598 Y118.7600
G01 X9.1422 Y118.7656
G01 X9.1068 Y118.7754
G01 X9.0841 Y118.7808
G01 X9.0661 Y118.7847
G01 X9.0298 Y118.7909
G01 X9.0067 Y118.7941
G01 X8.9884 Y118.7962
G01 X8.9517 Y118.7989
G01 X8.9284 Y118.7998
G01 X8.9100 Y118.8000
G01 X4.9100 Y118.8000
G01 X4.8732 Y118.7991
G01 X4.8499 Y118.7978
G01 X4.8133 Y118.7941
G01 X4.7720 Y118.7880
G01 X4.7359 Y118.7808
G01 X4.6954 Y118.7707
G01 X4.6602 Y118.7600
G01 X4.6209 Y118.7460
G01 X4.5869 Y118.7319
G01 X4.5658 Y118.7221
G01 X4.5329 Y118.7056
G01 X4.5167 Y118.6967
G01 X4.4966 Y118.6849
G01 X4.4655 Y118.6652
G01 X4.4354 Y118.6440
G01 X4.4168 Y118.6299
G01 X4.4025 Y118.6184
G01 X4.3746 Y118.5944
G01 X4.3575 Y118.5786
G01 X4.3443 Y118.5657
G01 X4.3189 Y118.5390
G01 X4.3034 Y118.5216
G01 X4.2801 Y118.4932
G01 X4.2552 Y118.4597
G01 X4.2348 Y118.4290
G01 X4.2133 Y118.3933
G01 X4.1960 Y118.3608
G01 X4.1781 Y118.3231
G01 X4.1640 Y118.2891
G01 X4.1560 Y118.2672
G01 X4.1444 Y118.2322
G01 X4.1393 Y118.2146
G01 X4.1334 Y118.1920
G01 X4.1253 Y118.1561
G01 X4.1191 Y118.1198
G01 X4.1159 Y118.0967
G01 X4.1138 Y118.0784
G01 X4.1122 Y118.0601
G01 X4.1109 Y118.0368
G01 X4.1100 Y118.0000
G00 Z2.0000
G00 X5.6300 Y137.0600
G01 F60.00
G01 Z-1.3062
G01 F120.00
G01 X5.6300 Y128.6600
G01 X8.0300 Y128.6600
G01 X8.0300 Y137.0600
G01 X5.6300 Y137.0600
G00 Z2.0000
G00 X4.0300 Y137.8600
G01 F60.00
G01 Z-1.3062
G01 F120.00
G01 X4.0300 Y127.8600
G01 X4.0309 Y127.8232
G01 X4.0322 Y127.7999
G01 X4.0338 Y127.7816
G01 X4.0359 Y127.7633
G01 X4.0391 Y127.7402
G01 X4.0420 Y127.7220
G01 X4.0492 Y127.6859
G01 X4.0593 Y127.6454
G01 X4.0700 Y127.6102
G01 X4.0760 Y127.5928
G01 X4.0840 Y127.5709
G01 X4.0909 Y127.5538
G01 X4.0981 Y127.5369
G01 X4.1079 Y127.5158
G01 X4.1160 Y127.4992
G01 X4.1333 Y127.4667
G01 X4.1451 Y127.4466
G01 X4.1648 Y127.4155
G01 X4.1752 Y127.4003
G01 X4.1889 Y127.3815
G01 X4.2001 Y127.3668
G01 X4.2234 Y127.3384
G01 X4.2389 Y127.3210
G01 X4.2643 Y127.2943
G01 X4.2775 Y127.2814
G01 X4.2946 Y127.2656
G01 X4.3084 Y127.2534
G01 X4.3368 Y127.2301
G01 X4.3554 Y127.2160
G01 X4.3855 Y127.1948
G01 X4.4010 Y127.1848
G01 X4.4208 Y127.1726
G01 X4.4529 Y127.1544
G01 X4.4692 Y127.1460
G01 X4.4902 Y127.1358
G01 X4.5238 Y127.1209
G01 X4.5409 Y127.1140
G01 X4.5628 Y127.1060
G01 X4.5978 Y127.0944
G01 X4.6154 Y127.0893
G01 X4.6380 Y127.0834
G01 X4.6739 Y127.0753
G01 X4.6920 Y127.0720
G01 X4.7150 Y127.0683
G01 X4.7516 Y127.0638
G01 X4.7699 Y127.0622
G01 X4.7932 Y127.0609
G01 X4.8300 Y127.0600
G01 X8.8484 Y127.0602
G01 X8.8901 Y127.0622
G01 X8.9267 Y127.0659
G01 X8.9680 Y127.0720
G01 X9.0041 Y127.0792
G01 X9.0220 Y127.0834
G01 X9.0446 Y127.0893
G01 X9.0622 Y127.0944
G01 X9.0972 Y127.1060
G01 X9.1191 Y127.1140
G01 X9.1361 Y127.1209
G01 X9.1531 Y127.1281
G01 X9.1742 Y127.1379
G01 X9.2071 Y127.1544
G01 X9.2233 Y127.1633
G01 X9.2434 Y127.1751
G01 X9.2745 Y127.1948
G01 X9.3046 Y127.2160
G01 X9.3232 Y127.2301
G01 X9.3375 Y127.2416
G01 X9.3654 Y127.2656
G01 X9.3825 Y127.2814
G01 X9.3957 Y127.2943
G01 X9.4211 Y127.3210
G01 X9.4366 Y127.3384
G01 X9.4599 Y127.3668
G01 X9.4740 Y127.3854
G01 X9.4952 Y127.4155
G01 X9.5052 Y127.4310
G01 X9.5174 Y127.4508
G01 X9.5356 Y127.4829
G01 X9.5440 Y127.4992
G01 X9.5542 Y127.5202
G01 X9.5691 Y127.5538
G01 X9.5760 Y127.5709
G01 X9.5840 Y127.5928
G01 X9.5956 Y127.6278
G01 X9.6054 Y127.6632
G01 X9.6108 Y127.6859
G01 X9.6180 Y127.7220
G01 X9.6209 Y127.7402
G01 X9.6241 Y127.7633
G01 X9.6262 Y127.7816
G01 X9.6289 Y127.8183
G01 X9.6298 Y127.8416
G01 X9.6300 Y137.8600
G01 X9.6298 Y137.8784
G01 X9.6289 Y137.9017
G01 X9.6262 Y137.9384
G01 X9.6241 Y137.9567
G01 X9.6209 Y137.9798
G01 X9.6147 Y138.0161
G01 X9.6108 Y138.0341
G01 X9.6007 Y138.0746
G01 X9.5956 Y138.0922
G01 X9.5840 Y138.1272
G01 X9.5760 Y138.1491
G01 X9.5691 Y138.1662
G01 X9.5619 Y138.1831
G01 X9.5521 Y138.2042
G01 X9.5440 Y138.2208
G01 X9.5267 Y138.2533
G01 X9.5149 Y138.2734
G01 X9.4952 Y138.3045
G01 X9.4848 Y138.3196
G01 X9.4711 Y138.3385
G01 X9.4599 Y138.3532
G01 X9.4366 Y138.3816
G01 X9.4211 Y138.3990
G01 X9.3957 Y138.4257
G01 X9.3825 Y138.4386
G01 X9.3654 Y138.4544
G01 X9.3375 Y138.4784
G01 X9.3232 Y138.4899
G01 X9.2896 Y138.5148
G01 X9.2744 Y138.5252
G01 X9.2434 Y138.5449
G01 X9.2233 Y138.5567
G01 X9.2071 Y138.5656
G01 X9.1742 Y138.5821
G01 X9.1531 Y138.5919
G01 X9.1361 Y138.5991
G01 X9.1018 Y138.6124
G01 X9.0798 Y138.6200
G01 X9.0622 Y138.6256
G01 X9.0268 Y138.6354
G01 X9.0041 Y138.6408
G01 X8.9861 Y138.6447
G01 X8.9498 Y138.6509
G01 X8.9267 Y138.6541
G01 X8.9084 Y138.6562
G01 X8.8717 Y138.6589
G01 X8.8484 Y138.6598
G01 X8.8300 Y138.6600
G01 X4.8300 Y138.6600
G01 X4.7932 Y138.6591
G01 X4.7699 Y138.6578
G01 X4.7333 Y138.6541
G01 X4.6920 Y138.6480
G01 X4.6559 Y138.6408
G01 X4.6154 Y138.6307
G01 X4.5802 Y138.6200
G01 X4.5409 Y138.6060
G01 X4.5069 Y138.5919
G01 X4.4858 Y138.5821
G01 X4.4529 Y138.5656
G01 X4.4208 Y138.5474
G01 X4.4010 Y138.5352
G01 X4.3856 Y138.5252
G01 X4.3554 Y138.5040
G01 X4.3368 Y138.4899
G01 X4.3225 Y138.4784
G01 X4.2946 Y138.4544
G01 X4.2775 Y138.4386
G01 X4.2643 Y138.4257
G01 X4.2389 Y138.3990
G01 X4.2234 Y138.3816
G01 X4.2001 Y138.3532
G01 X4.1752 Y138.3196
G01 X4.1548 Y138.2890
G01 X4.1333 Y138.2533
G01 X4.1160 Y138.2208
G01 X4.0981 Y138.1831
G01 X4.0840 Y138.1491
G01 X4.0760 Y138.1272
G01 X4.0644 Y138.0922
G01 X4.0593 Y138.0746
G01 X4.0534 Y138.0520
G01 X4.0453 Y138.0161
G01 X4.0391 Y137.9798
G01 X4.0359 Y137.9567
G01 X4.0338 Y137.9384
G01 X4.0311 Y137.9017
G01 X4.0302 Y137.8784
G01 X4.0300 Y137.8600
G00 Z2.0000
G00 X49.9000 Y137.8600
G01 F60.00
G01 Z-1.3062
G01 F120.00
G01 X49.9000 Y127.8600
G01 X49.9002 Y127.8416
G01 X49.9011 Y127.8183
G01 X49.9038 Y127.7816
G01 X49.9059 Y127.7633
G01 X49.9091 Y127.7402
G01 X49.9120 Y127.7220
G01 X49.9192 Y127.6859
G01 X49.9293 Y127.6454
G01 X49.9400 Y127.6102
G01 X49.9460 Y127.5928
G01 X49.9540 Y127.5709
G01 X49.9609 Y127.5538
G01 X49.9681 Y127.5369
G01 X49.9779 Y127.5158
G01 X49.9944 Y127.4829
G01 X50.0033 Y127.4667
G01 X50.0151 Y127.4466
G01 X50.0348 Y127.4155
G01 X50.0452 Y127.4004
G01 X50.0589 Y127.3815
G01 X50.0816 Y127.3525
G01 X50.0934 Y127.3384
G01 X50.1089 Y127.3210
G01 X50.1343 Y127.2943
G01 X50.1475 Y127.2814
G01 X50.1646 Y127.2656
G01 X50.1925 Y127.2416
G01 X50.2068 Y127.2301
G01 X50.2254 Y127.2160
G01 X50.2555 Y127.1948
G01 X50.2710 Y127.1848
G01 X50.2908 Y127.1726
G01 X50.3067 Y127.1633
G01 X50.3392 Y127.1460
G01 X50.3602 Y127.1358
G01 X50.3938 Y127.1209
G01 X50.4109 Y127.1140
G01 X50.4328 Y127.1060
G01 X50.4678 Y127.0944
G01 X50.4854 Y127.0893
G01 X50.5080 Y127.0834
G01 X50.5439 Y127.0753
G01 X50.5620 Y127.0720
G01 X50.5850 Y127.0683
G01 X50.6033 Y127.0659
G01 X50.6399 Y127.0622
G01 X50.6632 Y127.0609
G01 X50.7000 Y127.0600
G01 X54.7184 Y127.0602
G01 X54.7601 Y127.0622
G01 X54.7967 Y127.0659
G01 X54.8380 Y127.0720
G01 X54.8561 Y127.0753
G01 X54.8920 Y127.0834
G01 X54.9146 Y127.0893
G01 X54.9322 Y127.0944
G01 X54.9498 Y127.1000
G01 X54.9718 Y127.1076
G01 X55.0062 Y127.1209
G01 X55.0231 Y127.1281
G01 X55.0442 Y127.1379
G01 X55.0771 Y127.1544
G01 X55.0933 Y127.1633
G01 X55.1134 Y127.1751
G01 X55.1445 Y127.1948
G01 X55.1746 Y127.2160
G01 X55.1932 Y127.2301
G01 X55.2075 Y127.2416
G01 X55.2354 Y127.2656
G01 X55.2525 Y127.2814
G01 X55.2657 Y127.2943
G01 X55.2911 Y127.3210
G01 X55.3066 Y127.3384
G01 X55.3299 Y127.3668
G01 X55.3440 Y127.3854
G01 X55.3652 Y127.4155
G01 X55.3752 Y127.4310
G01 X55.3874 Y127.4508
G01 X55.4056 Y127.4829
G01 X55.4140 Y127.4992
G01 X55.4242 Y127.5202
G01 X55.4319 Y127.5369
G01 X55.4460 Y127.5709
G01 X55.4540 Y127.5928
G01 X55.4656 Y127.6278
G01 X55.4754 Y127.6632
G01 X55.4808 Y127.6859
G01 X55.4880 Y127.7220
G01 X55.4909 Y127.7402
G01 X55.4941 Y127.7633
G01 X55.4962 Y127.7816
G01 X55.4989 Y127.8183
G01 X55.4998 Y127.8416
G01 X55.5000 Y137.8600
G01 X55.4998 Y137.8784
G01 X55.4989 Y137.9017
G01 X55.4962 Y137.9384
G01 X55.4941 Y137.9567
G01 X55.4909 Y137.9798
G01 X55.4847 Y138.0161
G01 X55.4808 Y138.0341
G01 X55.4707 Y138.0746
G01 X55.4656 Y138.0922
G01 X55.4540 Y138.1272
G01 X55.4460 Y138.1491
G01 X55.4391 Y138.1662
G01 X55.4319 Y138.1831
G01 X55.4221 Y138.2042
G01 X55.4140 Y138.2208
G01 X55.3967 Y138.2533
G01 X55.3849 Y138.2734
G01 X55.3652 Y138.3045
G01 X55.3548 Y138.3196
G01 X55.3411 Y138.3385
G01 X55.3184 Y138.3675
G01 X55.3066 Y138.3816
G01 X55.2786 Y138.4125
G01 X55.2657 Y138.4257
G01 X55.2390 Y138.4511
G01 X55.2216 Y138.4666
G01 X55.2076 Y138.4784
G01 X55.1785 Y138.5011
G01 X55.1596 Y138.5148
G01 X55.1445 Y138.5252
G01 X55.1134 Y138.5449
G01 X55.0933 Y138.5567
G01 X55.0771 Y138.5656
G01 X55.0442 Y138.5821
G01 X55.0231 Y138.5919
G01 X55.0061 Y138.5991
G01 X54.9718 Y138.6124
G01 X54.9498 Y138.6200
G01 X54.9322 Y138.6256
G01 X54.8968 Y138.6354
G01 X54.8741 Y138.6408
G01 X54.8380 Y138.6480
G01 X54.8198 Y138.6509
G01 X54.7967 Y138.6541
G01 X54.7784 Y138.6562
G01 X54.7417 Y138.6589
G01 X54.7184 Y138.6598
G01 X54.7000 Y138.6600
G01 X50.7000 Y138.6600
G01 X50.6632 Y138.6591
G01 X50.6399 Y138.6578
G01 X50.6033 Y138.6541
G01 X50.5620 Y138.6480
G01 X50.5259 Y138.6408
G01 X50.4854 Y138.6307
G01 X50.4502 Y138.6200
G01 X50.4109 Y138.6060
G01 X50.3769 Y138.5919
G01 X50.3558 Y138.5821
G01 X50.3229 Y138.5656
G01 X50.3067 Y138.5567
G01 X50.2866 Y138.5449
G01 X50.2555 Y138.5252
G01 X50.2404 Y138.5148
G01 X50.2215 Y138.5011
G01 X50.1924 Y138.4784
G01 X50.1646 Y138.4544
G01 X50.1475 Y138.4386
G01 X50.1343 Y138.4257
G01 X50.1089 Y138.3990
G01 X50.0934 Y138.3816
G01 X50.0701 Y138.3532
G01 X50.0452 Y138.3196
G01 X50.0248 Y138.2890
G01 X50.0033 Y138.2533
G01 X49.9860 Y138.2208
G01 X49.9681 Y138.1831
G01 X49.9540 Y138.1491
G01 X49.9460 Y138.1272
G01 X49.9344 Y138.0922
G01 X49.9246 Y138.0568
G01 X49.9192 Y138.0341
G01 X49.9153 Y138.0161
G01 X49.9120 Y137.9980
G01 X49.9083 Y137.9750
G01 X49.9038 Y137.9384
G01 X49.9011 Y137.9017
G01 X49.9002 Y137.8784
G01 X49.9000 Y137.8600
G00 Z2.0000
G00 X51.5000 Y137.0600
G01 F60.00
G01 Z-1.3062
G01 F120.00
G01 X51.5000 Y128.6600
G01 X53.9000 Y128.6600
G01 X53.9000 Y137.0600
G01 X51.5000 Y137.0600
G00 Z2.0000
G00 X49.9800 Y118.0000
G01 F60.00
G01 Z-1.3062
G01 F120.00
G01 X49.9800 Y108.0000
G01 X49.9802 Y107.9816
G01 X49.9811 Y107.9583
G01 X49.9838 Y107.9216
G01 X49.9859 Y107.9033
G01 X49.9891 Y107.8802
G01 X49.9920 Y107.8620
G01 X49.9992 Y107.8259
G01 X50.0093 Y107.7854
G01 X50.0200 Y107.7502
G01 X50.0260 Y107.7328
G01 X50.0340 Y107.7109
G01 X50.0409 Y107.6938
G01 X50.0481 Y107.6769
G01 X50.0579 Y107.6558
G01 X50.0744 Y107.6229
G01 X50.0833 Y107.6067
G01 X50.0951 Y107.5866
G01 X50.1148 Y107.5555
G01 X50.1252 Y107.5404
G01 X50.1389 Y107.5215
G01 X50.1616 Y107.4925
G01 X50.1734 Y107.4784
G01 X50.1889 Y107.4610
G01 X50.2143 Y107.4343
G01 X50.2275 Y107.4214
G01 X50.2446 Y107.4056
G01 X50.2725 Y107.3816
G01 X50.2868 Y107.3701
G01 X50.3054 Y107.3560
G01 X50.3355 Y107.3348
G01 X50.3510 Y107.3248
G01 X50.3708 Y107.3126
G01 X50.3867 Y107.3033
G01 X50.4192 Y107.2860
G01 X50.4402 Y107.2758
G01 X50.4738 Y107.2609
G01 X50.4909 Y107.2540
G01 X50.5128 Y107.2460
G01 X50.5478 Y107.2344
G01 X50.5654 Y107.2293
G01 X50.5880 Y107.2234
G01 X50.6239 Y107.2153
G01 X50.6420 Y107.2120
G01 X50.6650 Y107.2083
G01 X50.6833 Y107.2059
G01 X50.7199 Y107.2022
G01 X50.7432 Y107.2009
G01 X50.7800 Y107.2000
G01 X54.7984 Y107.2002
G01 X54.8401 Y107.2022
G01 X54.8767 Y107.2059
G01 X54.9180 Y107.2120
G01 X54.9361 Y107.2153
G01 X54.9720 Y107.2234
G01 X54.9946 Y107.2293
G01 X55.0122 Y107.2344
G01 X55.0298 Y107.2400
G01 X55.0518 Y107.2476
G01 X55.0862 Y107.2609
G01 X55.1031 Y107.2681
G01 X55.1242 Y107.2779
G01 X55.1571 Y107.2944
G01 X55.1733 Y107.3033
G01 X55.1934 Y107.3151
G01 X55.2245 Y107.3348
G01 X55.2546 Y107.3560
G01 X55.2732 Y107.3701
G01 X55.2875 Y107.3816
G01 X55.3154 Y107.4056
G01 X55.3325 Y107.4214
G01 X55.3457 Y107.4343
G01 X55.3711 Y107.4610
G01 X55.3866 Y107.4784
G01 X55.4099 Y107.5068
G01 X55.4240 Y107.5254
G01 X55.4452 Y107.5555
G01 X55.4552 Y107.5710
G01 X55.4674 Y107.5908
G01 X55.4856 Y107.6229
G01 X55.4940 Y107.6392
G01 X55.5042 Y107.6602
G01 X55.5119 Y107.6769
G01 X55.5260 Y107.7109
G01 X55.5340 Y107.7328
G01 X55.5456 Y107.7678
G01 X55.5554 Y107.8032
G01 X55.5608 Y107.8259
G01 X55.5680 Y107.8620
G01 X55.5709 Y107.8802
G01 X55.5741 Y107.9033
G01 X55.5762 Y107.9216
G01 X55.5789 Y107.9583
G01 X55.5798 Y107.9816
G01 X55.5800 Y118.0000
G01 X55.5798 Y118.0184
G01 X55.5789 Y118.0417
G01 X55.5762 Y118.0784
G01 X55.5741 Y118.0967
G01 X55.5709 Y118.1198
G01 X55.5680 Y118.1380
G01 X55.5608 Y118.1741
G01 X55.5507 Y118.2146
G01 X55.5400 Y118.2498
G01 X55.5340 Y118.2672
G01 X55.5260 Y118.2891
G01 X55.5191 Y118.3062
G01 X55.5119 Y118.3231
G01 X55.5021 Y118.3442
G01 X55.4856 Y118.3771
G01 X55.4767 Y118.3933
G01 X55.4649 Y118.4134
G01 X55.4452 Y118.4445
G01 X55.4348 Y118.4596
G01 X55.4211 Y118.4785
G01 X55.3984 Y118.5075
G01 X55.3866 Y118.5216
G01 X55.3586 Y118.5525
G01 X55.3457 Y118.5657
G01 X55.3190 Y118.5911
G01 X55.3016 Y118.6066
G01 X55.2875 Y118.6184
G01 X55.2585 Y118.6411
G01 X55.2397 Y118.6548
G01 X55.2090 Y118.6752
G01 X55.1934 Y118.6849
G01 X55.1733 Y118.6967
G01 X55.1571 Y118.7056
G01 X55.1242 Y118.7221
G01 X55.1031 Y118.7319
G01 X55.0691 Y118.7460
G01 X55.0518 Y118.7524
G01 X55.0298 Y118.7600
G01 X55.0122 Y118.7656
G01 X54.9768 Y118.7754
G01 X54.9541 Y118.7808
G01 X54.9180 Y118.7880
G01 X54.8998 Y118.7909
G01 X54.8767 Y118.7941
G01 X54.8584 Y118.7962
G01 X54.8401 Y118.7978
G01 X54.8168 Y118.7991
G01 X54.7800 Y118.8000
G01 X50.7800 Y118.8000
G01 X50.7432 Y118.7991
G01 X50.7199 Y118.7978
G01 X50.6833 Y118.7941
G01 X50.6420 Y118.7880
G01 X50.6059 Y118.7808
G01 X50.5654 Y118.7707
G01 X50.5302 Y118.7600
G01 X50.4909 Y118.7460
G01 X50.4569 Y118.7319
G01 X50.4358 Y118.7221
G01 X50.4029 Y118.7056
G01 X50.3708 Y118.6874
G01 X50.3510 Y118.6752
G01 X50.3355 Y118.6652
G01 X50.3054 Y118.6440
G01 X50.2868 Y118.6299
G01 X50.2725 Y118.6184
G01 X50.2446 Y118.5944
G01 X50.2275 Y118.5786
G01 X50.2143 Y118.5657
G01 X50.1889 Y118.5390
G01 X50.1734 Y118.5216
G01 X50.1501 Y118.4932
G01 X50.1252 Y118.4596
G01 X50.1048 Y118.4290
G01 X50.0833 Y118.3933
G01 X50.0660 Y118.3608
G01 X50.0481 Y118.3231
G01 X50.0340 Y118.2891
G01 X50.0260 Y118.2672
G01 X50.0144 Y118.2322
G01 X50.0046 Y118.1968
G01 X49.9992 Y118.1741
G01 X49.9953 Y118.1561
G01 X49.9891 Y118.1198
G01 X49.9859 Y118.0967
G01 X49.9838 Y118.0784
G01 X49.9811 Y118.0417
G01 X49.9802 Y118.0184
G01 X49.9800 Y118.0000
G00 Z2.0000
G00 X51.5800 Y117.2000
G01 F60.00
G01 Z-1.3062
G01 F120.00
G01 X51.5800 Y108.8000
G01 X53.9800 Y108.8000
G01 X53.9800 Y117.2000
G01 X51.5800 Y117.2000
G00 Z2.0000
G00 X50.0700 Y97.9600
G01 F60.00
G01 Z-1.3062
G01 F120.00
G01 X50.0700 Y87.9600
G01 X50.0702 Y87.9416
G01 X50.0711 Y87.9183
G01 X50.0738 Y87.8816
G01 X50.0759 Y87.8633
G01 X50.0791 Y87.8402
G01 X50.0820 Y87.8220
G01 X50.0892 Y87.7859
G01 X50.0993 Y87.7454
G01 X50.1100 Y87.7102
G01 X50.1160 Y87.6928
G01 X50.1240 Y87.6709
G01 X50.1309 Y87.6538
G01 X50.1381 Y87.6369
G01 X50.1479 Y87.6158
G01 X50.1644 Y87.5829
G01 X50.1733 Y87.5667
G01 X50.1851 Y87.5466
G01 X50.2048 Y87.5155
G01 X50.2152 Y87.5004
G01 X50.2289 Y87.4815
G01 X50.2516 Y87.4525
G01 X50.2634 Y87.4384
G01 X50.2789 Y87.4210
G01 X50.3043 Y87.3943
G01 X50.3175 Y87.3814
G01 X50.3346 Y87.3656
G01 X50.3625 Y87.3416
G01 X50.3768 Y87.3301
G01 X50.3954 Y87.3160
G01 X50.4255 Y87.2948
G01 X50.4410 Y87.2848
G01 X50.4608 Y87.2726
G01 X50.4767 Y87.2633
G01 X50.5092 Y87.2460
G01 X50.5302 Y87.2358
G01 X50.5638 Y87.2209
G01 X50.5809 Y87.2140
G01 X50.6028 Y87.2060
G01 X50.6378 Y87.1944
G01 X50.6554 Y87.1893
G01 X50.6780 Y87.1834
G01 X50.7139 Y87.1753
G01 X50.7320 Y87.1720
G01 X50.7550 Y87.1683
G01 X50.7733 Y87.1659
G01 X50.8099 Y87.1622
G01 X50.8332 Y87.1609
G01 X50.8700 Y87.1600
G01 X54.8884 Y87.1602
G01 X54.9301 Y87.1622
G01 X54.9667 Y87.1659
G01 X55.0080 Y87.1720
G01 X55.0261 Y87.1753
G01 X55.0620 Y87.1834
G01 X55.0846 Y87.1893
G01 X55.1022 Y87.1944
G01 X55.1198 Y87.2000
G01 X55.1418 Y87.2076
G01 X55.1762 Y87.2209
G01 X55.1931 Y87.2281
G01 X55.2142 Y87.2379
G01 X55.2471 Y87.2544
G01 X55.2633 Y87.2633
G01 X55.2834 Y87.2751
G01 X55.3145 Y87.2948
G01 X55.3446 Y87.3160
G01 X55.3632 Y87.3301
G01 X55.3775 Y87.3416
G01 X55.4054 Y87.3656
G01 X55.4225 Y87.3814
G01 X55.4357 Y87.3943
G01 X55.4611 Y87.4210
G01 X55.4766 Y87.4384
G01 X55.4999 Y87.4668
G01 X55.5140 Y87.4854
G01 X55.5352 Y87.5155
G01 X55.5452 Y87.5310
G01 X55.5574 Y87.5508
G01 X55.5756 Y87.5829
G01 X55.5840 Y87.5992
G01 X55.5942 Y87.6202
G01 X55.6019 Y87.6369
G01 X55.6160 Y87.6709
G01 X55.6240 Y87.6928
G01 X55.6356 Y87.7278
G01 X55.6454 Y87.7632
G01 X55.6508 Y87.7859
G01 X55.6580 Y87.8220
G01 X55.6609 Y87.8402
G01 X55.6641 Y87.8633
G01 X55.6662 Y87.8816
G01 X55.6689 Y87.9183
G01 X55.6698 Y87.9416
G01 X55.6700 Y97.9600
G01 X55.6698 Y97.9784
G01 X55.6689 Y98.0017
G01 X55.6662 Y98.0384
G01 X55.6641 Y98.0567
G01 X55.6609 Y98.0798
G01 X55.6580 Y98.0980
G01 X55.6508 Y98.1341
G01 X55.6407 Y98.1746
G01 X55.6300 Y98.2098
G01 X55.6240 Y98.2272
G01 X55.6160 Y98.2491
G01 X55.6091 Y98.2662
G01 X55.6019 Y98.2831
G01 X55.5921 Y98.3042
G01 X55.5756 Y98.3371
G01 X55.5667 Y98.3533
G01 X55.5549 Y98.3734
G01 X55.5352 Y98.4045
G01 X55.5248 Y98.4196
G01 X55.5111 Y98.4385
G01 X55.4884 Y98.4675
G01 X55.4766 Y98.4816
G01 X55.4486 Y98.5125
G01 X55.4357 Y98.5257
G01 X55.4090 Y98.5511
G01 X55.3916 Y98.5666
G01 X55.3775 Y98.5784
G01 X55.3485 Y98.6011
G01 X55.3297 Y98.6148
G01 X55.2990 Y98.6352
G01 X55.2834 Y98.6449
G01 X55.2633 Y98.6567
G01 X55.2471 Y98.6656
G01 X55.2142 Y98.6821
G01 X55.1931 Y98.6919
G01 X55.1591 Y98.7060
G01 X55.1418 Y98.7124
G01 X55.1198 Y98.7200
G01 X55.1022 Y98.7256
G01 X55.0668 Y98.7354
G01 X55.0441 Y98.7408
G01 X55.0080 Y98.7480
G01 X54.9898 Y98.7509
G01 X54.9667 Y98.7541
G01 X54.9484 Y98.7562
G01 X54.9301 Y98.7578
G01 X54.9068 Y98.7591
G01 X54.8700 Y98.7600
G01 X50.8700 Y98.7600
G01 X50.8332 Y98.7591
G01 X50.8099 Y98.7578
G01 X50.7733 Y98.7541
G01 X50.7320 Y98.7480
G01 X50.6959 Y98.7408
G01 X50.6554 Y98.7307
G01 X50.6202 Y98.7200
G01 X50.5809 Y98.7060
G01 X50.5469 Y98.6919
G01 X50.5258 Y98.6821
G01 X50.4929 Y98.6656
G01 X50.4608 Y98.6474
G01 X50.4410 Y98.6352
G01 X50.4255 Y98.6252
G01 X50.3954 Y98.6040
G01 X50.3768 Y98.5899
G01 X50.3625 Y98.5784
G01 X50.3346 Y98.5544
G01 X50.3175 Y98.5386
G01 X50.3043 Y98.5257
G01 X50.2789 Y98.4990
G01 X50.2634 Y98.4816
G01 X50.2401 Y98.4532
G01 X50.2152 Y98.4196
G01 X50.1948 Y98.3890
G01 X50.1733 Y98.3533
G01 X50.1560 Y98.3208
G01 X50.1381 Y98.2831
G01 X50.1240 Y98.2491
G01 X50.1160 Y98.2272
G01 X50.1044 Y98.1922
G01 X50.0946 Y98.1568
G01 X50.0892 Y98.1341
G01 X50.0853 Y98.1161
G01 X50.0791 Y98.0798
G01 X50.0759 Y98.0567
G01 X50.0738 Y98.0384
G01 X50.0711 Y98.0017
G01 X50.0702 Y97.9784
G01 X50.0700 Y97.9600
G00 Z2.0000
G00 X51.6700 Y97.1600
G01 F60.00
G01 Z-1.3062
G01 F120.00
G01 X51.6700 Y88.7600
G01 X54.0700 Y88.7600
G01 X54.0700 Y97.1600
G01 X51.6700 Y97.1600
G00 Z2.0000
G00 X50.1500 Y78.0000
G01 F60.00
G01 Z-1.3062
G01 F120.00
G01 X50.1500 Y68.0000
G01 X50.1502 Y67.9816
G01 X50.1511 Y67.9583
G01 X50.1538 Y67.9216
G01 X50.1559 Y67.9033
G01 X50.1591 Y67.8802
G01 X50.1620 Y67.8620
G01 X50.1692 Y67.8259
G01 X50.1793 Y67.7854
G01 X50.1900 Y67.7502
G01 X50.1960 Y67.7328
G01 X50.2040 Y67.7109
G01 X50.2109 Y67.6938
G01 X50.2181 Y67.6769
G01 X50.2279 Y67.6558
G01 X50.2444 Y67.6229
G01 X50.2533 Y67.6067
G01 X50.2651 Y67.5866
G01 X50.2848 Y67.5555
G01 X50.2952 Y67.5404
G01 X50.3089 Y67.5215
G01 X50.3316 Y67.4925
G01 X50.3434 Y67.4784
G01 X50.3589 Y67.4610
G01 X50.3843 Y67.4343
G01 X50.3975 Y67.4214
G01 X50.4146 Y67.4056
G01 X50.4425 Y67.3816
G01 X50.4568 Y67.3701
G01 X50.4754 Y67.3560
G01 X50.5055 Y67.3348
G01 X50.5210 Y67.3248
G01 X50.5408 Y67.3126
G01 X50.5567 Y67.3033
G01 X50.5892 Y67.2860
G01 X50.6102 Y67.2758
G01 X50.6438 Y67.2609
G01 X50.6609 Y67.2540
G01 X50.6828 Y67.2460
G01 X50.7178 Y67.2344
G01 X50.7354 Y67.2293
G01 X50.7580 Y67.2234
G01 X50.7939 Y67.2153
G01 X50.8120 Y67.2120
G01 X50.8350 Y67.2083
G01 X50.8533 Y67.2059
G01 X50.8899 Y67.2022
G01 X50.9132 Y67.2009
G01 X50.9500 Y67.2000
G01 X54.9684 Y67.2002
G01 X55.0101 Y67.2022
G01 X55.0467 Y67.2059
G01 X55.0880 Y67.2120
G01 X55.1061 Y67.2153
G01 X55.1420 Y67.2234
G01 X55.1646 Y67.2293
G01 X55.1822 Y67.2344
G01 X55.1998 Y67.2400
G01 X55.2218 Y67.2476
G01 X55.2562 Y67.2609
G01 X55.2731 Y67.2681
G01 X55.2942 Y67.2779
G01 X55.3271 Y67.2944
G01 X55.3433 Y67.3033
G01 X55.3634 Y67.3151
G01 X55.3945 Y67.3348
G01 X55.4246 Y67.3560
G01 X55.4432 Y67.3701
G01 X55.4575 Y67.3816
G01 X55.4854 Y67.4056
G01 X55.5025 Y67.4214
G01 X55.5157 Y67.4343
G01 X55.5411 Y67.4610
G01 X55.5566 Y67.4784
G01 X55.5799 Y67.5068
G01 X55.5940 Y67.5254
G01 X55.6152 Y67.5555
G01 X55.6252 Y67.5710
G01 X55.6374 Y67.5908
G01 X55.6556 Y67.6229
G01 X55.6640 Y67.6392
G01 X55.6742 Y67.6602
G01 X55.6819 Y67.6769
G01 X55.6960 Y67.7109
G01 X55.7040 Y67.7328
G01 X55.7156 Y67.7678
G01 X55.7254 Y67.8032
G01 X55.7308 Y67.8259
G01 X55.7380 Y67.8620
G01 X55.7409 Y67.8802
G01 X55.7441 Y67.9033
G01 X55.7462 Y67.9216
G01 X55.7489 Y67.9583
G01 X55.7498 Y67.9816
G01 X55.7500 Y78.0000
G01 X55.7498 Y78.0184
G01 X55.7489 Y78.0417
G01 X55.7462 Y78.0784
G01 X55.7441 Y78.0967
G01 X55.7409 Y78.1198
G01 X55.7380 Y78.1380
G01 X55.7308 Y78.1741
G01 X55.7207 Y78.2146
G01 X55.7100 Y78.2498
G01 X55.7040 Y78.2672
G01 X55.6960 Y78.2891
G01 X55.6891 Y78.3062
G01 X55.6819 Y78.3231
G01 X55.6721 Y78.3442
G01 X55.6556 Y78.3771
G01 X55.6467 Y78.3933
G01 X55.6349 Y78.4134
G01 X55.6152 Y78.4445
G01 X55.6048 Y78.4596
G01 X55.5911 Y78.4785
G01 X55.5684 Y78.5075
G01 X55.5566 Y78.5216
G01 X55.5286 Y78.5525
G01 X55.5157 Y78.5657
G01 X55.4890 Y78.5911
G01 X55.4716 Y78.6066
G01 X55.4575 Y78.6184
G01 X55.4285 Y78.6411
G01 X55.4097 Y78.6548
G01 X55.3790 Y78.6752
G01 X55.3634 Y78.6849
G01 X55.3433 Y78.6967
G01 X55.3271 Y78.7056
G01 X55.2942 Y78.7221
G01 X55.2731 Y78.7319
G01 X55.2391 Y78.7460
G01 X55.2218 Y78.7524
G01 X55.1998 Y78.7600
G01 X55.1822 Y78.7656
G01 X55.1468 Y78.7754
G01 X55.1241 Y78.7808
G01 X55.0880 Y78.7880
G01 X55.0698 Y78.7909
G01 X55.0467 Y78.7941
G01 X55.0284 Y78.7962
G01 X55.0101 Y78.7978
G01 X54.9868 Y78.7991
G01 X54.9500 Y78.8000
G01 X50.9500 Y78.8000
G01 X50.9132 Y78.7991
G01 X50.8899 Y78.7978
G01 X50.8533 Y78.7941
G01 X50.8120 Y78.7880
G01 X50.7759 Y78.7808
G01 X50.7354 Y78.7707
G01 X50.7002 Y78.7600
G01 X50.6609 Y78.7460
G01 X50.6269 Y78.7319
G01 X50.6058 Y78.7221
G01 X50.5729 Y78.7056
G01 X50.5408 Y78.6874
G01 X50.5210 Y78.6752
G01 X50.5055 Y78.6652
G01 X50.4754 Y78.6440
G01 X50.4568 Y78.6299
G01 X50.4425 Y78.6184
G01 X50.4146 Y78.5944
G01 X50.3975 Y78.5786
G01 X50.3843 Y78.5657
G01 X50.3589 Y78.5390
G01 X50.3434 Y78.5216
G01 X50.3201 Y78.4932
G01 X50.2952 Y78.4596
G01 X50.2748 Y78.4290
G01 X50.2533 Y78.3933
G01 X50.2360 Y78.3608
G01 X50.2181 Y78.3231
G01 X50.2040 Y78.2891
G01 X50.1960 Y78.2672
G01 X50.1844 Y78.2322
G01 X50.1746 Y78.1968
G01 X50.1692 Y78.1741
G01 X50.1653 Y78.1561
G01 X50.1591 Y78.1198
G01 X50.1559 Y78.0967
G01 X50.1538 Y78.0784
G01 X50.1511 Y78.0417
G01 X50.1502 Y78.0184
G01 X50.1500 Y78.0000
G00 Z2.0000
G00 X51.7500 Y77.2000
G01 F60.00
G01 Z-1.3062
G01 F120.00
G01 X51.7500 Y68.8000
G01 X54.1500 Y68.8000
G01 X54.1500 Y77.2000
G01 X51.7500 Y77.2000
G00 Z2.0000
G00 X50.0700 Y57.8000
G01 F60.00
G01 Z-1.3062
G01 F120.00
G01 X50.0700 Y47.8000
G01 X50.0702 Y47.7816
G01 X50.0711 Y47.7583
G01 X50.0738 Y47.7216
G01 X50.0759 Y47.7033
G01 X50.0791 Y47.6802
G01 X50.0853 Y47.6439
G01 X50.0892 Y47.6259
G01 X50.0993 Y47.5854
G01 X50.1100 Y47.5502
G01 X50.1160 Y47.5328
G01 X50.1240 Y47.5109
G01 X50.1309 Y47.4938
G01 X50.1381 Y47.4769
G01 X50.1479 Y47.4558
G01 X50.1560 Y47.4392
G01 X50.1733 Y47.4067
G01 X50.1851 Y47.3866
G01 X50.2048 Y47.3555
G01 X50.2152 Y47.3404
G01 X50.2289 Y47.3215
G01 X50.2516 Y47.2925
G01 X50.2634 Y47.2784
G01 X50.2789 Y47.2610
G01 X50.3043 Y47.2343
G01 X50.3175 Y47.2214
G01 X50.3346 Y47.2056
G01 X50.3484 Y47.1934
G01 X50.3768 Y47.1701
G01 X50.3954 Y47.1560
G01 X50.4255 Y47.1348
G01 X50.4410 Y47.1248
G01 X50.4608 Y47.1126
G01 X50.4929 Y47.0944
G01 X50.5092 Y47.0860
G01 X50.5302 Y47.0758
G01 X50.5638 Y47.0609
G01 X50.5809 Y47.0540
G01 X50.6028 Y47.0460
G01 X50.6202 Y47.0400
G01 X50.6554 Y47.0293
G01 X50.6780 Y47.0234
G01 X50.7139 Y47.0153
G01 X50.7320 Y47.0120
G01 X50.7550 Y47.0083
G01 X50.7916 Y47.0038
G01 X50.8099 Y47.0022
G01 X50.8332 Y47.0009
G01 X50.8700 Y47.0000
G01 X54.8884 Y47.0002
G01 X54.9301 Y47.0022
G01 X54.9667 Y47.0059
G01 X55.0080 Y47.0120
G01 X55.0441 Y47.0192
G01 X55.0620 Y47.0234
G01 X55.0846 Y47.0293
G01 X55.1022 Y47.0344
G01 X55.1372 Y47.0460
G01 X55.1591 Y47.0540
G01 X55.1762 Y47.0609
G01 X55.1931 Y47.0681
G01 X55.2142 Y47.0779
G01 X55.2308 Y47.0860
G01 X55.2633 Y47.1033
G01 X55.2834 Y47.1151
G01 X55.3145 Y47.1348
G01 X55.3446 Y47.1560
G01 X55.3632 Y47.1701
G01 X55.3916 Y47.1934
G01 X55.4054 Y47.2056
G01 X55.4225 Y47.2214
G01 X55.4357 Y47.2343
G01 X55.4611 Y47.2610
G01 X55.4766 Y47.2784
G01 X55.4999 Y47.3068
G01 X55.5140 Y47.3254
G01 X55.5248 Y47.3404
G01 X55.5452 Y47.3710
G01 X55.5574 Y47.3908
G01 X55.5756 Y47.4229
G01 X55.5840 Y47.4392
G01 X55.5942 Y47.4602
G01 X55.6091 Y47.4938
G01 X55.6160 Y47.5109
G01 X55.6240 Y47.5328
G01 X55.6356 Y47.5678
G01 X55.6454 Y47.6032
G01 X55.6508 Y47.6259
G01 X55.6547 Y47.6439
G01 X55.6609 Y47.6802
G01 X55.6641 Y47.7033
G01 X55.6662 Y47.7216
G01 X55.6689 Y47.7583
G01 X55.6698 Y47.7816
G01 X55.6700 Y57.8000
G01 X55.6698 Y57.8184
G01 X55.6689 Y57.8417
G01 X55.6662 Y57.8784
G01 X55.6641 Y57.8967
G01 X55.6609 Y57.9198
G01 X55.6547 Y57.9561
G01 X55.6508 Y57.9741
G01 X55.6407 Y58.0146
G01 X55.6300 Y58.0498
G01 X55.6240 Y58.0672
G01 X55.6160 Y58.0891
G01 X55.6091 Y58.1062
G01 X55.6019 Y58.1231
G01 X55.5921 Y58.1442
G01 X55.5840 Y58.1608
G01 X55.5667 Y58.1933
G01 X55.5549 Y58.2134
G01 X55.5352 Y58.2445
G01 X55.5248 Y58.2596
G01 X55.5111 Y58.2785
G01 X55.4884 Y58.3075
G01 X55.4766 Y58.3216
G01 X55.4611 Y58.3390
G01 X55.4357 Y58.3657
G01 X55.4225 Y58.3786
G01 X55.4054 Y58.3944
G01 X55.3916 Y58.4066
G01 X55.3632 Y58.4299
G01 X55.3296 Y58.4548
G01 X55.3145 Y58.4652
G01 X55.2834 Y58.4849
G01 X55.2633 Y58.4967
G01 X55.2471 Y58.5056
G01 X55.2142 Y58.5221
G01 X55.1931 Y58.5319
G01 X55.1591 Y58.5460
G01 X55.1418 Y58.5524
G01 X55.1198 Y58.5600
G01 X55.1022 Y58.5656
G01 X55.0668 Y58.5754
G01 X55.0441 Y58.5808
G01 X55.0261 Y58.5847
G01 X54.9898 Y58.5909
G01 X54.9667 Y58.5941
G01 X54.9484 Y58.5962
G01 X54.9117 Y58.5989
G01 X54.8884 Y58.5998
G01 X54.8700 Y58.6000
G01 X50.8700 Y58.6000
G01 X50.8332 Y58.5991
G01 X50.8099 Y58.5978
G01 X50.7733 Y58.5941
G01 X50.7320 Y58.5880
G01 X50.6959 Y58.5808
G01 X50.6554 Y58.5707
G01 X50.6202 Y58.5600
G01 X50.5809 Y58.5460
G01 X50.5469 Y58.5319
G01 X50.5258 Y58.5221
G01 X50.4929 Y58.5056
G01 X50.4767 Y58.4967
G01 X50.4566 Y58.4849
G01 X50.4255 Y58.4652
G01 X50.4104 Y58.4548
G01 X50.3915 Y58.4411
G01 X50.3625 Y58.4184
G01 X50.3484 Y58.4066
G01 X50.3310 Y58.3911
G01 X50.3043 Y58.3657
G01 X50.2789 Y58.3390
G01 X50.2634 Y58.3216
G01 X50.2401 Y58.2932
G01 X50.2152 Y58.2596
G01 X50.1948 Y58.2290
G01 X50.1733 Y58.1933
G01 X50.1560 Y58.1608
G01 X50.1381 Y58.1231
G01 X50.1240 Y58.0891
G01 X50.1160 Y58.0672
G01 X50.1044 Y58.0322
G01 X50.0993 Y58.0146
G01 X50.0934 Y57.9920
G01 X50.0853 Y57.9561
G01 X50.0791 Y57.9198
G01 X50.0759 Y57.8967
G01 X50.0738 Y57.8784
G01 X50.0711 Y57.8417
G01 X50.0702 Y57.8184
G01 X50.0700 Y57.8000
G00 Z2.0000
G00 X51.6700 Y57.0000
G01 F60.00
G01 Z-1.3062
G01 F120.00
G01 X51.6700 Y48.6000
G01 X54.0700 Y48.6000
G01 X54.0700 Y57.0000
G01 X51.6700 Y57.0000
G00 Z2.0000
G00 X50.0700 Y38.0000
G01 F60.00
G01 Z-1.3062
G01 F120.00
G01 X50.0700 Y28.0000
G01 X50.0702 Y27.9816
G01 X50.0711 Y27.9583
G01 X50.0738 Y27.9216
G01 X50.0759 Y27.9033
G01 X50.0791 Y27.8802
G01 X50.0853 Y27.8439
G01 X50.0892 Y27.8259
G01 X50.0993 Y27.7854
G01 X50.1100 Y27.7502
G01 X50.1160 Y27.7328
G01 X50.1240 Y27.7109
G01 X50.1309 Y27.6938
G01 X50.1381 Y27.6769
G01 X50.1479 Y27.6558
G01 X50.1644 Y27.6229
G01 X50.1733 Y27.6067
G01 X50.1851 Y27.5866
G01 X50.2048 Y27.5555
G01 X50.2152 Y27.5404
G01 X50.2289 Y27.5215
G01 X50.2516 Y27.4925
G01 X50.2634 Y27.4784
G01 X50.2789 Y27.4610
G01 X50.3043 Y27.4343
G01 X50.3175 Y27.4214
G01 X50.3346 Y27.4056
G01 X50.3484 Y27.3934
G01 X50.3768 Y27.3701
G01 X50.3954 Y27.3560
G01 X50.4255 Y27.3348
G01 X50.4410 Y27.3248
G01 X50.4608 Y27.3126
G01 X50.4767 Y27.3033
G01 X50.5092 Y27.2860
G01 X50.5302 Y27.2758
G01 X50.5638 Y27.2609
G01 X50.5809 Y27.2540
G01 X50.6028 Y27.2460
G01 X50.6202 Y27.2400
G01 X50.6554 Y27.2293
G01 X50.6780 Y27.2234
G01 X50.7139 Y27.2153
G01 X50.7320 Y27.2120
G01 X50.7550 Y27.2083
G01 X50.7916 Y27.2038
G01 X50.8099 Y27.2022
G01 X50.8332 Y27.2009
G01 X50.8700 Y27.2000
G01 X54.8884 Y27.2002
G01 X54.9301 Y27.2022
G01 X54.9667 Y27.2059
G01 X55.0080 Y27.2120
G01 X55.0261 Y27.2153
G01 X55.0620 Y27.2234
G01 X55.0846 Y27.2293
G01 X55.1022 Y27.2344
G01 X55.1198 Y27.2400
G01 X55.1418 Y27.2476
G01 X55.1762 Y27.2609
G01 X55.1931 Y27.2681
G01 X55.2142 Y27.2779
G01 X55.2471 Y27.2944
G01 X55.2633 Y27.3033
G01 X55.2834 Y27.3151
G01 X55.3145 Y27.3348
G01 X55.3446 Y27.3560
G01 X55.3632 Y27.3701
G01 X55.3916 Y27.3934
G01 X55.4054 Y27.4056
G01 X55.4225 Y27.4214
G01 X55.4357 Y27.4343
G01 X55.4611 Y27.4610
G01 X55.4766 Y27.4784
G01 X55.4999 Y27.5068
G01 X55.5140 Y27.5254
G01 X55.5352 Y27.5555
G01 X55.5452 Y27.5710
G01 X55.5574 Y27.5908
G01 X55.5756 Y27.6229
G01 X55.5840 Y27.6392
G01 X55.5942 Y27.6602
G01 X55.6091 Y27.6938
G01 X55.6160 Y27.7109
G01 X55.6240 Y27.7328
G01 X55.6356 Y27.7678
G01 X55.6454 Y27.8032
G01 X55.6508 Y27.8259
G01 X55.6547 Y27.8439
G01 X55.6609 Y27.8802
G01 X55.6641 Y27.9033
G01 X55.6662 Y27.9216
G01 X55.6689 Y27.9583
G01 X55.6698 Y27.9816
G01 X55.6700 Y38.0000
G01 X55.6698 Y38.0184
G01 X55.6689 Y38.0417
G01 X55.6662 Y38.0784
G01 X55.6641 Y38.0967
G01 X55.6609 Y38.1198
G01 X55.6547 Y38.1561
G01 X55.6508 Y38.1741
G01 X55.6407 Y38.2146
G01 X55.6300 Y38.2498
G01 X55.6240 Y38.2672
G01 X55.6160 Y38.2891
G01 X55.6091 Y38.3062
G01 X55.6019 Y38.3231
G01 X55.5921 Y38.3442
G01 X55.5840 Y38.3608
G01 X55.5667 Y38.3933
G01 X55.5549 Y38.4134
G01 X55.5352 Y38.4445
G01 X55.5248 Y38.4596
G01 X55.5111 Y38.4785
G01 X55.4884 Y38.5075
G01 X55.4766 Y38.5216
G01 X55.4611 Y38.5390
G01 X55.4357 Y38.5657
G01 X55.4225 Y38.5786
G01 X55.4054 Y38.5944
G01 X55.3916 Y38.6066
G01 X55.3632 Y38.6299
G01 X55.3296 Y38.6548
G01 X55.3145 Y38.6652
G01 X55.2834 Y38.6849
G01 X55.2633 Y38.6967
G01 X55.2471 Y38.7056
G01 X55.2142 Y38.7221
G01 X55.1931 Y38.7319
G01 X55.1591 Y38.7460
G01 X55.1418 Y38.7524
G01 X55.1198 Y38.7600
G01 X55.1022 Y38.7656
G01 X55.0668 Y38.7754
G01 X55.0441 Y38.7808
G01 X55.0261 Y38.7847
G01 X54.9898 Y38.7909
G01 X54.9667 Y38.7941
G01 X54.9484 Y38.7962
G01 X54.9117 Y38.7989
G01 X54.8884 Y38.7998
G01 X54.8700 Y38.8000
G01 X50.8700 Y38.8000
G01 X50.8332 Y38.7991
G01 X50.8099 Y38.7978
G01 X50.7733 Y38.7941
G01 X50.7320 Y38.7880
G01 X50.6959 Y38.7808
G01 X50.6554 Y38.7707
G01 X50.6202 Y38.7600
G01 X50.5809 Y38.7460
G01 X50.5469 Y38.7319
G01 X50.5258 Y38.7221
G01 X50.4929 Y38.7056
G01 X50.4767 Y38.6967
G01 X50.4566 Y38.6849
G01 X50.4255 Y38.6652
G01 X50.4104 Y38.6548
G01 X50.3915 Y38.6411
G01 X50.3625 Y38.6184
G01 X50.3484 Y38.6066
G01 X50.3310 Y38.5911
G01 X50.3043 Y38.5657
G01 X50.2789 Y38.5390
G01 X50.2634 Y38.5216
G01 X50.2401 Y38.4932
G01 X50.2152 Y38.4596
G01 X50.1948 Y38.4290
G01 X50.1733 Y38.3933
G01 X50.1560 Y38.3608
G01 X50.1381 Y38.3231
G01 X50.1240 Y38.2891
G01 X50.1160 Y38.2672
G01 X50.1044 Y38.2322
G01 X50.0993 Y38.2146
G01 X50.0934 Y38.1920
G01 X50.0853 Y38.1561
G01 X50.0791 Y38.1198
G01 X50.0759 Y38.0967
G01 X50.0738 Y38.0784
G01 X50.0711 Y38.0417
G01 X50.0702 Y38.0184
G01 X50.0700 Y38.0000
G00 Z2.0000
G00 X51.6700 Y37.2000
G01 F60.00
G01 Z-1.3062
G01 F120.00
G01 X51.6700 Y28.8000
G01 X54.0700 Y28.8000
G01 X54.0700 Y37.2000
G01 X51.6700 Y37.2000
G00 Z2.0000
G00 X49.9900 Y17.9700
G01 F60.00
G01 Z-1.3062
G01 F120.00
G01 X49.9900 Y7.9700
G01 X49.9902 Y7.9516
G01 X49.9911 Y7.9283
G01 X49.9938 Y7.8916
G01 X49.9959 Y7.8733
G01 X49.9991 Y7.8502
G01 X50.0053 Y7.8139
G01 X50.0092 Y7.7959
G01 X50.0193 Y7.7554
G01 X50.0244 Y7.7378
G01 X50.0360 Y7.7028
G01 X50.0440 Y7.6809
G01 X50.0509 Y7.6638
G01 X50.0581 Y7.6469
G01 X50.0679 Y7.6258
G01 X50.0844 Y7.5929
G01 X50.0933 Y7.5767
G01 X50.1051 Y7.5566
G01 X50.1248 Y7.5255
G01 X50.1352 Y7.5104
G01 X50.1489 Y7.4915
G01 X50.1716 Y7.4625
G01 X50.1834 Y7.4484
G01 X50.1989 Y7.4310
G01 X50.2243 Y7.4043
G01 X50.2375 Y7.3914
G01 X50.2546 Y7.3756
G01 X50.2684 Y7.3634
G01 X50.2968 Y7.3401
G01 X50.3154 Y7.3260
G01 X50.3455 Y7.3048
G01 X50.3610 Y7.2948
G01 X50.3808 Y7.2826
G01 X50.3967 Y7.2733
G01 X50.4292 Y7.2560
G01 X50.4502 Y7.2458
G01 X50.4838 Y7.2309
G01 X50.5009 Y7.2240
G01 X50.5228 Y7.2160
G01 X50.5402 Y7.2100
G01 X50.5754 Y7.1993
G01 X50.5980 Y7.1934
G01 X50.6339 Y7.1853
G01 X50.6520 Y7.1820
G01 X50.6750 Y7.1783
G01 X50.7116 Y7.1738
G01 X50.7299 Y7.1722
G01 X50.7532 Y7.1709
G01 X50.7900 Y7.1700
G01 X54.8084 Y7.1702
G01 X54.8501 Y7.1722
G01 X54.8867 Y7.1759
G01 X54.9280 Y7.1820
G01 X54.9461 Y7.1853
G01 X54.9820 Y7.1934
G01 X55.0046 Y7.1993
G01 X55.0222 Y7.2044
G01 X55.0398 Y7.2100
G01 X55.0618 Y7.2176
G01 X55.0962 Y7.2309
G01 X55.1131 Y7.2381
G01 X55.1342 Y7.2479
G01 X55.1671 Y7.2644
G01 X55.1833 Y7.2733
G01 X55.2034 Y7.2851
G01 X55.2345 Y7.3048
G01 X55.2646 Y7.3260
G01 X55.2832 Y7.3401
G01 X55.3116 Y7.3634
G01 X55.3254 Y7.3756
G01 X55.3425 Y7.3914
G01 X55.3557 Y7.4043
G01 X55.3811 Y7.4310
G01 X55.3966 Y7.4484
G01 X55.4199 Y7.4768
G01 X55.4340 Y7.4954
G01 X55.4448 Y7.5104
G01 X55.4652 Y7.5410
G01 X55.4774 Y7.5608
G01 X55.4956 Y7.5929
G01 X55.5040 Y7.6092
G01 X55.5142 Y7.6302
G01 X55.5219 Y7.6469
G01 X55.5360 Y7.6809
G01 X55.5440 Y7.7028
G01 X55.5556 Y7.7378
G01 X55.5654 Y7.7732
G01 X55.5708 Y7.7959
G01 X55.5747 Y7.8139
G01 X55.5809 Y7.8502
G01 X55.5841 Y7.8733
G01 X55.5862 Y7.8916
G01 X55.5889 Y7.9283
G01 X55.5898 Y7.9516
G01 X55.5900 Y17.9700
G01 X55.5898 Y17.9884
G01 X55.5889 Y18.0117
G01 X55.5862 Y18.0484
G01 X55.5841 Y18.0667
G01 X55.5809 Y18.0898
G01 X55.5747 Y18.1261
G01 X55.5708 Y18.1441
G01 X55.5607 Y18.1846
G01 X55.5500 Y18.2198
G01 X55.5440 Y18.2372
G01 X55.5360 Y18.2591
G01 X55.5291 Y18.2762
G01 X55.5219 Y18.2931
G01 X55.5121 Y18.3142
G01 X55.4956 Y18.3471
G01 X55.4867 Y18.3633
G01 X55.4749 Y18.3834
G01 X55.4552 Y18.4145
G01 X55.4448 Y18.4296
G01 X55.4311 Y18.4485
G01 X55.4084 Y18.4775
G01 X55.3966 Y18.4916
G01 X55.3686 Y18.5225
G01 X55.3425 Y18.5486
G01 X55.3290 Y18.5611
G01 X55.3116 Y18.5766
G01 X55.2975 Y18.5884
G01 X55.2685 Y18.6111
G01 X55.2497 Y18.6248
G01 X55.2190 Y18.6452
G01 X55.2034 Y18.6549
G01 X55.1833 Y18.6667
G01 X55.1671 Y18.6756
G01 X55.1342 Y18.6921
G01 X55.1131 Y18.7019
G01 X55.0791 Y18.7160
G01 X55.0618 Y18.7224
G01 X55.0398 Y18.7300
G01 X55.0222 Y18.7356
G01 X54.9868 Y18.7454
G01 X54.9641 Y18.7508
G01 X54.9280 Y18.7580
G01 X54.9098 Y18.7609
G01 X54.8867 Y18.7641
G01 X54.8684 Y18.7662
G01 X54.8317 Y18.7689
G01 X54.8084 Y18.7698
G01 X54.7900 Y18.7700
G01 X50.7900 Y18.7700
G01 X50.7532 Y18.7691
G01 X50.7299 Y18.7678
G01 X50.6933 Y18.7641
G01 X50.6520 Y18.7580
G01 X50.6159 Y18.7508
G01 X50.5754 Y18.7407
G01 X50.5402 Y18.7300
G01 X50.5009 Y18.7160
G01 X50.4669 Y18.7019
G01 X50.4458 Y18.6921
G01 X50.4129 Y18.6756
G01 X50.3967 Y18.6667
G01 X50.3766 Y18.6549
G01 X50.3455 Y18.6352
G01 X50.3303 Y18.6248
G01 X50.3115 Y18.6111
G01 X50.2825 Y18.5884
G01 X50.2546 Y18.5644
G01 X50.2375 Y18.5486
G01 X50.2243 Y18.5357
G01 X50.1989 Y18.5090
G01 X50.1834 Y18.4916
G01 X50.1601 Y18.4632
G01 X50.1352 Y18.4296
G01 X50.1148 Y18.3990
G01 X50.0933 Y18.3633
G01 X50.0760 Y18.3308
G01 X50.0581 Y18.2931
G01 X50.0440 Y18.2591
G01 X50.0360 Y18.2372
G01 X50.0244 Y18.2022
G01 X50.0193 Y18.1846
G01 X50.0134 Y18.1620
G01 X50.0053 Y18.1261
G01 X49.9991 Y18.0898
G01 X49.9959 Y18.0667
G01 X49.9938 Y18.0484
G01 X49.9911 Y18.0117
G01 X49.9902 Y17.9884
G01 X49.9900 Y17.9700
G00 Z2.0000
G00 X51.5900 Y17.1700
G01 F60.00
G01 Z-1.3062
G01 F120.00
G01 X51.5900 Y8.7700
G01 X53.9900 Y8.7700
G01 X53.9900 Y17.1700
G01 X51.5900 Y17.1700
G00 Z2.0000
M05
G00 Z2.0000
G00 Z15.00


