(G-CODE GENERATED BY FLATCAM v8.994 - www.flatcam.org - Version Date: 2020/11/7)

(Name: Beecounter-NPTH.drl_cnc)
(Type: G-code from Geometry)
(Units: MM)

(Created on Saturday, 30 November 2024 at 20:07)

(This preprocessor is the default preprocessor used by FlatCAM.)
(It is made to work with MACH3 compatible motion controllers.)


(TOOLS DIAMETER: )
(Tool: 1 -> Dia: 2.49936)

(FEEDRATE Z: )
(Tool: 1 -> Feedrate: 50.0)

(FEEDRATE RAPIDS: )
(Tool: 1 -> Feedrate Rapids: 1500)

(Z_CUT: )
(Tool: 1 -> Z_Cut: -1.7)

(Tools Offset: )
(Tool: 1 -> Offset Z: 0.0)

(Z_MOVE: )
(Tool: 1 -> Z_Move: 2)

(Z Toolchange: 15 mm)
(X,Y Toolchange: 0.0000, 0.0000 mm)
(Z Start: None mm)
(Z End: 0.5 mm)
(X,Y End: None mm)
(Steps per circle: 64)
(Preprocessor Excellon: default)

(X range:    5.6748 ...   53.1728  mm)
(Y range:    3.7044 ...  126.3051  mm)

(Spindle Speed: 0 RPM)
G21
G90
G94

G01 F50.00

M5
G00 Z15.0000
T1
G00 X0.0000 Y0.0000                
M6
(MSG, Change to Tool Dia = 2.4994 ||| Total drills for tool T1 = 26)
M0
G00 Z15.0000

G01 F50.00
M03
G00 X51.9231 Y125.0554
G01 Z-1.7000
G01 Z0
G00 Z2.0000
G00 X51.9231 Y119.9551
G01 Z-1.7000
G01 Z0
G00 Z2.0000
G00 X51.9231 Y104.9538
G01 Z-1.7000
G01 Z0
G00 Z2.0000
G00 X51.9231 Y99.9551
G01 Z-1.7000
G01 Z0
G00 Z2.0000
G00 X51.9231 Y84.9539
G01 Z-1.7000
G01 Z0
G00 Z2.0000
G00 X51.9231 Y79.9552
G01 Z-1.7000
G01 Z0
G00 Z2.0000
G00 X51.9231 Y64.9539
G01 Z-1.7000
G01 Z0
G00 Z2.0000
G00 X51.9231 Y59.9552
G01 Z-1.7000
G01 Z0
G00 Z2.0000
G00 X51.9231 Y44.9540
G01 Z-1.7000
G01 Z0
G00 Z2.0000
G00 X51.9231 Y39.9552
G01 Z-1.7000
G01 Z0
G00 Z2.0000
G00 X51.9231 Y24.9540
G01 Z-1.7000
G01 Z0
G00 Z2.0000
G00 X51.9231 Y19.9553
G01 Z-1.7000
G01 Z0
G00 Z2.0000
G00 X51.9231 Y4.9540
G01 Z-1.7000
G01 Z0
G00 Z2.0000
G00 X6.9245 Y4.9540
G01 Z-1.7000
G01 Z0
G00 Z2.0000
G00 X6.9245 Y19.9553
G01 Z-1.7000
G01 Z0
G00 Z2.0000
G00 X6.9245 Y24.9540
G01 Z-1.7000
G01 Z0
G00 Z2.0000
G00 X6.9245 Y39.9552
G01 Z-1.7000
G01 Z0
G00 Z2.0000
G00 X6.9245 Y44.9540
G01 Z-1.7000
G01 Z0
G00 Z2.0000
G00 X6.9245 Y59.9552
G01 Z-1.7000
G01 Z0
G00 Z2.0000
G00 X6.9245 Y64.9539
G01 Z-1.7000
G01 Z0
G00 Z2.0000
G00 X6.9245 Y79.9552
G01 Z-1.7000
G01 Z0
G00 Z2.0000
G00 X6.9245 Y84.9539
G01 Z-1.7000
G01 Z0
G00 Z2.0000
G00 X6.9245 Y99.9551
G01 Z-1.7000
G01 Z0
G00 Z2.0000
G00 X6.9245 Y104.9538
G01 Z-1.7000
G01 Z0
G00 Z2.0000
G00 X6.9245 Y119.9551
G01 Z-1.7000
G01 Z0
G00 Z2.0000
G00 X6.9245 Y124.9538
G01 Z-1.7000
G01 Z0
G00 Z2.0000
M05
G00 Z0.50


