(G-CODE GENERATED BY FLATCAM v8.994 - www.flatcam.org - Version Date: 2020/11/7)

(Name: Beecounter-NPTH.drl_cnc)
(Type: G-code from Geometry)
(Units: MM)

(Created on Saturday, 25 January 2025 at 13:27)

(This preprocessor is the default preprocessor used by FlatCAM.)
(It is made to work with MACH3 compatible motion controllers.)


(TOOLS DIAMETER: )
(Tool: 1 -> Dia: 3.2)

(FEEDRATE Z: )
(Tool: 1 -> Feedrate: 50.0)

(FEEDRATE RAPIDS: )
(Tool: 1 -> Feedrate Rapids: 1500)

(Z_CUT: )
(Tool: 1 -> Z_Cut: -1.7)

(Tools Offset: )
(Tool: 1 -> Offset Z: 0.0)

(Z_MOVE: )
(Tool: 1 -> Z_Move: 2)

(Z Toolchange: 15 mm)
(X,Y Toolchange: 0.0000, 0.0000 mm)
(Z Start: None mm)
(Z End: 0.5 mm)
(X,Y End: None mm)
(Steps per circle: 64)
(Preprocessor Excellon: default)

(X range:    3.3500 ...   51.5870  mm)
(Y range:    1.3450 ...  139.6900  mm)

(Spindle Speed: 0 RPM)
G21
G90
G94

G01 F50.00

M5
G00 Z15.0000
T1
G00 X0.0000 Y0.0000                
M6
(MSG, Change to Tool Dia = 3.2000 ||| Total drills for tool T1 = 28)
M0
G00 Z15.0000

G01 F50.00
M03
G00 X4.9500 Y123.0800
G01 Z-1.7000
G01 Z0
G00 Z2.0000
G00 X4.9870 Y117.9450
G01 Z-1.7000
G01 Z0
G00 Z2.0000
G00 X4.9870 Y102.9450
G01 Z-1.7000
G01 Z0
G00 Z2.0000
G00 X4.9870 Y97.9450
G01 Z-1.7000
G01 Z0
G00 Z2.0000
G00 X4.9870 Y82.9450
G01 Z-1.7000
G01 Z0
G00 Z2.0000
G00 X4.9870 Y77.9450
G01 Z-1.7000
G01 Z0
G00 Z2.0000
G00 X4.9870 Y62.9450
G01 Z-1.7000
G01 Z0
G00 Z2.0000
G00 X4.9870 Y57.9450
G01 Z-1.7000
G01 Z0
G00 Z2.0000
G00 X4.9870 Y42.9450
G01 Z-1.7000
G01 Z0
G00 Z2.0000
G00 X4.9870 Y37.9450
G01 Z-1.7000
G01 Z0
G00 Z2.0000
G00 X4.9870 Y22.9450
G01 Z-1.7000
G01 Z0
G00 Z2.0000
G00 X4.9870 Y17.9450
G01 Z-1.7000
G01 Z0
G00 Z2.0000
G00 X4.9870 Y2.9450
G01 Z-1.7000
G01 Z0
G00 Z2.0000
G00 X49.9870 Y2.9450
G01 Z-1.7000
G01 Z0
G00 Z2.0000
G00 X49.9870 Y17.9450
G01 Z-1.7000
G01 Z0
G00 Z2.0000
G00 X49.9870 Y22.9450
G01 Z-1.7000
G01 Z0
G00 Z2.0000
G00 X49.9870 Y37.9450
G01 Z-1.7000
G01 Z0
G00 Z2.0000
G00 X49.9870 Y42.9450
G01 Z-1.7000
G01 Z0
G00 Z2.0000
G00 X49.9870 Y57.9450
G01 Z-1.7000
G01 Z0
G00 Z2.0000
G00 X49.9870 Y62.9450
G01 Z-1.7000
G01 Z0
G00 Z2.0000
G00 X49.9870 Y77.9450
G01 Z-1.7000
G01 Z0
G00 Z2.0000
G00 X49.9870 Y82.9450
G01 Z-1.7000
G01 Z0
G00 Z2.0000
G00 X49.9870 Y97.9450
G01 Z-1.7000
G01 Z0
G00 Z2.0000
G00 X49.9870 Y102.9450
G01 Z-1.7000
G01 Z0
G00 Z2.0000
G00 X49.9870 Y117.9450
G01 Z-1.7000
G01 Z0
G00 Z2.0000
G00 X49.9870 Y122.9450
G01 Z-1.7000
G01 Z0
G00 Z2.0000
G00 X49.9870 Y137.9450
G01 Z-1.7000
G01 Z0
G00 Z2.0000
G00 X5.0200 Y138.0900
G01 Z-1.7000
G01 Z0
G00 Z2.0000
M05
G00 Z0.50


