(G-CODE GENERATED BY FLATCAM v8.994 - www.flatcam.org - Version Date: 2020/11/7)

(Name: Beecounter-B_Cu.gbr_iso_combined_cnc)
(Type: G-code from Geometry)
(Units: MM)

(Created on Saturday, 30 November 2024 at 13:40)

(This preprocessor is the default preprocessor used by FlatCAM.)
(It is made to work with MACH3 compatible motion controllers.)

(TOOL DIAMETER: 0.3 mm)
(Feedrate_XY: 120.0 mm/min)
(Feedrate_Z: 60.0 mm/min)
(Feedrate rapids 1500.0 mm/min)

(Z_Cut: -0.1 mm)
(Z_Move: 2.0 mm)
(Z Start: None mm)
(Z End: 15.0 mm)
(X,Y End: None mm)
(Steps per circle: 64)
(Preprocessor Geometry: default)

(X range:    0.2919 ...   58.6990  mm)
(Y range:    0.3427 ...  159.6100  mm)

(Spindle Speed: 0.0 RPM)
G21
G90
G94

G01 F120.00

M5
G00 Z15.0000
G00 X0.0000 Y0.0000
T1
M6    
(MSG, Change to Tool Dia = 0.3000)
M0
G00 Z15.0000

M03
G01 F120.00
G00 X0.2934 Y5.0732
G01 F60.00
G01 Z-0.1000
G01 F120.00
G01 X0.2919 Y3.1247
G01 X0.2923 Y3.1140
G01 X0.2935 Y3.1033
G01 X0.2954 Y3.0928
G01 X0.3083 Y3.0339
G01 X0.3130 Y3.0196
G01 X0.3174 Y3.0092
G01 X0.3207 Y3.0025
G01 X0.3284 Y2.9897
G01 X0.3374 Y2.9776
G01 X0.3855 Y2.9220
G01 X0.3906 Y2.9164
G01 X0.3987 Y2.9086
G01 X0.4103 Y2.8991
G01 X0.4229 Y2.8909
G01 X0.4362 Y2.8839
G01 X0.4501 Y2.8783
G01 X0.5162 Y2.8574
G01 X0.5272 Y2.8547
G01 X0.5364 Y2.8531
G01 X0.6353 Y2.8266
G01 X0.7152 Y2.7805
G01 X0.7805 Y2.7152
G01 X0.8266 Y2.6353
G01 X0.8505 Y2.5461
G01 X0.8505 Y1.1209
G01 X0.8512 Y1.1102
G01 X0.8532 Y1.0961
G01 X0.8669 Y1.0338
G01 X0.8690 Y1.0266
G01 X0.8729 Y1.0161
G01 X0.8776 Y1.0058
G01 X0.8830 Y0.9960
G01 X0.8891 Y0.9866
G01 X0.8959 Y0.9776
G01 X0.9466 Y0.9192
G01 X0.9544 Y0.9112
G01 X0.9599 Y0.9062
G01 X0.9687 Y0.8993
G01 X0.9779 Y0.8930
G01 X0.9844 Y0.8892
G01 X0.9943 Y0.8841
G01 X1.0046 Y0.8798
G01 X1.0116 Y0.8774
G01 X1.0857 Y0.8556
G01 X1.0961 Y0.8532
G01 X1.1102 Y0.8512
G01 X1.1245 Y0.8505
G01 X2.5461 Y0.8505
G01 X2.6353 Y0.8266
G01 X2.7152 Y0.7805
G01 X2.7805 Y0.7152
G01 X2.8266 Y0.6353
G01 X2.8360 Y0.6003
G01 X2.8397 Y0.5885
G01 X2.8493 Y0.5623
G01 X2.8523 Y0.5556
G01 X2.8574 Y0.5458
G01 X2.8632 Y0.5364
G01 X2.8720 Y0.5246
G01 X2.9200 Y0.4689
G01 X2.9303 Y0.4581
G01 X2.9416 Y0.4484
G01 X2.9538 Y0.4399
G01 X2.9668 Y0.4326
G01 X2.9805 Y0.4267
G01 X2.9911 Y0.4231
G01 X3.0615 Y0.4024
G01 X3.0755 Y0.3994
G01 X3.0897 Y0.3976
G01 X3.1004 Y0.3973
G01 X55.8845 Y0.3427
G01 X55.8970 Y0.3432
G01 X55.9214 Y0.3453
G01 X55.9287 Y0.3462
G01 X55.9396 Y0.3484
G01 X55.9467 Y0.3502
G01 X55.9607 Y0.3550
G01 X55.9708 Y0.3595
G01 X56.0337 Y0.3900
G01 X56.0436 Y0.3953
G01 X56.0530 Y0.4012
G01 X56.0620 Y0.4079
G01 X56.0704 Y0.4152
G01 X56.0757 Y0.4204
G01 X56.0856 Y0.4316
G01 X56.0943 Y0.4437
G01 X56.1326 Y0.5065
G01 X56.1394 Y0.5191
G01 X56.1438 Y0.5289
G01 X56.1484 Y0.5423
G01 X56.1734 Y0.6353
G01 X56.2195 Y0.7152
G01 X56.2848 Y0.7805
G01 X56.3647 Y0.8266
G01 X56.4539 Y0.8505
G01 X57.8755 Y0.8505
G01 X57.8898 Y0.8512
G01 X57.9004 Y0.8526
G01 X57.9074 Y0.8539
G01 X57.9589 Y0.8651
G01 X57.9698 Y0.8679
G01 X57.9804 Y0.8715
G01 X57.9908 Y0.8759
G01 X58.0008 Y0.8811
G01 X58.0103 Y0.8870
G01 X58.0165 Y0.8913
G01 X58.0252 Y0.8983
G01 X58.0780 Y0.9441
G01 X58.0888 Y0.9544
G01 X58.0985 Y0.9657
G01 X58.1070 Y0.9779
G01 X58.1143 Y0.9909
G01 X58.1202 Y1.0046
G01 X58.1237 Y1.0152
G01 X58.1453 Y1.0891
G01 X58.1468 Y1.0961
G01 X58.1484 Y1.1067
G01 X58.1495 Y1.1209
G01 X58.1495 Y2.5461
G01 X58.1734 Y2.6353
G01 X58.2195 Y2.7152
G01 X58.2848 Y2.7805
G01 X58.3647 Y2.8266
G01 X58.4459 Y2.8486
G01 X58.4726 Y2.8582
G01 X58.4794 Y2.8610
G01 X58.4894 Y2.8659
G01 X58.5020 Y2.8735
G01 X58.5138 Y2.8823
G01 X58.5723 Y2.9329
G01 X58.5802 Y2.9407
G01 X58.5852 Y2.9462
G01 X58.5922 Y2.9550
G01 X58.6004 Y2.9674
G01 X58.6073 Y2.9806
G01 X58.6129 Y2.9944
G01 X58.6367 Y3.0754
G01 X58.6383 Y3.0824
G01 X58.6399 Y3.0930
G01 X58.6406 Y3.1001
G01 X58.6410 Y3.1108
G01 X58.6990 Y156.8755
G01 X58.6986 Y156.8867
G01 X58.6979 Y156.8941
G01 X58.6907 Y156.9413
G01 X58.6872 Y156.9554
G01 X58.6837 Y156.9656
G01 X58.6809 Y156.9723
G01 X58.6762 Y156.9821
G01 X58.6708 Y156.9915
G01 X58.6282 Y157.0560
G01 X58.6191 Y157.0678
G01 X58.6116 Y157.0760
G01 X58.6062 Y157.0811
G01 X58.6006 Y157.0860
G01 X58.5917 Y157.0928
G01 X58.5823 Y157.0989
G01 X58.5725 Y157.1043
G01 X58.4953 Y157.1385
G01 X58.4852 Y157.1420
G01 X58.4783 Y157.1439
G01 X58.4637 Y157.1469
G01 X58.3647 Y157.1734
G01 X58.2848 Y157.2195
G01 X58.2195 Y157.2848
G01 X58.1734 Y157.3647
G01 X58.1495 Y157.4539
G01 X58.1495 Y158.8755
G01 X58.1488 Y158.8898
G01 X58.1474 Y158.9004
G01 X58.1461 Y158.9074
G01 X58.1349 Y158.9589
G01 X58.1321 Y158.9698
G01 X58.1285 Y158.9804
G01 X58.1241 Y158.9908
G01 X58.1189 Y159.0008
G01 X58.1130 Y159.0103
G01 X58.1064 Y159.0195
G01 X58.1017 Y159.0252
G01 X58.0559 Y159.0780
G01 X58.0456 Y159.0888
G01 X58.0343 Y159.0985
G01 X58.0221 Y159.1070
G01 X58.0091 Y159.1143
G01 X57.9954 Y159.1202
G01 X57.9848 Y159.1237
G01 X57.9109 Y159.1453
G01 X57.9004 Y159.1474
G01 X57.8933 Y159.1484
G01 X57.8791 Y159.1495
G01 X56.4539 Y159.1495
G01 X56.3647 Y159.1734
G01 X56.2848 Y159.2195
G01 X56.2195 Y159.2848
G01 X56.1734 Y159.3647
G01 X56.1621 Y159.4069
G01 X56.1583 Y159.4188
G01 X56.1487 Y159.4451
G01 X56.1441 Y159.4552
G01 X56.1387 Y159.4649
G01 X56.1327 Y159.4741
G01 X56.1260 Y159.4829
G01 X56.0778 Y159.5385
G01 X56.0702 Y159.5467
G01 X56.0591 Y159.5567
G01 X56.0471 Y159.5655
G01 X56.0376 Y159.5713
G01 X56.0242 Y159.5779
G01 X56.0103 Y159.5831
G01 X55.9328 Y159.6058
G01 X55.9223 Y159.6079
G01 X55.9152 Y159.6089
G01 X55.9046 Y159.6098
G01 X55.8974 Y159.6100
G01 X39.4822 Y159.6100
G01 X39.4642 Y159.6094
G01 X39.4569 Y159.6088
G01 X39.4459 Y159.6072
G01 X39.4350 Y159.6047
G01 X39.4209 Y159.6002
G01 X39.3519 Y159.5745
G01 X39.3417 Y159.5699
G01 X39.3351 Y159.5665
G01 X39.3225 Y159.5586
G01 X39.3107 Y159.5495
G01 X39.3024 Y159.5420
G01 X39.2973 Y159.5366
G01 X39.2878 Y159.5252
G01 X39.2416 Y159.4632
G01 X39.2339 Y159.4504
G01 X39.2305 Y159.4438
G01 X39.2261 Y159.4335
G01 X39.2224 Y159.4229
G01 X39.2205 Y159.4158
G01 X39.2182 Y159.4048
G01 X39.2171 Y159.3974
G01 X39.2110 Y159.3129
G01 X39.2114 Y159.2980
G01 X39.2127 Y159.2869
G01 X39.2140 Y159.2796
G01 X39.2157 Y159.2723
G01 X39.2189 Y159.2616
G01 X39.2243 Y159.2478
G01 X39.2293 Y159.2378
G01 X39.2664 Y159.1702
G01 X39.2744 Y159.1584
G01 X39.2788 Y159.1528
G01 X39.2859 Y159.1448
G01 X41.3613 Y157.0693
G01 X41.3716 Y157.0600
G01 X41.3827 Y157.0516
G01 X41.4205 Y157.0258
G01 X41.4333 Y157.0179
G01 X41.4435 Y157.0129
G01 X41.4539 Y157.0086
G01 X41.4647 Y157.0051
G01 X41.4757 Y157.0025
G01 X41.5468 Y156.9917
G01 X41.5618 Y156.9903
G01 X41.7745 Y156.9905
G01 X41.9611 Y156.9609
G01 X42.1408 Y156.9025
G01 X42.3092 Y156.8168
G01 X42.4621 Y156.7057
G01 X42.5957 Y156.5721
G01 X42.7069 Y156.4191
G01 X42.7131 Y156.4083
G01 X42.7193 Y156.3993
G01 X42.7262 Y156.3908
G01 X42.7652 Y156.3458
G01 X42.7751 Y156.3354
G01 X42.7860 Y156.3259
G01 X42.7978 Y156.3176
G01 X42.8103 Y156.3104
G01 X42.8201 Y156.3059
G01 X42.8302 Y156.3020
G01 X42.8963 Y156.2795
G01 X42.9070 Y156.2763
G01 X42.9179 Y156.2739
G01 X42.9290 Y156.2723
G01 X42.9401 Y156.2715
G01 X42.9550 Y156.2718
G01 X42.9661 Y156.2730
G01 X42.9807 Y156.2759
G01 X43.0486 Y156.2927
G01 X43.0593 Y156.2957
G01 X43.0663 Y156.2982
G01 X43.0799 Y156.3043
G01 X43.0897 Y156.3097
G01 X43.0960 Y156.3137
G01 X43.1080 Y156.3225
G01 X43.1136 Y156.3274
G01 X43.1216 Y156.3353
G01 X43.1695 Y156.3861
G01 X43.1788 Y156.3969
G01 X43.1870 Y156.4085
G01 X43.1931 Y156.4191
G01 X43.3043 Y156.5721
G01 X43.4379 Y156.7057
G01 X43.5908 Y156.8168
G01 X43.7592 Y156.9025
G01 X43.9389 Y156.9609
G01 X44.1255 Y156.9905
G01 X44.3145 Y156.9905
G01 X44.5011 Y156.9609
G01 X44.6808 Y156.9025
G01 X44.8492 Y156.8168
G01 X45.0021 Y156.7057
G01 X45.1357 Y156.5721
G01 X45.2469 Y156.4191
G01 X45.2531 Y156.4083
G01 X45.2593 Y156.3993
G01 X45.2662 Y156.3908
G01 X45.3076 Y156.3431
G01 X45.3151 Y156.3354
G01 X45.3205 Y156.3305
G01 X45.3289 Y156.3237
G01 X45.3408 Y156.3157
G01 X45.3535 Y156.3088
G01 X45.3668 Y156.3032
G01 X45.4434 Y156.2773
G01 X45.4543 Y156.2746
G01 X45.4616 Y156.2733
G01 X45.4690 Y156.2723
G01 X45.4801 Y156.2715
G01 X45.4876 Y156.2715
G01 X45.4987 Y156.2721
G01 X45.5135 Y156.2743
G01 X45.5957 Y156.2946
G01 X45.6098 Y156.2996
G01 X45.6232 Y156.3060
G01 X45.6360 Y156.3137
G01 X45.6480 Y156.3225
G01 X45.6536 Y156.3274
G01 X45.6616 Y156.3353
G01 X45.7095 Y156.3861
G01 X45.7188 Y156.3969
G01 X45.7270 Y156.4085
G01 X45.7331 Y156.4191
G01 X45.8443 Y156.5721
G01 X45.9779 Y156.7057
G01 X46.1308 Y156.8168
G01 X46.2992 Y156.9025
G01 X46.4789 Y156.9609
G01 X46.6655 Y156.9905
G01 X46.8545 Y156.9905
G01 X47.0411 Y156.9609
G01 X47.2208 Y156.9025
G01 X47.3892 Y156.8168
G01 X47.5421 Y156.7057
G01 X47.6757 Y156.5721
G01 X47.7869 Y156.4191
G01 X47.7931 Y156.4083
G01 X47.7993 Y156.3993
G01 X47.8062 Y156.3908
G01 X47.8476 Y156.3431
G01 X47.8551 Y156.3354
G01 X47.8605 Y156.3305
G01 X47.8718 Y156.3216
G01 X47.8839 Y156.3139
G01 X47.8968 Y156.3073
G01 X47.9068 Y156.3032
G01 X47.9834 Y156.2773
G01 X47.9943 Y156.2746
G01 X48.0016 Y156.2733
G01 X48.0164 Y156.2717
G01 X48.0276 Y156.2715
G01 X48.0350 Y156.2718
G01 X48.0424 Y156.2725
G01 X48.0535 Y156.2743
G01 X48.1357 Y156.2946
G01 X48.1498 Y156.2996
G01 X48.1632 Y156.3060
G01 X48.1760 Y156.3137
G01 X48.1880 Y156.3225
G01 X48.1936 Y156.3274
G01 X48.2016 Y156.3353
G01 X48.2495 Y156.3861
G01 X48.2588 Y156.3969
G01 X48.2670 Y156.4085
G01 X48.2731 Y156.4191
G01 X48.3843 Y156.5721
G01 X48.5179 Y156.7057
G01 X48.6708 Y156.8168
G01 X48.8392 Y156.9025
G01 X49.0189 Y156.9609
G01 X49.2055 Y156.9905
G01 X49.3945 Y156.9905
G01 X49.5811 Y156.9609
G01 X49.7608 Y156.9025
G01 X49.9292 Y156.8168
G01 X50.0821 Y156.7057
G01 X50.2157 Y156.5721
G01 X50.3269 Y156.4191
G01 X50.3331 Y156.4083
G01 X50.3393 Y156.3993
G01 X50.3462 Y156.3908
G01 X50.3876 Y156.3431
G01 X50.3951 Y156.3354
G01 X50.4005 Y156.3305
G01 X50.4089 Y156.3237
G01 X50.4208 Y156.3157
G01 X50.4303 Y156.3104
G01 X50.4434 Y156.3045
G01 X50.5234 Y156.2773
G01 X50.5379 Y156.2739
G01 X50.5527 Y156.2719
G01 X50.5601 Y156.2715
G01 X50.5713 Y156.2716
G01 X50.5824 Y156.2725
G01 X50.5935 Y156.2743
G01 X50.6757 Y156.2946
G01 X50.6898 Y156.2996
G01 X50.7032 Y156.3060
G01 X50.7160 Y156.3137
G01 X50.7280 Y156.3225
G01 X50.7336 Y156.3274
G01 X50.7416 Y156.3353
G01 X50.7895 Y156.3861
G01 X50.7988 Y156.3969
G01 X50.8070 Y156.4085
G01 X50.8131 Y156.4191
G01 X50.9243 Y156.5721
G01 X51.0579 Y156.7057
G01 X51.2108 Y156.8168
G01 X51.3792 Y156.9025
G01 X51.5589 Y156.9609
G01 X51.7455 Y156.9905
G01 X51.9345 Y156.9905
G01 X51.9715 Y156.9846
G01 X52.1211 Y156.9609
G01 X52.3008 Y156.9025
G01 X52.4692 Y156.8168
G01 X52.6221 Y156.7057
G01 X52.7701 Y156.5577
G01 X52.7813 Y156.5481
G01 X52.7947 Y156.5387
G01 X52.8107 Y156.5259
G01 X52.8197 Y156.5194
G01 X52.8291 Y156.5137
G01 X52.8390 Y156.5086
G01 X52.8492 Y156.5043
G01 X52.8597 Y156.5008
G01 X52.8704 Y156.4980
G01 X52.9387 Y156.4832
G01 X52.9534 Y156.4807
G01 X52.9682 Y156.4798
G01 X52.9831 Y156.4803
G01 X52.9979 Y156.4823
G01 X53.0124 Y156.4857
G01 X53.0230 Y156.4892
G01 X53.0919 Y156.5150
G01 X53.1055 Y156.5212
G01 X53.1183 Y156.5287
G01 X53.1274 Y156.5352
G01 X53.1388 Y156.5449
G01 X53.1466 Y156.5528
G01 X53.1561 Y156.5643
G01 X53.2024 Y156.6264
G01 X53.2084 Y156.6361
G01 X53.2120 Y156.6429
G01 X53.2152 Y156.6498
G01 X53.2192 Y156.6597
G01 X53.2796 Y156.7404
G01 X53.3603 Y156.8008
G01 X53.4573 Y156.8370
G01 X53.4902 Y156.8405
G01 X55.2698 Y156.8405
G01 X55.3027 Y156.8370
G01 X55.3997 Y156.8008
G01 X55.4804 Y156.7404
G01 X55.5408 Y156.6597
G01 X55.5770 Y156.5627
G01 X55.5805 Y156.5298
G01 X55.5805 Y154.7502
G01 X55.5770 Y154.7173
G01 X55.5408 Y154.6203
G01 X55.4804 Y154.5396
G01 X55.3997 Y154.4792
G01 X55.3911 Y154.4758
G01 X55.3814 Y154.4713
G01 X55.3440 Y154.4508
G01 X55.3313 Y154.4426
G01 X55.3224 Y154.4356
G01 X55.3114 Y154.4253
G01 X55.3014 Y154.4139
G01 X55.2529 Y154.3489
G01 X55.2452 Y154.3362
G01 X55.2388 Y154.3227
G01 X55.2338 Y154.3087
G01 X55.2302 Y154.2942
G01 X55.2284 Y154.2832
G01 X55.2277 Y154.2758
G01 X55.2227 Y154.2061
G01 X55.2223 Y154.1949
G01 X55.2231 Y154.1801
G01 X55.2254 Y154.1653
G01 X55.2280 Y154.1545
G01 X55.2328 Y154.1404
G01 X55.2389 Y154.1268
G01 X55.2742 Y154.0622
G01 X55.2777 Y154.0560
G01 X55.2836 Y154.0471
G01 X55.2902 Y154.0386
G01 X55.2951 Y154.0329
G01 X55.4068 Y153.8792
G01 X55.4925 Y153.7108
G01 X55.5509 Y153.5311
G01 X55.5805 Y153.3445
G01 X55.5805 Y152.8555
G01 X55.5509 Y152.6689
G01 X55.4925 Y152.4892
G01 X55.4068 Y152.3208
G01 X55.2957 Y152.1679
G01 X55.1621 Y152.0343
G01 X55.0092 Y151.9232
G01 X54.8408 Y151.8375
G01 X54.6611 Y151.7791
G01 X54.4745 Y151.7495
G01 X54.2855 Y151.7495
G01 X54.0989 Y151.7791
G01 X53.9192 Y151.8375
G01 X53.7508 Y151.9232
G01 X53.5979 Y152.0343
G01 X53.4643 Y152.1679
G01 X53.3531 Y152.3209
G01 X53.3469 Y152.3317
G01 X53.3407 Y152.3407
G01 X53.3338 Y152.3492
G01 X53.2924 Y152.3969
G01 X53.2849 Y152.4047
G01 X53.2795 Y152.4095
G01 X53.2682 Y152.4184
G01 X53.2560 Y152.4261
G01 X53.2432 Y152.4327
G01 X53.2298 Y152.4380
G01 X53.1637 Y152.4605
G01 X53.1530 Y152.4637
G01 X53.1421 Y152.4661
G01 X53.1310 Y152.4677
G01 X53.1236 Y152.4683
G01 X53.1124 Y152.4685
G01 X53.0976 Y152.4675
G01 X53.0829 Y152.4650
G01 X53.0042 Y152.4454
G01 X52.9902 Y152.4404
G01 X52.9801 Y152.4357
G01 X52.9671 Y152.4284
G01 X52.9549 Y152.4198
G01 X52.9464 Y152.4126
G01 X52.9384 Y152.4047
G01 X52.8905 Y152.3539
G01 X52.8812 Y152.3431
G01 X52.8729 Y152.3314
G01 X52.8668 Y152.3209
G01 X52.7557 Y152.1679
G01 X52.6221 Y152.0343
G01 X52.4692 Y151.9232
G01 X52.3008 Y151.8375
G01 X52.1211 Y151.7791
G01 X51.9345 Y151.7495
G01 X51.7455 Y151.7495
G01 X51.5589 Y151.7791
G01 X51.3792 Y151.8375
G01 X51.2108 Y151.9232
G01 X51.0579 Y152.0343
G01 X50.9243 Y152.1679
G01 X50.8132 Y152.3208
G01 X50.7951 Y152.3561
G01 X50.7893 Y152.3653
G01 X50.7851 Y152.3713
G01 X50.7782 Y152.3798
G01 X50.7392 Y152.4248
G01 X50.7293 Y152.4353
G01 X50.7184 Y152.4447
G01 X50.7096 Y152.4510
G01 X50.7036 Y152.4549
G01 X50.6909 Y152.4618
G01 X50.6776 Y152.4674
G01 X50.6081 Y152.4911
G01 X50.5974 Y152.4943
G01 X50.5865 Y152.4967
G01 X50.5791 Y152.4979
G01 X50.5680 Y152.4989
G01 X50.5582 Y152.4991
G01 X50.2458 Y152.8116
G01 X50.2500 Y152.9000
G01 X50.2500 Y153.3037
G01 X50.2454 Y153.3931
G01 X50.2317 Y153.4853
G01 X50.2111 Y153.5687
G01 X50.2068 Y153.5828
G01 X50.1777 Y153.6635
G01 X50.1411 Y153.7413
G01 X50.1342 Y153.7542
G01 X50.0899 Y153.8278
G01 X50.0389 Y153.8969
G01 X50.0320 Y153.9055
G01 X49.9718 Y153.9718
G01 X49.9082 Y154.0296
G01 X49.8969 Y154.0389
G01 X49.8338 Y154.0857
G01 X49.8216 Y154.0938
G01 X49.7478 Y154.1378
G01 X49.6703 Y154.1747
G01 X49.6567 Y154.1803
G01 X49.5755 Y154.2092
G01 X49.4853 Y154.2317
G01 X49.3931 Y154.2454
G01 X49.3074 Y154.2498
G01 X49.2963 Y154.2500
G01 X49.2069 Y154.2454
G01 X49.1147 Y154.2317
G01 X49.0242 Y154.2091
G01 X48.9433 Y154.1803
G01 X48.9297 Y154.1747
G01 X48.8587 Y154.1411
G01 X48.8458 Y154.1342
G01 X48.7722 Y154.0899
G01 X48.6973 Y154.0344
G01 X48.6282 Y153.9718
G01 X48.5656 Y153.9027
G01 X48.5101 Y153.8278
G01 X48.4658 Y153.7542
G01 X48.4589 Y153.7413
G01 X48.4253 Y153.6703
G01 X48.4197 Y153.6567
G01 X48.3910 Y153.5761
G01 X48.3699 Y153.4925
G01 X48.3676 Y153.4817
G01 X48.3546 Y153.3931
G01 X48.3500 Y153.3037
G01 X48.3500 Y152.8963
G01 X48.3546 Y152.8069
G01 X48.3670 Y152.7219
G01 X48.3699 Y152.7075
G01 X48.3889 Y152.6313
G01 X48.3920 Y152.6207
G01 X48.4223 Y152.5365
G01 X48.4622 Y152.4522
G01 X48.5101 Y152.3722
G01 X48.5611 Y152.3031
G01 X48.5680 Y152.2945
G01 X48.6282 Y152.2282
G01 X48.6918 Y152.1704
G01 X48.7002 Y152.1633
G01 X48.7662 Y152.1143
G01 X48.7753 Y152.1081
G01 X48.8489 Y152.0640
G01 X48.8587 Y152.0589
G01 X48.9000 Y152.0394
G01 X48.9000 Y151.8208
G01 X48.8585 Y151.8343
G01 X48.6973 Y151.9164
G01 X48.5508 Y152.0228
G01 X48.4228 Y152.1508
G01 X48.3164 Y152.2973
G01 X48.2744 Y152.3797
G01 X48.2710 Y152.3861
G01 X48.2652 Y152.3954
G01 X48.2610 Y152.4014
G01 X48.2541 Y152.4099
G01 X48.2151 Y152.4549
G01 X48.2077 Y152.4628
G01 X48.1971 Y152.4725
G01 X48.1855 Y152.4811
G01 X48.1732 Y152.4886
G01 X48.1668 Y152.4918
G01 X48.1569 Y152.4962
G01 X48.0769 Y152.5234
G01 X48.0660 Y152.5261
G01 X48.0550 Y152.5280
G01 X48.0439 Y152.5290
G01 X48.0364 Y152.5292
G01 X48.0253 Y152.5289
G01 X48.0178 Y152.5282
G01 X48.0105 Y152.5271
G01 X47.9995 Y152.5248
G01 X47.9245 Y152.5061
G01 X47.9105 Y152.5011
G01 X47.8970 Y152.4947
G01 X47.8874 Y152.4891
G01 X47.8782 Y152.4827
G01 X47.8723 Y152.4781
G01 X47.8640 Y152.4707
G01 X47.8107 Y152.4146
G01 X47.8037 Y152.4066
G01 X47.7952 Y152.3951
G01 X47.7878 Y152.3829
G01 X47.7440 Y152.2970
G01 X47.6375 Y152.1505
G01 X47.5226 Y152.0355
G01 X47.5153 Y152.0277
G01 X47.5108 Y152.0222
G01 X47.5044 Y152.0136
G01 X47.4720 Y151.9631
G01 X47.4649 Y151.9499
G01 X47.4591 Y151.9360
G01 X47.4547 Y151.9217
G01 X47.4524 Y151.9107
G01 X47.4505 Y151.8958
G01 X47.4452 Y151.8187
G01 X47.4456 Y151.8038
G01 X47.4464 Y151.7964
G01 X47.4482 Y151.7854
G01 X47.4519 Y151.7710
G01 X47.4556 Y151.7604
G01 X47.4585 Y151.7536
G01 X47.4635 Y151.7436
G01 X47.5006 Y151.6761
G01 X47.5044 Y151.6700
G01 X47.5108 Y151.6614
G01 X47.5201 Y151.6506
G01 X51.2941 Y147.8765
G01 X51.3708 Y147.7618
G01 X51.4236 Y147.6343
G01 X51.4505 Y147.4990
G01 X51.4505 Y136.4645
G01 X51.4512 Y136.4502
G01 X51.4532 Y136.4361
G01 X51.4669 Y136.3738
G01 X51.4703 Y136.3631
G01 X51.4729 Y136.3561
G01 X51.4793 Y136.3425
G01 X51.4870 Y136.3297
G01 X51.4959 Y136.3176
G01 X51.5441 Y136.2620
G01 X51.5544 Y136.2512
G01 X51.5657 Y136.2415
G01 X51.5779 Y136.2330
G01 X51.5909 Y136.2257
G01 X51.6011 Y136.2212
G01 X51.6152 Y136.2163
G01 X51.6857 Y136.1956
G01 X51.6961 Y136.1932
G01 X51.7067 Y136.1916
G01 X51.7174 Y136.1907
G01 X51.7245 Y136.1905
G01 X53.3398 Y136.1905
G01 X53.3727 Y136.1870
G01 X53.4697 Y136.1508
G01 X53.5504 Y136.0904
G01 X53.6108 Y136.0097
G01 X53.6470 Y135.9127
G01 X53.6505 Y135.8798
G01 X53.6505 Y134.1002
G01 X53.6470 Y134.0673
G01 X53.6108 Y133.9703
G01 X53.5504 Y133.8896
G01 X53.4697 Y133.8292
G01 X53.3585 Y133.7877
G01 X53.3519 Y133.7851
G01 X53.3422 Y133.7805
G01 X53.3048 Y133.7601
G01 X53.2952 Y133.7540
G01 X53.2861 Y133.7473
G01 X53.2775 Y133.7398
G01 X53.2721 Y133.7345
G01 X53.2645 Y133.7261
G01 X53.2137 Y133.6582
G01 X53.2097 Y133.6519
G01 X53.2042 Y133.6421
G01 X53.2010 Y133.6354
G01 X53.1969 Y133.6250
G01 X53.1926 Y133.6108
G01 X53.1909 Y133.6035
G01 X53.1892 Y133.5925
G01 X53.1835 Y133.5153
G01 X53.1831 Y133.5042
G01 X53.1835 Y133.4930
G01 X53.1854 Y133.4782
G01 X53.1888 Y133.4637
G01 X53.1935 Y133.4496
G01 X53.1964 Y133.4428
G01 X53.2014 Y133.4328
G01 X53.2385 Y133.3653
G01 X53.2423 Y133.3593
G01 X53.2487 Y133.3506
G01 X53.2580 Y133.3398
G01 X53.3731 Y133.2246
G01 X53.4936 Y133.0525
G01 X53.5824 Y132.8622
G01 X53.6368 Y132.6593
G01 X53.6551 Y132.4500
G01 X53.6368 Y132.2407
G01 X53.5824 Y132.0378
G01 X53.4936 Y131.8475
G01 X53.3731 Y131.6754
G01 X53.2246 Y131.5269
G01 X53.0462 Y131.4019
G01 X53.0372 Y131.3946
G01 X53.0152 Y131.3755
G01 X53.0073 Y131.3678
G01 X53.0025 Y131.3624
G01 X52.9935 Y131.3510
G01 X52.9857 Y131.3386
G01 X52.9475 Y131.2631
G01 X52.9422 Y131.2492
G01 X52.9382 Y131.2349
G01 X52.9357 Y131.2202
G01 X52.9346 Y131.2054
G01 X52.9350 Y131.1905
G01 X52.9426 Y131.1173
G01 X52.9435 Y131.1099
G01 X52.9456 Y131.0989
G01 X52.9486 Y131.0881
G01 X52.9510 Y131.0811
G01 X52.9568 Y131.0673
G01 X52.9639 Y131.0543
G01 X52.9723 Y131.0420
G01 X53.0205 Y130.9817
G01 X53.0277 Y130.9738
G01 X53.0354 Y130.9663
G01 X53.0408 Y130.9617
G01 X53.0494 Y130.9552
G01 X53.2243 Y130.8328
G01 X53.3728 Y130.6843
G01 X53.4932 Y130.5123
G01 X53.5688 Y130.3502
G01 X53.3469 Y130.3502
G01 X53.3352 Y130.3748
G01 X53.3301 Y130.3846
G01 X53.2854 Y130.4594
G01 X53.2794 Y130.4686
G01 X53.2230 Y130.5444
G01 X53.1597 Y130.6145
G01 X53.1518 Y130.6222
G01 X53.0900 Y130.6782
G01 X53.0786 Y130.6875
G01 X53.0056 Y130.7415
G01 X52.9278 Y130.7883
G01 X52.9181 Y130.7936
G01 X52.8394 Y130.8309
G01 X52.8258 Y130.8365
G01 X52.7403 Y130.8669
G01 X52.6523 Y130.8892
G01 X52.6378 Y130.8920
G01 X52.5480 Y130.9052
G01 X52.4574 Y130.9098
G01 X52.4463 Y130.9100
G01 X52.3593 Y130.9057
G01 X52.3447 Y130.9043
G01 X52.2549 Y130.8908
G01 X52.1668 Y130.8689
G01 X52.1527 Y130.8646
G01 X52.0673 Y130.8339
G01 X51.9786 Y130.7919
G01 X51.8944 Y130.7415
G01 X51.8214 Y130.6875
G01 X51.8100 Y130.6782
G01 X51.7482 Y130.6222
G01 X51.7378 Y130.6118
G01 X51.6770 Y130.5444
G01 X51.6185 Y130.4656
G01 X51.5681 Y130.3814
G01 X51.5341 Y130.3100
G01 X51.3148 Y130.3100
G01 X51.3181 Y130.3220
G01 X51.4068 Y130.5123
G01 X51.5272 Y130.6843
G01 X51.6757 Y130.8328
G01 X51.8506 Y130.9552
G01 X51.8599 Y130.9623
G01 X51.8848 Y130.9839
G01 X51.8951 Y130.9942
G01 X51.9021 Y131.0025
G01 X51.9085 Y131.0113
G01 X51.9142 Y131.0206
G01 X51.9176 Y131.0270
G01 X51.9525 Y131.0963
G01 X51.9566 Y131.1066
G01 X51.9590 Y131.1137
G01 X51.9618 Y131.1245
G01 X51.9632 Y131.1318
G01 X51.9643 Y131.1392
G01 X51.9653 Y131.1503
G01 X51.9652 Y131.1652
G01 X51.9570 Y131.2458
G01 X51.9544 Y131.2605
G01 X51.9514 Y131.2713
G01 X51.9490 Y131.2783
G01 X51.9432 Y131.2920
G01 X51.9361 Y131.3051
G01 X51.9299 Y131.3144
G01 X51.9254 Y131.3203
G01 X51.8795 Y131.3777
G01 X51.8698 Y131.3882
G01 X51.8619 Y131.3954
G01 X51.8506 Y131.4041
G01 X51.6754 Y131.5269
G01 X51.5269 Y131.6754
G01 X51.5021 Y131.7106
G01 X51.4929 Y131.7219
G01 X51.4853 Y131.7298
G01 X51.4508 Y131.7630
G01 X51.4455 Y131.7678
G01 X51.4371 Y131.7746
G01 X51.4252 Y131.7827
G01 X51.4158 Y131.7880
G01 X51.4060 Y131.7926
G01 X51.3960 Y131.7965
G01 X51.3186 Y131.8194
G01 X51.3047 Y131.8224
G01 X51.2905 Y131.8241
G01 X51.2798 Y131.8245
G01 X50.8478 Y131.8243
G01 X50.8370 Y131.8234
G01 X50.8298 Y131.8224
G01 X50.7822 Y131.8131
G01 X50.7661 Y131.8090
G01 X50.6039 Y131.7745
G01 X50.4461 Y131.7745
G01 X50.4093 Y131.7823
G01 X50.3963 Y131.7847
G01 X50.3817 Y131.7866
G01 X50.3707 Y131.7870
G01 X50.3597 Y131.7867
G01 X50.3487 Y131.7855
G01 X50.2795 Y131.7756
G01 X50.2649 Y131.7727
G01 X50.2506 Y131.7684
G01 X50.2369 Y131.7628
G01 X50.2237 Y131.7557
G01 X50.2114 Y131.7475
G01 X50.2026 Y131.7405
G01 X50.1471 Y131.6922
G01 X50.1366 Y131.6817
G01 X50.1272 Y131.6701
G01 X50.1209 Y131.6609
G01 X50.1136 Y131.6479
G01 X50.1090 Y131.6377
G01 X50.1052 Y131.6272
G01 X50.0826 Y131.5497
G01 X50.0805 Y131.5392
G01 X50.0794 Y131.5321
G01 X50.0788 Y131.5250
G01 X50.0784 Y131.5143
G01 X50.0784 Y113.4445
G01 X50.0791 Y113.4302
G01 X50.0805 Y113.4196
G01 X50.0948 Y113.3538
G01 X50.0994 Y113.3396
G01 X50.1023 Y113.3326
G01 X50.1072 Y113.3225
G01 X50.1149 Y113.3097
G01 X50.1238 Y113.2976
G01 X50.1720 Y113.2420
G01 X50.1770 Y113.2364
G01 X50.1850 Y113.2287
G01 X50.1966 Y113.2193
G01 X50.2090 Y113.2111
G01 X50.2222 Y113.2041
G01 X50.2360 Y113.1985
G01 X50.3170 Y113.1747
G01 X50.3240 Y113.1732
G01 X50.3346 Y113.1716
G01 X50.3417 Y113.1709
G01 X50.3524 Y113.1705
G01 X51.3592 Y113.1705
G01 X51.3753 Y113.1714
G01 X51.4016 Y113.1742
G01 X51.4126 Y113.1758
G01 X51.4233 Y113.1782
G01 X51.4339 Y113.1813
G01 X51.4442 Y113.1853
G01 X51.4542 Y113.1900
G01 X51.5219 Y113.2269
G01 X51.5310 Y113.2326
G01 X51.5424 Y113.2412
G01 X51.5530 Y113.2508
G01 X51.6444 Y113.3424
G01 X51.6535 Y113.3534
G01 X51.6769 Y113.3847
G01 X51.6831 Y113.3942
G01 X51.6902 Y113.4076
G01 X51.6960 Y113.4215
G01 X51.7003 Y113.4360
G01 X51.7160 Y113.5080
G01 X51.7174 Y113.5153
G01 X51.7188 Y113.5264
G01 X51.7194 Y113.5375
G01 X51.7192 Y113.5487
G01 X51.7181 Y113.5598
G01 X51.7162 Y113.5708
G01 X51.7145 Y113.5781
G01 X51.7112 Y113.5888
G01 X51.6842 Y113.6612
G01 X51.6780 Y113.6747
G01 X51.6704 Y113.6876
G01 X51.6640 Y113.6967
G01 X51.6568 Y113.7053
G01 X51.6517 Y113.7107
G01 X51.6436 Y113.7184
G01 X51.6349 Y113.7254
G01 X51.5790 Y113.7673
G01 X51.5696 Y113.7738
G01 X51.5563 Y113.7813
G01 X51.5459 Y113.7860
G01 X51.4303 Y113.8292
G01 X51.3496 Y113.8896
G01 X51.2892 Y113.9703
G01 X51.2530 Y114.0673
G01 X51.2495 Y114.1002
G01 X51.2495 Y115.8798
G01 X51.2530 Y115.9127
G01 X51.2892 Y116.0097
G01 X51.3496 Y116.0904
G01 X51.4303 Y116.1508
G01 X51.5273 Y116.1870
G01 X51.5602 Y116.1905
G01 X53.3398 Y116.1905
G01 X53.3727 Y116.1870
G01 X53.4697 Y116.1508
G01 X53.5504 Y116.0904
G01 X53.6108 Y116.0097
G01 X53.6470 Y115.9127
G01 X53.6505 Y115.8798
G01 X53.6505 Y114.1002
G01 X53.6470 Y114.0673
G01 X53.6108 Y113.9703
G01 X53.5504 Y113.8896
G01 X53.4697 Y113.8292
G01 X53.3585 Y113.7877
G01 X53.3519 Y113.7851
G01 X53.3422 Y113.7805
G01 X53.3048 Y113.7601
G01 X53.2952 Y113.7540
G01 X53.2890 Y113.7496
G01 X53.2803 Y113.7424
G01 X53.2721 Y113.7345
G01 X53.2645 Y113.7261
G01 X53.2137 Y113.6582
G01 X53.2097 Y113.6519
G01 X53.2042 Y113.6421
G01 X53.2010 Y113.6354
G01 X53.1969 Y113.6250
G01 X53.1926 Y113.6108
G01 X53.1909 Y113.6035
G01 X53.1892 Y113.5925
G01 X53.1835 Y113.5153
G01 X53.1831 Y113.5005
G01 X53.1839 Y113.4893
G01 X53.1861 Y113.4746
G01 X53.1898 Y113.4602
G01 X53.1950 Y113.4462
G01 X53.2014 Y113.4328
G01 X53.2349 Y113.3714
G01 X53.2423 Y113.3593
G01 X53.2509 Y113.3478
G01 X53.2580 Y113.3398
G01 X53.3731 Y113.2246
G01 X53.4936 Y113.0525
G01 X53.5824 Y112.8622
G01 X53.6368 Y112.6593
G01 X53.6551 Y112.4500
G01 X53.6368 Y112.2407
G01 X53.5824 Y112.0378
G01 X53.4936 Y111.8475
G01 X53.3731 Y111.6754
G01 X53.2246 Y111.5269
G01 X53.0462 Y111.4019
G01 X53.0372 Y111.3946
G01 X53.0152 Y111.3755
G01 X53.0099 Y111.3705
G01 X53.0025 Y111.3624
G01 X52.9935 Y111.3510
G01 X52.9875 Y111.3418
G01 X52.9839 Y111.3355
G01 X52.9507 Y111.2699
G01 X52.9461 Y111.2597
G01 X52.9410 Y111.2457
G01 X52.9374 Y111.2312
G01 X52.9353 Y111.2165
G01 X52.9346 Y111.2016
G01 X52.9354 Y111.1868
G01 X52.9426 Y111.1173
G01 X52.9441 Y111.1062
G01 X52.9456 Y111.0989
G01 X52.9497 Y111.0846
G01 X52.9537 Y111.0741
G01 X52.9568 Y111.0673
G01 X52.9639 Y111.0543
G01 X52.9723 Y111.0420
G01 X53.0205 Y110.9817
G01 X53.0277 Y110.9738
G01 X53.0354 Y110.9663
G01 X53.0408 Y110.9617
G01 X53.0494 Y110.9552
G01 X53.2243 Y110.8328
G01 X53.3728 Y110.6843
G01 X53.4932 Y110.5123
G01 X53.5455 Y110.4002
G01 X53.3209 Y110.4002
G01 X53.2815 Y110.4656
G01 X53.2230 Y110.5444
G01 X53.1571 Y110.6171
G01 X53.0900 Y110.6782
G01 X53.0786 Y110.6875
G01 X53.0116 Y110.7372
G01 X52.9994 Y110.7454
G01 X52.9214 Y110.7919
G01 X52.8394 Y110.8309
G01 X52.8258 Y110.8365
G01 X52.7403 Y110.8669
G01 X52.6451 Y110.8908
G01 X52.5480 Y110.9052
G01 X52.4574 Y110.9098
G01 X52.4426 Y110.9098
G01 X52.3593 Y110.9057
G01 X52.3447 Y110.9043
G01 X52.2549 Y110.8908
G01 X52.1668 Y110.8689
G01 X52.1533 Y110.8648
G01 X52.0673 Y110.8339
G01 X51.9786 Y110.7919
G01 X51.8944 Y110.7415
G01 X51.8214 Y110.6875
G01 X51.8100 Y110.6782
G01 X51.7482 Y110.6222
G01 X51.7378 Y110.6118
G01 X51.6770 Y110.5444
G01 X51.6185 Y110.4656
G01 X51.5681 Y110.3814
G01 X51.5341 Y110.3100
G01 X51.3148 Y110.3100
G01 X51.3181 Y110.3220
G01 X51.4068 Y110.5123
G01 X51.5272 Y110.6843
G01 X51.6757 Y110.8328
G01 X51.8538 Y110.9575
G01 X51.8628 Y110.9648
G01 X51.8821 Y110.9815
G01 X51.8926 Y110.9915
G01 X51.8975 Y110.9969
G01 X51.9043 Y111.0054
G01 X51.9105 Y111.0143
G01 X51.9142 Y111.0206
G01 X51.9525 Y111.0963
G01 X51.9578 Y111.1101
G01 X51.9618 Y111.1245
G01 X51.9643 Y111.1392
G01 X51.9654 Y111.1540
G01 X51.9654 Y111.1615
G01 X51.9646 Y111.1726
G01 X51.9570 Y111.2458
G01 X51.9559 Y111.2532
G01 X51.9535 Y111.2641
G01 X51.9503 Y111.2748
G01 X51.9477 Y111.2818
G01 X51.9432 Y111.2920
G01 X51.9398 Y111.2987
G01 X51.9361 Y111.3051
G01 X51.9299 Y111.3144
G01 X51.8818 Y111.3749
G01 X51.8748 Y111.3830
G01 X51.8698 Y111.3882
G01 X51.8619 Y111.3954
G01 X51.8506 Y111.4041
G01 X51.6754 Y111.5269
G01 X51.5111 Y111.6911
G01 X51.5028 Y111.6984
G01 X51.4932 Y111.7057
G01 X51.4828 Y111.7148
G01 X51.4741 Y111.7215
G01 X51.4682 Y111.7256
G01 X51.4588 Y111.7312
G01 X51.4491 Y111.7361
G01 X51.4390 Y111.7403
G01 X51.4287 Y111.7437
G01 X51.3547 Y111.7653
G01 X51.3478 Y111.7668
G01 X51.3372 Y111.7684
G01 X51.3301 Y111.7691
G01 X51.3194 Y111.7695
G01 X49.7664 Y111.7695
G01 X49.7556 Y111.7688
G01 X49.7448 Y111.7674
G01 X49.6972 Y111.7581
G01 X49.6811 Y111.7540
G01 X49.5189 Y111.7195
G01 X49.3611 Y111.7195
G01 X49.2280 Y111.7478
G01 X49.2149 Y111.7502
G01 X49.2040 Y111.7517
G01 X49.1930 Y111.7525
G01 X49.1819 Y111.7524
G01 X49.1709 Y111.7515
G01 X49.0908 Y111.7398
G01 X49.0835 Y111.7382
G01 X49.0728 Y111.7351
G01 X49.0658 Y111.7326
G01 X49.0555 Y111.7282
G01 X49.0456 Y111.7231
G01 X49.0392 Y111.7192
G01 X49.0270 Y111.7106
G01 X48.9685 Y111.6601
G01 X48.9603 Y111.6525
G01 X48.9503 Y111.6414
G01 X48.9436 Y111.6325
G01 X48.9395 Y111.6263
G01 X48.9323 Y111.6133
G01 X48.9263 Y111.5996
G01 X48.9228 Y111.5890
G01 X48.9013 Y111.5151
G01 X48.8997 Y111.5081
G01 X48.8981 Y111.4975
G01 X48.8974 Y111.4904
G01 X48.8970 Y111.4797
G01 X48.9004 Y93.6987
G01 X48.9013 Y93.6827
G01 X48.9046 Y93.6527
G01 X48.9064 Y93.6418
G01 X48.9091 Y93.6311
G01 X48.9125 Y93.6206
G01 X48.9167 Y93.6104
G01 X48.9199 Y93.6037
G01 X48.9568 Y93.5361
G01 X48.9646 Y93.5240
G01 X48.9711 Y93.5155
G01 X48.9807 Y93.5050
G01 X49.2078 Y93.2780
G01 X49.2168 Y93.2700
G01 X49.2433 Y93.2489
G01 X49.2556 Y93.2408
G01 X49.2687 Y93.2340
G01 X49.2789 Y93.2298
G01 X49.2894 Y93.2263
G01 X49.3598 Y93.2056
G01 X49.3703 Y93.2032
G01 X49.3773 Y93.2020
G01 X49.3879 Y93.2009
G01 X49.3987 Y93.2005
G01 X51.3933 Y93.2006
G01 X51.4053 Y93.2014
G01 X51.4389 Y93.2052
G01 X51.4533 Y93.2082
G01 X51.4639 Y93.2113
G01 X51.4742 Y93.2153
G01 X51.4842 Y93.2200
G01 X51.5488 Y93.2552
G01 X51.5550 Y93.2587
G01 X51.5639 Y93.2646
G01 X51.5696 Y93.2689
G01 X51.5778 Y93.2758
G01 X51.6444 Y93.3424
G01 X51.6535 Y93.3534
G01 X51.6769 Y93.3847
G01 X51.6850 Y93.3975
G01 X51.6902 Y93.4076
G01 X51.6960 Y93.4215
G01 X51.7003 Y93.4360
G01 X51.7160 Y93.5080
G01 X51.7184 Y93.5227
G01 X51.7194 Y93.5375
G01 X51.7193 Y93.5450
G01 X51.7185 Y93.5561
G01 X51.7176 Y93.5635
G01 X51.7154 Y93.5745
G01 X51.7112 Y93.5888
G01 X51.6856 Y93.6577
G01 X51.6813 Y93.6681
G01 X51.6780 Y93.6747
G01 X51.6704 Y93.6876
G01 X51.6617 Y93.6996
G01 X51.6517 Y93.7107
G01 X51.6408 Y93.7208
G01 X51.5759 Y93.7695
G01 X51.5663 Y93.7758
G01 X51.5563 Y93.7813
G01 X51.5424 Y93.7874
G01 X51.4303 Y93.8292
G01 X51.3496 Y93.8896
G01 X51.2892 Y93.9703
G01 X51.2530 Y94.0673
G01 X51.2495 Y94.1002
G01 X51.2495 Y95.8798
G01 X51.2530 Y95.9127
G01 X51.2892 Y96.0097
G01 X51.3496 Y96.0904
G01 X51.4303 Y96.1508
G01 X51.5273 Y96.1870
G01 X51.5602 Y96.1905
G01 X53.3398 Y96.1905
G01 X53.3727 Y96.1870
G01 X53.4697 Y96.1508
G01 X53.5504 Y96.0904
G01 X53.6108 Y96.0097
G01 X53.6470 Y95.9127
G01 X53.6505 Y95.8798
G01 X53.6505 Y94.1002
G01 X53.6470 Y94.0673
G01 X53.6108 Y93.9703
G01 X53.5504 Y93.8896
G01 X53.4697 Y93.8292
G01 X53.3585 Y93.7877
G01 X53.3519 Y93.7851
G01 X53.3422 Y93.7805
G01 X53.3048 Y93.7601
G01 X53.2952 Y93.7540
G01 X53.2890 Y93.7496
G01 X53.2803 Y93.7424
G01 X53.2721 Y93.7345
G01 X53.2645 Y93.7261
G01 X53.2137 Y93.6582
G01 X53.2097 Y93.6519
G01 X53.2042 Y93.6421
G01 X53.2010 Y93.6354
G01 X53.1969 Y93.6250
G01 X53.1935 Y93.6144
G01 X53.1917 Y93.6071
G01 X53.1902 Y93.5998
G01 X53.1888 Y93.5888
G01 X53.1835 Y93.5153
G01 X53.1831 Y93.5042
G01 X53.1833 Y93.4967
G01 X53.1843 Y93.4856
G01 X53.1869 Y93.4709
G01 X53.1898 Y93.4602
G01 X53.1950 Y93.4462
G01 X53.2014 Y93.4328
G01 X53.2349 Y93.3714
G01 X53.2385 Y93.3653
G01 X53.2444 Y93.3563
G01 X53.2532 Y93.3451
G01 X53.2605 Y93.3373
G01 X53.3731 Y93.2246
G01 X53.4936 Y93.0525
G01 X53.5824 Y92.8622
G01 X53.6368 Y92.6593
G01 X53.6551 Y92.4500
G01 X53.6368 Y92.2407
G01 X53.5824 Y92.0378
G01 X53.4936 Y91.8475
G01 X53.3731 Y91.6754
G01 X53.2246 Y91.5269
G01 X53.0462 Y91.4019
G01 X53.0372 Y91.3946
G01 X53.0152 Y91.3755
G01 X53.0073 Y91.3678
G01 X53.0025 Y91.3624
G01 X52.9978 Y91.3568
G01 X52.9914 Y91.3479
G01 X52.9839 Y91.3355
G01 X52.9507 Y91.2699
G01 X52.9461 Y91.2597
G01 X52.9410 Y91.2457
G01 X52.9374 Y91.2312
G01 X52.9353 Y91.2165
G01 X52.9346 Y91.2016
G01 X52.9354 Y91.1868
G01 X52.9426 Y91.1173
G01 X52.9441 Y91.1062
G01 X52.9456 Y91.0989
G01 X52.9497 Y91.0846
G01 X52.9537 Y91.0741
G01 X52.9568 Y91.0673
G01 X52.9639 Y91.0543
G01 X52.9723 Y91.0420
G01 X53.0205 Y90.9817
G01 X53.0277 Y90.9738
G01 X53.0354 Y90.9663
G01 X53.0408 Y90.9617
G01 X53.0494 Y90.9552
G01 X53.2243 Y90.8328
G01 X53.3728 Y90.6843
G01 X53.4932 Y90.5123
G01 X53.5455 Y90.4002
G01 X53.3209 Y90.4002
G01 X53.2815 Y90.4656
G01 X53.2230 Y90.5444
G01 X53.1571 Y90.6171
G01 X53.0900 Y90.6782
G01 X53.0786 Y90.6875
G01 X53.0116 Y90.7372
G01 X52.9994 Y90.7454
G01 X52.9214 Y90.7919
G01 X52.8394 Y90.8309
G01 X52.8258 Y90.8365
G01 X52.7403 Y90.8669
G01 X52.6451 Y90.8908
G01 X52.5480 Y90.9052
G01 X52.4574 Y90.9098
G01 X52.4426 Y90.9098
G01 X52.3593 Y90.9057
G01 X52.3447 Y90.9043
G01 X52.2549 Y90.8908
G01 X52.1668 Y90.8689
G01 X52.1533 Y90.8648
G01 X52.0673 Y90.8339
G01 X51.9786 Y90.7919
G01 X51.8944 Y90.7415
G01 X51.8214 Y90.6875
G01 X51.8100 Y90.6782
G01 X51.7482 Y90.6222
G01 X51.7378 Y90.6118
G01 X51.6770 Y90.5444
G01 X51.6185 Y90.4656
G01 X51.5681 Y90.3814
G01 X51.5341 Y90.3100
G01 X51.3148 Y90.3100
G01 X51.3181 Y90.3220
G01 X51.4068 Y90.5123
G01 X51.5272 Y90.6843
G01 X51.6757 Y90.8328
G01 X51.8538 Y90.9575
G01 X51.8628 Y90.9648
G01 X51.8821 Y90.9815
G01 X51.8926 Y90.9915
G01 X51.8975 Y90.9969
G01 X51.9043 Y91.0054
G01 X51.9105 Y91.0143
G01 X51.9142 Y91.0206
G01 X51.9493 Y91.0895
G01 X51.9539 Y91.0997
G01 X51.9578 Y91.1101
G01 X51.9609 Y91.1209
G01 X51.9638 Y91.1355
G01 X51.9647 Y91.1429
G01 X51.9654 Y91.1540
G01 X51.9654 Y91.1615
G01 X51.9646 Y91.1726
G01 X51.9570 Y91.2458
G01 X51.9544 Y91.2605
G01 X51.9503 Y91.2748
G01 X51.9463 Y91.2853
G01 X51.9416 Y91.2954
G01 X51.9361 Y91.3051
G01 X51.9320 Y91.3114
G01 X51.9254 Y91.3203
G01 X51.8795 Y91.3777
G01 X51.8748 Y91.3830
G01 X51.8672 Y91.3906
G01 X51.8619 Y91.3954
G01 X51.8535 Y91.4021
G01 X51.6754 Y91.5269
G01 X51.5772 Y91.6248
G01 X51.5475 Y91.6489
G01 X51.5385 Y91.6553
G01 X51.5290 Y91.6610
G01 X51.5158 Y91.6675
G01 X51.5021 Y91.6727
G01 X51.4315 Y91.6934
G01 X51.4211 Y91.6961
G01 X51.4106 Y91.6980
G01 X51.3999 Y91.6991
G01 X51.3928 Y91.6995
G01 X49.1812 Y91.6995
G01 X49.1655 Y91.6987
G01 X49.1397 Y91.6960
G01 X49.1294 Y91.6945
G01 X48.9711 Y91.6945
G01 X48.8168 Y91.7273
G01 X48.6727 Y91.7915
G01 X48.5451 Y91.8842
G01 X48.4395 Y92.0014
G01 X48.3956 Y92.0775
G01 X48.3828 Y92.0976
G01 X48.3754 Y92.1124
G01 X48.3689 Y92.1236
G01 X48.3600 Y92.1366
G01 X48.3403 Y92.1622
G01 X48.3328 Y92.1713
G01 X48.1272 Y92.3769
G01 X48.1187 Y92.3840
G01 X48.1128 Y92.3884
G01 X48.0695 Y92.4174
G01 X48.0600 Y92.4232
G01 X48.0501 Y92.4284
G01 X48.0412 Y92.4322
G01 X48.0307 Y92.4361
G01 X47.9902 Y92.4474
G01 X47.9832 Y92.4490
G01 X47.9724 Y92.4507
G01 X47.9580 Y92.4518
G01 X47.9471 Y92.4517
G01 X47.9363 Y92.4508
G01 X47.8636 Y92.4404
G01 X47.8489 Y92.4375
G01 X47.8347 Y92.4332
G01 X47.8243 Y92.4291
G01 X47.8143 Y92.4242
G01 X47.8046 Y92.4186
G01 X47.7954 Y92.4122
G01 X47.7867 Y92.4053
G01 X47.7284 Y92.3545
G01 X47.7181 Y92.3437
G01 X47.7112 Y92.3349
G01 X47.7069 Y92.3288
G01 X47.7030 Y92.3225
G01 X47.6976 Y92.3127
G01 X47.6917 Y92.2990
G01 X47.6882 Y92.2884
G01 X47.6666 Y92.2145
G01 X47.6651 Y92.2075
G01 X47.6635 Y92.1969
G01 X47.6626 Y92.1862
G01 X47.6624 Y92.1791
G01 X47.6606 Y74.8871
G01 X47.6610 Y74.8754
G01 X47.6624 Y74.8638
G01 X47.6697 Y74.8184
G01 X47.6714 Y74.8112
G01 X47.6746 Y74.8006
G01 X47.6800 Y74.7870
G01 X47.6849 Y74.7771
G01 X47.6926 Y74.7645
G01 X47.7340 Y74.7038
G01 X47.7405 Y74.6954
G01 X47.7476 Y74.6874
G01 X47.7586 Y74.6770
G01 X49.2099 Y73.2258
G01 X49.2188 Y73.2176
G01 X49.2483 Y73.1939
G01 X49.2606 Y73.1858
G01 X49.2737 Y73.1790
G01 X49.2804 Y73.1761
G01 X49.2908 Y73.1723
G01 X49.3648 Y73.1506
G01 X49.3753 Y73.1482
G01 X49.3823 Y73.1470
G01 X49.3929 Y73.1459
G01 X49.4001 Y73.1455
G01 X51.3342 Y73.1455
G01 X51.3503 Y73.1464
G01 X51.3803 Y73.1496
G01 X51.3912 Y73.1515
G01 X51.4019 Y73.1541
G01 X51.4089 Y73.1563
G01 X51.4192 Y73.1603
G01 X51.4292 Y73.1650
G01 X51.4969 Y73.2019
G01 X51.5030 Y73.2056
G01 X51.5118 Y73.2117
G01 X51.5202 Y73.2185
G01 X51.5280 Y73.2258
G01 X51.6395 Y73.3373
G01 X51.6491 Y73.3478
G01 X51.6747 Y73.3817
G01 X51.6811 Y73.3910
G01 X51.6886 Y73.4042
G01 X51.6918 Y73.4110
G01 X51.6960 Y73.4215
G01 X51.6994 Y73.4324
G01 X51.7012 Y73.4397
G01 X51.7168 Y73.5116
G01 X51.7188 Y73.5264
G01 X51.7193 Y73.5338
G01 X51.7193 Y73.5450
G01 X51.7185 Y73.5561
G01 X51.7176 Y73.5635
G01 X51.7154 Y73.5745
G01 X51.7135 Y73.5817
G01 X51.7100 Y73.5923
G01 X51.6842 Y73.6612
G01 X51.6797 Y73.6714
G01 X51.6724 Y73.6844
G01 X51.6640 Y73.6967
G01 X51.6568 Y73.7053
G01 X51.6491 Y73.7133
G01 X51.6379 Y73.7231
G01 X51.5790 Y73.7673
G01 X51.5663 Y73.7758
G01 X51.5563 Y73.7813
G01 X51.5424 Y73.7874
G01 X51.4303 Y73.8292
G01 X51.3496 Y73.8896
G01 X51.2892 Y73.9703
G01 X51.2530 Y74.0673
G01 X51.2495 Y74.1002
G01 X51.2495 Y75.8798
G01 X51.2530 Y75.9127
G01 X51.2892 Y76.0097
G01 X51.3496 Y76.0904
G01 X51.4303 Y76.1508
G01 X51.5273 Y76.1870
G01 X51.5602 Y76.1905
G01 X53.3398 Y76.1905
G01 X53.3727 Y76.1870
G01 X53.4697 Y76.1508
G01 X53.5504 Y76.0904
G01 X53.6108 Y76.0097
G01 X53.6470 Y75.9127
G01 X53.6505 Y75.8798
G01 X53.6505 Y74.1002
G01 X53.6470 Y74.0673
G01 X53.6108 Y73.9703
G01 X53.5504 Y73.8896
G01 X53.4697 Y73.8292
G01 X53.3585 Y73.7877
G01 X53.3519 Y73.7851
G01 X53.3422 Y73.7805
G01 X53.3048 Y73.7601
G01 X53.2952 Y73.7540
G01 X53.2861 Y73.7473
G01 X53.2775 Y73.7398
G01 X53.2695 Y73.7318
G01 X53.2645 Y73.7261
G01 X53.2137 Y73.6582
G01 X53.2097 Y73.6519
G01 X53.2042 Y73.6421
G01 X53.1996 Y73.6320
G01 X53.1969 Y73.6250
G01 X53.1935 Y73.6144
G01 X53.1917 Y73.6071
G01 X53.1902 Y73.5998
G01 X53.1888 Y73.5888
G01 X53.1835 Y73.5153
G01 X53.1831 Y73.5079
G01 X53.1833 Y73.4967
G01 X53.1843 Y73.4856
G01 X53.1869 Y73.4709
G01 X53.1910 Y73.4566
G01 X53.1950 Y73.4462
G01 X53.2014 Y73.4328
G01 X53.2349 Y73.3714
G01 X53.2385 Y73.3653
G01 X53.2444 Y73.3563
G01 X53.2532 Y73.3451
G01 X53.2605 Y73.3373
G01 X53.3732 Y73.2246
G01 X53.4936 Y73.0525
G01 X53.5824 Y72.8622
G01 X53.6368 Y72.6593
G01 X53.6551 Y72.4500
G01 X53.6368 Y72.2407
G01 X53.5824 Y72.0378
G01 X53.4936 Y71.8475
G01 X53.3731 Y71.6754
G01 X53.2246 Y71.5269
G01 X53.0462 Y71.4019
G01 X53.0372 Y71.3946
G01 X53.0152 Y71.3755
G01 X53.0074 Y71.3679
G01 X53.0025 Y71.3625
G01 X52.9979 Y71.3569
G01 X52.9915 Y71.3481
G01 X52.9840 Y71.3356
G01 X52.9475 Y71.2631
G01 X52.9422 Y71.2492
G01 X52.9391 Y71.2385
G01 X52.9362 Y71.2239
G01 X52.9347 Y71.2091
G01 X52.9346 Y71.1979
G01 X52.9354 Y71.1868
G01 X52.9426 Y71.1173
G01 X52.9448 Y71.1025
G01 X52.9486 Y71.0881
G01 X52.9537 Y71.0741
G01 X52.9584 Y71.0640
G01 X52.9620 Y71.0575
G01 X52.9701 Y71.0450
G01 X53.0205 Y70.9817
G01 X53.0277 Y70.9738
G01 X53.0354 Y70.9663
G01 X53.0436 Y70.9595
G01 X53.0494 Y70.9552
G01 X53.2243 Y70.8328
G01 X53.3728 Y70.6843
G01 X53.4932 Y70.5123
G01 X53.5688 Y70.3502
G01 X53.3469 Y70.3502
G01 X53.3352 Y70.3748
G01 X53.3301 Y70.3846
G01 X53.2854 Y70.4594
G01 X53.2794 Y70.4686
G01 X53.2230 Y70.5444
G01 X53.1597 Y70.6145
G01 X53.1518 Y70.6222
G01 X53.0900 Y70.6782
G01 X53.0786 Y70.6875
G01 X53.0056 Y70.7415
G01 X52.9278 Y70.7883
G01 X52.9181 Y70.7936
G01 X52.8394 Y70.8309
G01 X52.8258 Y70.8365
G01 X52.7403 Y70.8669
G01 X52.6523 Y70.8892
G01 X52.6378 Y70.8920
G01 X52.5480 Y70.9052
G01 X52.4574 Y70.9098
G01 X52.4463 Y70.9100
G01 X52.3593 Y70.9057
G01 X52.3447 Y70.9043
G01 X52.2549 Y70.8908
G01 X52.1668 Y70.8689
G01 X52.1533 Y70.8648
G01 X52.0673 Y70.8339
G01 X51.9786 Y70.7919
G01 X51.8944 Y70.7415
G01 X51.8214 Y70.6875
G01 X51.8100 Y70.6782
G01 X51.7482 Y70.6222
G01 X51.7378 Y70.6118
G01 X51.6770 Y70.5444
G01 X51.6185 Y70.4656
G01 X51.5681 Y70.3814
G01 X51.5341 Y70.3100
G01 X51.3148 Y70.3100
G01 X51.3181 Y70.3220
G01 X51.4068 Y70.5123
G01 X51.5272 Y70.6843
G01 X51.6757 Y70.8328
G01 X51.8538 Y70.9575
G01 X51.8628 Y70.9648
G01 X51.8821 Y70.9815
G01 X51.8926 Y70.9915
G01 X51.8975 Y70.9969
G01 X51.9043 Y71.0054
G01 X51.9105 Y71.0143
G01 X51.9142 Y71.0206
G01 X51.9509 Y71.0929
G01 X51.9553 Y71.1031
G01 X51.9590 Y71.1137
G01 X51.9626 Y71.1281
G01 X51.9643 Y71.1392
G01 X51.9654 Y71.1540
G01 X51.9650 Y71.1689
G01 X51.9574 Y71.2421
G01 X51.9559 Y71.2532
G01 X51.9544 Y71.2605
G01 X51.9525 Y71.2677
G01 X51.9490 Y71.2783
G01 X51.9463 Y71.2853
G01 X51.9416 Y71.2954
G01 X51.9361 Y71.3051
G01 X51.9320 Y71.3114
G01 X51.9254 Y71.3203
G01 X51.8795 Y71.3777
G01 X51.8723 Y71.3856
G01 X51.8672 Y71.3906
G01 X51.8619 Y71.3954
G01 X51.8535 Y71.4021
G01 X51.6754 Y71.5269
G01 X51.5351 Y71.6670
G01 X51.5260 Y71.6750
G01 X51.5054 Y71.6916
G01 X51.4935 Y71.7003
G01 X51.4840 Y71.7060
G01 X51.4742 Y71.7110
G01 X51.4640 Y71.7152
G01 X51.4535 Y71.7187
G01 X51.3796 Y71.7403
G01 X51.3726 Y71.7418
G01 X51.3621 Y71.7434
G01 X51.3549 Y71.7441
G01 X51.3442 Y71.7445
G01 X49.3264 Y71.7445
G01 X49.3156 Y71.7438
G01 X49.3048 Y71.7424
G01 X49.2572 Y71.7331
G01 X49.2411 Y71.7290
G01 X49.0789 Y71.6945
G01 X48.9211 Y71.6945
G01 X48.7668 Y71.7273
G01 X48.6227 Y71.7915
G01 X48.4951 Y71.8842
G01 X48.3895 Y72.0014
G01 X48.3168 Y72.1269
G01 X48.3100 Y72.1366
G01 X48.2903 Y72.1622
G01 X48.2801 Y72.1742
G01 X47.0495 Y73.4049
G01 X47.0414 Y73.4124
G01 X47.0328 Y73.4193
G01 X46.9834 Y73.4524
G01 X46.9705 Y73.4597
G01 X46.9606 Y73.4643
G01 X46.8582 Y73.5067
G01 X46.8377 Y73.5199
G01 X46.8282 Y73.5249
G01 X46.8217 Y73.5278
G01 X46.7658 Y73.5493
G01 X46.7520 Y73.5539
G01 X46.7414 Y73.5564
G01 X46.7307 Y73.5581
G01 X46.7198 Y73.5591
G01 X46.7089 Y73.5592
G01 X46.7016 Y73.5589
G01 X46.6908 Y73.5577
G01 X46.6216 Y73.5478
G01 X46.6106 Y73.5458
G01 X46.5998 Y73.5430
G01 X46.5893 Y73.5394
G01 X46.5790 Y73.5350
G01 X46.5691 Y73.5298
G01 X46.5596 Y73.5240
G01 X46.5476 Y73.5151
G01 X46.4920 Y73.4669
G01 X46.4838 Y73.4593
G01 X46.4738 Y73.4482
G01 X46.4650 Y73.4362
G01 X46.4574 Y73.4234
G01 X46.4526 Y73.4133
G01 X46.4485 Y73.4029
G01 X46.4463 Y73.3958
G01 X46.4247 Y73.3219
G01 X46.4226 Y73.3114
G01 X46.4216 Y73.3043
G01 X46.4209 Y73.2972
G01 X46.4205 Y73.2865
G01 X46.4205 Y56.1633
G01 X46.4208 Y56.1532
G01 X46.4246 Y56.1187
G01 X46.4263 Y56.1076
G01 X46.4298 Y56.0931
G01 X46.4334 Y56.0825
G01 X46.4362 Y56.0755
G01 X46.4428 Y56.0622
G01 X46.4788 Y55.9982
G01 X46.4846 Y55.9891
G01 X46.4888 Y55.9834
G01 X46.4956 Y55.9751
G01 X46.5005 Y55.9699
G01 X49.3056 Y53.2285
G01 X49.3170 Y53.2185
G01 X49.3366 Y53.2028
G01 X49.3454 Y53.1964
G01 X49.3577 Y53.1888
G01 X49.3674 Y53.1839
G01 X49.3741 Y53.1810
G01 X49.3878 Y53.1763
G01 X49.4617 Y53.1547
G01 X49.4687 Y53.1532
G01 X49.4793 Y53.1516
G01 X49.4864 Y53.1509
G01 X49.4971 Y53.1505
G01 X51.3392 Y53.1505
G01 X51.3513 Y53.1510
G01 X51.3816 Y53.1542
G01 X51.3926 Y53.1558
G01 X51.4069 Y53.1591
G01 X51.4174 Y53.1626
G01 X51.4309 Y53.1683
G01 X51.5019 Y53.2069
G01 X51.5110 Y53.2126
G01 X51.5196 Y53.2189
G01 X51.5252 Y53.2235
G01 X51.5330 Y53.2308
G01 X51.6420 Y53.3398
G01 X51.6491 Y53.3478
G01 X51.6535 Y53.3534
G01 X51.6747 Y53.3817
G01 X51.6811 Y53.3910
G01 X51.6886 Y53.4042
G01 X51.6933 Y53.4145
G01 X51.6972 Y53.4251
G01 X51.7003 Y53.4360
G01 X51.7174 Y53.5153
G01 X51.7191 Y53.5301
G01 X51.7193 Y53.5450
G01 X51.7185 Y53.5561
G01 X51.7169 Y53.5672
G01 X51.7145 Y53.5781
G01 X51.7112 Y53.5888
G01 X51.6842 Y53.6612
G01 X51.6780 Y53.6747
G01 X51.6724 Y53.6844
G01 X51.6662 Y53.6937
G01 X51.6593 Y53.7025
G01 X51.6517 Y53.7107
G01 X51.6436 Y53.7184
G01 X51.6349 Y53.7254
G01 X51.5790 Y53.7673
G01 X51.5696 Y53.7738
G01 X51.5563 Y53.7813
G01 X51.5459 Y53.7860
G01 X51.4303 Y53.8292
G01 X51.3496 Y53.8896
G01 X51.2892 Y53.9703
G01 X51.2530 Y54.0673
G01 X51.2495 Y54.1002
G01 X51.2495 Y55.8798
G01 X51.2530 Y55.9127
G01 X51.2892 Y56.0097
G01 X51.3496 Y56.0904
G01 X51.4303 Y56.1508
G01 X51.5273 Y56.1870
G01 X51.5602 Y56.1905
G01 X53.3398 Y56.1905
G01 X53.3727 Y56.1870
G01 X53.4697 Y56.1508
G01 X53.5504 Y56.0904
G01 X53.6108 Y56.0097
G01 X53.6470 Y55.9127
G01 X53.6505 Y55.8798
G01 X53.6505 Y54.1002
G01 X53.6470 Y54.0673
G01 X53.6108 Y53.9703
G01 X53.5504 Y53.8896
G01 X53.4697 Y53.8292
G01 X53.3585 Y53.7877
G01 X53.3486 Y53.7836
G01 X53.3422 Y53.7805
G01 X53.3048 Y53.7601
G01 X53.2952 Y53.7540
G01 X53.2890 Y53.7496
G01 X53.2803 Y53.7424
G01 X53.2721 Y53.7345
G01 X53.2645 Y53.7261
G01 X53.2137 Y53.6582
G01 X53.2078 Y53.6487
G01 X53.2042 Y53.6421
G01 X53.2010 Y53.6354
G01 X53.1969 Y53.6250
G01 X53.1926 Y53.6108
G01 X53.1909 Y53.6035
G01 X53.1892 Y53.5925
G01 X53.1835 Y53.5153
G01 X53.1831 Y53.5005
G01 X53.1843 Y53.4856
G01 X53.1869 Y53.4709
G01 X53.1898 Y53.4602
G01 X53.1950 Y53.4462
G01 X53.2014 Y53.4328
G01 X53.2349 Y53.3714
G01 X53.2423 Y53.3593
G01 X53.2487 Y53.3506
G01 X53.2580 Y53.3398
G01 X53.3732 Y53.2246
G01 X53.4936 Y53.0525
G01 X53.5824 Y52.8622
G01 X53.6368 Y52.6593
G01 X53.6551 Y52.4500
G01 X53.6368 Y52.2407
G01 X53.5824 Y52.0378
G01 X53.4936 Y51.8475
G01 X53.3731 Y51.6754
G01 X53.2246 Y51.5269
G01 X53.0462 Y51.4019
G01 X53.0372 Y51.3946
G01 X53.0152 Y51.3755
G01 X53.0099 Y51.3705
G01 X53.0025 Y51.3625
G01 X52.9979 Y51.3569
G01 X52.9915 Y51.3481
G01 X52.9840 Y51.3356
G01 X52.9507 Y51.2699
G01 X52.9461 Y51.2597
G01 X52.9410 Y51.2457
G01 X52.9374 Y51.2312
G01 X52.9353 Y51.2165
G01 X52.9346 Y51.2016
G01 X52.9354 Y51.1868
G01 X52.9426 Y51.1173
G01 X52.9435 Y51.1099
G01 X52.9456 Y51.0989
G01 X52.9497 Y51.0846
G01 X52.9523 Y51.0776
G01 X52.9568 Y51.0673
G01 X52.9639 Y51.0543
G01 X52.9723 Y51.0420
G01 X53.0205 Y50.9817
G01 X53.0277 Y50.9738
G01 X53.0354 Y50.9663
G01 X53.0436 Y50.9595
G01 X53.0494 Y50.9552
G01 X53.2243 Y50.8328
G01 X53.3728 Y50.6843
G01 X53.4932 Y50.5123
G01 X53.5688 Y50.3502
G01 X53.3469 Y50.3502
G01 X53.3352 Y50.3748
G01 X53.3301 Y50.3846
G01 X53.2854 Y50.4594
G01 X53.2794 Y50.4686
G01 X53.2230 Y50.5444
G01 X53.1597 Y50.6145
G01 X53.1518 Y50.6222
G01 X53.0900 Y50.6782
G01 X53.0786 Y50.6875
G01 X53.0056 Y50.7415
G01 X52.9278 Y50.7883
G01 X52.9181 Y50.7936
G01 X52.8394 Y50.8309
G01 X52.8258 Y50.8365
G01 X52.7403 Y50.8669
G01 X52.6523 Y50.8892
G01 X52.6378 Y50.8920
G01 X52.5480 Y50.9052
G01 X52.4574 Y50.9098
G01 X52.4463 Y50.9100
G01 X52.3593 Y50.9057
G01 X52.3447 Y50.9043
G01 X52.2549 Y50.8908
G01 X52.1668 Y50.8689
G01 X52.1533 Y50.8648
G01 X52.0673 Y50.8339
G01 X51.9786 Y50.7919
G01 X51.8944 Y50.7415
G01 X51.8214 Y50.6875
G01 X51.8100 Y50.6782
G01 X51.7482 Y50.6222
G01 X51.7378 Y50.6118
G01 X51.6770 Y50.5444
G01 X51.6185 Y50.4656
G01 X51.5681 Y50.3814
G01 X51.5341 Y50.3100
G01 X51.3148 Y50.3100
G01 X51.3181 Y50.3220
G01 X51.4068 Y50.5123
G01 X51.5272 Y50.6843
G01 X51.6757 Y50.8328
G01 X51.8538 Y50.9575
G01 X51.8628 Y50.9648
G01 X51.8821 Y50.9815
G01 X51.8926 Y50.9915
G01 X51.8998 Y50.9997
G01 X51.9043 Y51.0054
G01 X51.9105 Y51.0143
G01 X51.9142 Y51.0206
G01 X51.9509 Y51.0929
G01 X51.9553 Y51.1031
G01 X51.9590 Y51.1137
G01 X51.9618 Y51.1245
G01 X51.9643 Y51.1392
G01 X51.9654 Y51.1540
G01 X51.9650 Y51.1689
G01 X51.9574 Y51.2421
G01 X51.9559 Y51.2532
G01 X51.9544 Y51.2605
G01 X51.9525 Y51.2677
G01 X51.9490 Y51.2783
G01 X51.9463 Y51.2853
G01 X51.9416 Y51.2954
G01 X51.9380 Y51.3019
G01 X51.9320 Y51.3114
G01 X51.9254 Y51.3203
G01 X51.8795 Y51.3777
G01 X51.8748 Y51.3830
G01 X51.8672 Y51.3906
G01 X51.8592 Y51.3977
G01 X51.8535 Y51.4021
G01 X51.6754 Y51.5269
G01 X51.5301 Y51.6721
G01 X51.5210 Y51.6800
G01 X51.5004 Y51.6966
G01 X51.4915 Y51.7032
G01 X51.4822 Y51.7092
G01 X51.4725 Y51.7144
G01 X51.4624 Y51.7189
G01 X51.4521 Y51.7227
G01 X51.3746 Y51.7453
G01 X51.3676 Y51.7468
G01 X51.3570 Y51.7484
G01 X51.3428 Y51.7495
G01 X49.4413 Y51.7495
G01 X49.4274 Y51.7489
G01 X49.4101 Y51.7462
G01 X49.3563 Y51.7347
G01 X49.3462 Y51.7320
G01 X49.3335 Y51.7274
G01 X49.1789 Y51.6945
G01 X49.0211 Y51.6945
G01 X48.8668 Y51.7273
G01 X48.7227 Y51.7915
G01 X48.5951 Y51.8842
G01 X48.4895 Y52.0014
G01 X48.4177 Y52.1255
G01 X48.4119 Y52.1339
G01 X48.3870 Y52.1660
G01 X48.3755 Y52.1786
G01 X45.6827 Y54.8101
G01 X45.6712 Y54.8207
G01 X45.6655 Y54.8255
G01 X45.6535 Y54.8341
G01 X45.6407 Y54.8414
G01 X45.5677 Y54.8749
G01 X45.5607 Y54.8776
G01 X45.5501 Y54.8811
G01 X45.5393 Y54.8838
G01 X45.5282 Y54.8856
G01 X45.5134 Y54.8868
G01 X45.5060 Y54.8869
G01 X45.4948 Y54.8863
G01 X45.4182 Y54.8754
G01 X45.4072 Y54.8734
G01 X45.3964 Y54.8706
G01 X45.3859 Y54.8670
G01 X45.3756 Y54.8626
G01 X45.3657 Y54.8575
G01 X45.3562 Y54.8516
G01 X45.3501 Y54.8473
G01 X45.3414 Y54.8403
G01 X45.2831 Y54.7895
G01 X45.2728 Y54.7787
G01 X45.2681 Y54.7729
G01 X45.2616 Y54.7638
G01 X45.2558 Y54.7543
G01 X45.2508 Y54.7443
G01 X45.2464 Y54.7340
G01 X45.2429 Y54.7234
G01 X45.2214 Y54.6495
G01 X45.2187 Y54.6355
G01 X45.2178 Y54.6284
G01 X45.2172 Y54.6177
G01 X45.2204 Y37.3366
G01 X45.2209 Y37.3243
G01 X45.2248 Y37.2895
G01 X45.2275 Y37.2749
G01 X45.2316 Y37.2607
G01 X45.2356 Y37.2503
G01 X45.2404 Y37.2403
G01 X45.2777 Y37.1728
G01 X45.2835 Y37.1637
G01 X45.2898 Y37.1551
G01 X45.2944 Y37.1496
G01 X45.3018 Y37.1418
G01 X49.2578 Y33.2297
G01 X49.2665 Y33.2218
G01 X49.2955 Y33.1987
G01 X49.3077 Y33.1907
G01 X49.3207 Y33.1840
G01 X49.3308 Y33.1797
G01 X49.3412 Y33.1763
G01 X49.4116 Y33.1556
G01 X49.4186 Y33.1539
G01 X49.4291 Y33.1520
G01 X49.4398 Y33.1509
G01 X49.4505 Y33.1505
G01 X51.3392 Y33.1505
G01 X51.3553 Y33.1514
G01 X51.3816 Y33.1542
G01 X51.3926 Y33.1558
G01 X51.4069 Y33.1591
G01 X51.4208 Y33.1639
G01 X51.4342 Y33.1700
G01 X51.4988 Y33.2052
G01 X51.5080 Y33.2106
G01 X51.5168 Y33.2167
G01 X51.5252 Y33.2235
G01 X51.5330 Y33.2308
G01 X51.6420 Y33.3398
G01 X51.6513 Y33.3506
G01 X51.6790 Y33.3879
G01 X51.6850 Y33.3975
G01 X51.6902 Y33.4076
G01 X51.6947 Y33.4180
G01 X51.6994 Y33.4324
G01 X51.7168 Y33.5116
G01 X51.7188 Y33.5264
G01 X51.7194 Y33.5413
G01 X51.7189 Y33.5524
G01 X51.7176 Y33.5635
G01 X51.7154 Y33.5745
G01 X51.7124 Y33.5852
G01 X51.6842 Y33.6612
G01 X51.6797 Y33.6714
G01 X51.6744 Y33.6813
G01 X51.6684 Y33.6907
G01 X51.6617 Y33.6996
G01 X51.6543 Y33.7080
G01 X51.6436 Y33.7184
G01 X51.6349 Y33.7254
G01 X51.5790 Y33.7673
G01 X51.5696 Y33.7738
G01 X51.5563 Y33.7813
G01 X51.5459 Y33.7860
G01 X51.4303 Y33.8292
G01 X51.3496 Y33.8896
G01 X51.2892 Y33.9703
G01 X51.2530 Y34.0673
G01 X51.2495 Y34.1002
G01 X51.2495 Y35.8798
G01 X51.2530 Y35.9127
G01 X51.2892 Y36.0097
G01 X51.3496 Y36.0904
G01 X51.4303 Y36.1508
G01 X51.5273 Y36.1870
G01 X51.5602 Y36.1905
G01 X53.3398 Y36.1905
G01 X53.3727 Y36.1870
G01 X53.4697 Y36.1508
G01 X53.5504 Y36.0904
G01 X53.6108 Y36.0097
G01 X53.6470 Y35.9127
G01 X53.6505 Y35.8798
G01 X53.6505 Y34.1002
G01 X53.6470 Y34.0673
G01 X53.6108 Y33.9703
G01 X53.5504 Y33.8896
G01 X53.4697 Y33.8292
G01 X53.3585 Y33.7877
G01 X53.3486 Y33.7836
G01 X53.3422 Y33.7805
G01 X53.3048 Y33.7601
G01 X53.2952 Y33.7540
G01 X53.2890 Y33.7496
G01 X53.2803 Y33.7424
G01 X53.2721 Y33.7345
G01 X53.2645 Y33.7261
G01 X53.2137 Y33.6582
G01 X53.2078 Y33.6487
G01 X53.2042 Y33.6421
G01 X53.2010 Y33.6354
G01 X53.1969 Y33.6250
G01 X53.1926 Y33.6108
G01 X53.1909 Y33.6035
G01 X53.1892 Y33.5925
G01 X53.1835 Y33.5153
G01 X53.1831 Y33.5005
G01 X53.1843 Y33.4856
G01 X53.1869 Y33.4709
G01 X53.1898 Y33.4602
G01 X53.1950 Y33.4462
G01 X53.2014 Y33.4328
G01 X53.2349 Y33.3714
G01 X53.2423 Y33.3593
G01 X53.2509 Y33.3478
G01 X53.2580 Y33.3398
G01 X53.3731 Y33.2246
G01 X53.4936 Y33.0525
G01 X53.5824 Y32.8622
G01 X53.6368 Y32.6593
G01 X53.6551 Y32.4500
G01 X53.6368 Y32.2407
G01 X53.5824 Y32.0378
G01 X53.4936 Y31.8475
G01 X53.3731 Y31.6754
G01 X53.2246 Y31.5269
G01 X53.0462 Y31.4019
G01 X53.0372 Y31.3946
G01 X53.0152 Y31.3755
G01 X53.0074 Y31.3679
G01 X53.0025 Y31.3625
G01 X52.9936 Y31.3511
G01 X52.9895 Y31.3450
G01 X52.9840 Y31.3356
G01 X52.9507 Y31.2699
G01 X52.9461 Y31.2597
G01 X52.9410 Y31.2457
G01 X52.9374 Y31.2312
G01 X52.9353 Y31.2165
G01 X52.9346 Y31.2016
G01 X52.9354 Y31.1868
G01 X52.9426 Y31.1173
G01 X52.9441 Y31.1062
G01 X52.9456 Y31.0989
G01 X52.9497 Y31.0846
G01 X52.9523 Y31.0776
G01 X52.9568 Y31.0673
G01 X52.9639 Y31.0543
G01 X52.9723 Y31.0420
G01 X53.0205 Y30.9817
G01 X53.0277 Y30.9738
G01 X53.0354 Y30.9663
G01 X53.0436 Y30.9595
G01 X53.0494 Y30.9552
G01 X53.2243 Y30.8328
G01 X53.3728 Y30.6843
G01 X53.4932 Y30.5123
G01 X53.5688 Y30.3502
G01 X53.3469 Y30.3502
G01 X53.3352 Y30.3748
G01 X53.3301 Y30.3846
G01 X53.2854 Y30.4594
G01 X53.2794 Y30.4686
G01 X53.2230 Y30.5444
G01 X53.1597 Y30.6145
G01 X53.1518 Y30.6222
G01 X53.0900 Y30.6782
G01 X53.0786 Y30.6875
G01 X53.0056 Y30.7415
G01 X52.9278 Y30.7883
G01 X52.9181 Y30.7936
G01 X52.8394 Y30.8309
G01 X52.8258 Y30.8365
G01 X52.7403 Y30.8669
G01 X52.6523 Y30.8892
G01 X52.6378 Y30.8920
G01 X52.5480 Y30.9052
G01 X52.4574 Y30.9098
G01 X52.4463 Y30.9100
G01 X52.3593 Y30.9057
G01 X52.3447 Y30.9043
G01 X52.2549 Y30.8908
G01 X52.1668 Y30.8689
G01 X52.1533 Y30.8648
G01 X52.0673 Y30.8339
G01 X51.9786 Y30.7919
G01 X51.8944 Y30.7415
G01 X51.8214 Y30.6875
G01 X51.8100 Y30.6782
G01 X51.7482 Y30.6222
G01 X51.7378 Y30.6118
G01 X51.6770 Y30.5444
G01 X51.6185 Y30.4656
G01 X51.5681 Y30.3814
G01 X51.5341 Y30.3100
G01 X51.3148 Y30.3100
G01 X51.3181 Y30.3220
G01 X51.4068 Y30.5123
G01 X51.5272 Y30.6843
G01 X51.6757 Y30.8328
G01 X51.8538 Y30.9575
G01 X51.8628 Y30.9648
G01 X51.8821 Y30.9815
G01 X51.8926 Y30.9915
G01 X51.8998 Y30.9997
G01 X51.9043 Y31.0054
G01 X51.9105 Y31.0143
G01 X51.9142 Y31.0206
G01 X51.9509 Y31.0929
G01 X51.9553 Y31.1031
G01 X51.9600 Y31.1173
G01 X51.9626 Y31.1281
G01 X51.9647 Y31.1429
G01 X51.9654 Y31.1540
G01 X51.9650 Y31.1689
G01 X51.9574 Y31.2421
G01 X51.9565 Y31.2495
G01 X51.9544 Y31.2605
G01 X51.9525 Y31.2677
G01 X51.9490 Y31.2783
G01 X51.9448 Y31.2887
G01 X51.9398 Y31.2987
G01 X51.9341 Y31.3083
G01 X51.9299 Y31.3144
G01 X51.8772 Y31.3804
G01 X51.8698 Y31.3882
G01 X51.8646 Y31.3931
G01 X51.8535 Y31.4021
G01 X51.6754 Y31.5269
G01 X51.5330 Y31.6692
G01 X51.5241 Y31.6774
G01 X51.4975 Y31.6989
G01 X51.4854 Y31.7073
G01 X51.4758 Y31.7127
G01 X51.4692 Y31.7160
G01 X51.4590 Y31.7202
G01 X51.4485 Y31.7237
G01 X51.3746 Y31.7453
G01 X51.3641 Y31.7474
G01 X51.3570 Y31.7484
G01 X51.3428 Y31.7495
G01 X49.3878 Y31.7495
G01 X49.3739 Y31.7485
G01 X49.3601 Y31.7462
G01 X49.3063 Y31.7347
G01 X49.2962 Y31.7320
G01 X49.2835 Y31.7274
G01 X49.1289 Y31.6945
G01 X48.9711 Y31.6945
G01 X48.8168 Y31.7273
G01 X48.6727 Y31.7915
G01 X48.5451 Y31.8842
G01 X48.4395 Y32.0014
G01 X48.3634 Y32.1328
G01 X48.3564 Y32.1426
G01 X48.3362 Y32.1688
G01 X48.3312 Y32.1750
G01 X48.3230 Y32.1838
G01 X44.4172 Y36.0462
G01 X44.4048 Y36.0577
G01 X44.3962 Y36.0648
G01 X44.3871 Y36.0712
G01 X44.3775 Y36.0769
G01 X44.3680 Y36.0816
G01 X44.2976 Y36.1135
G01 X44.2835 Y36.1183
G01 X44.2763 Y36.1202
G01 X44.2653 Y36.1224
G01 X44.2542 Y36.1237
G01 X44.2431 Y36.1242
G01 X44.2319 Y36.1238
G01 X44.2208 Y36.1226
G01 X44.1443 Y36.1114
G01 X44.1298 Y36.1079
G01 X44.1193 Y36.1043
G01 X44.1124 Y36.1014
G01 X44.1023 Y36.0965
G01 X44.0927 Y36.0909
G01 X44.0835 Y36.0846
G01 X44.0748 Y36.0776
G01 X44.0164 Y36.0268
G01 X44.0062 Y36.0160
G01 X44.0015 Y36.0102
G01 X43.9950 Y36.0011
G01 X43.9892 Y35.9916
G01 X43.9841 Y35.9816
G01 X43.9798 Y35.9713
G01 X43.9763 Y35.9607
G01 X43.9547 Y35.8868
G01 X43.9520 Y35.8728
G01 X43.9509 Y35.8621
G01 X43.9505 Y35.8550
G01 X43.9505 Y18.6868
G01 X43.9513 Y18.6717
G01 X43.9547 Y18.6396
G01 X43.9559 Y18.6325
G01 X43.9585 Y18.6219
G01 X43.9630 Y18.6081
G01 X43.9673 Y18.5981
G01 X43.9705 Y18.5916
G01 X44.0067 Y18.5237
G01 X44.0125 Y18.5147
G01 X44.0167 Y18.5089
G01 X44.0212 Y18.5034
G01 X44.0284 Y18.4954
G01 X49.1645 Y13.2331
G01 X49.1744 Y13.2238
G01 X49.2017 Y13.2016
G01 X49.2139 Y13.1931
G01 X49.2270 Y13.1858
G01 X49.2372 Y13.1812
G01 X49.2477 Y13.1774
G01 X49.3218 Y13.1556
G01 X49.3322 Y13.1532
G01 X49.3393 Y13.1520
G01 X49.3499 Y13.1509
G01 X49.3606 Y13.1505
G01 X51.3392 Y13.1505
G01 X51.3553 Y13.1514
G01 X51.3816 Y13.1542
G01 X51.3926 Y13.1558
G01 X51.4069 Y13.1591
G01 X51.4208 Y13.1639
G01 X51.4309 Y13.1683
G01 X51.4375 Y13.1717
G01 X51.5019 Y13.2069
G01 X51.5139 Y13.2146
G01 X51.5252 Y13.2235
G01 X51.5330 Y13.2308
G01 X51.6420 Y13.3398
G01 X51.6513 Y13.3506
G01 X51.6769 Y13.3847
G01 X51.6831 Y13.3942
G01 X51.6902 Y13.4076
G01 X51.6947 Y13.4180
G01 X51.6994 Y13.4324
G01 X51.7168 Y13.5116
G01 X51.7188 Y13.5264
G01 X51.7194 Y13.5413
G01 X51.7189 Y13.5524
G01 X51.7176 Y13.5635
G01 X51.7154 Y13.5745
G01 X51.7124 Y13.5852
G01 X51.6842 Y13.6612
G01 X51.6797 Y13.6714
G01 X51.6744 Y13.6813
G01 X51.6684 Y13.6907
G01 X51.6593 Y13.7025
G01 X51.6517 Y13.7107
G01 X51.6436 Y13.7184
G01 X51.6349 Y13.7254
G01 X51.5790 Y13.7673
G01 X51.5696 Y13.7738
G01 X51.5563 Y13.7813
G01 X51.5459 Y13.7860
G01 X51.4303 Y13.8292
G01 X51.3496 Y13.8896
G01 X51.2892 Y13.9703
G01 X51.2530 Y14.0673
G01 X51.2495 Y14.1002
G01 X51.2495 Y15.8798
G01 X51.2530 Y15.9127
G01 X51.2892 Y16.0097
G01 X51.3496 Y16.0904
G01 X51.4303 Y16.1508
G01 X51.5273 Y16.1870
G01 X51.5602 Y16.1905
G01 X53.3398 Y16.1905
G01 X53.3727 Y16.1870
G01 X53.4697 Y16.1508
G01 X53.5504 Y16.0904
G01 X53.6108 Y16.0097
G01 X53.6470 Y15.9127
G01 X53.6505 Y15.8798
G01 X53.6505 Y14.1002
G01 X53.6470 Y14.0673
G01 X53.6108 Y13.9703
G01 X53.5504 Y13.8896
G01 X53.4697 Y13.8292
G01 X53.3585 Y13.7877
G01 X53.3486 Y13.7836
G01 X53.3422 Y13.7805
G01 X53.3048 Y13.7601
G01 X53.2952 Y13.7540
G01 X53.2890 Y13.7496
G01 X53.2803 Y13.7424
G01 X53.2721 Y13.7345
G01 X53.2645 Y13.7261
G01 X53.2137 Y13.6582
G01 X53.2078 Y13.6487
G01 X53.2042 Y13.6421
G01 X53.1996 Y13.6320
G01 X53.1969 Y13.6250
G01 X53.1926 Y13.6108
G01 X53.1909 Y13.6035
G01 X53.1892 Y13.5925
G01 X53.1835 Y13.5153
G01 X53.1831 Y13.5005
G01 X53.1843 Y13.4856
G01 X53.1869 Y13.4709
G01 X53.1898 Y13.4602
G01 X53.1950 Y13.4462
G01 X53.2014 Y13.4328
G01 X53.2349 Y13.3714
G01 X53.2423 Y13.3593
G01 X53.2487 Y13.3506
G01 X53.2580 Y13.3398
G01 X53.3731 Y13.2246
G01 X53.4936 Y13.0525
G01 X53.5824 Y12.8622
G01 X53.6368 Y12.6593
G01 X53.6551 Y12.4500
G01 X53.6368 Y12.2407
G01 X53.5824 Y12.0378
G01 X53.4936 Y11.8475
G01 X53.3731 Y11.6754
G01 X53.2246 Y11.5269
G01 X53.0462 Y11.4019
G01 X53.0372 Y11.3946
G01 X53.0152 Y11.3755
G01 X53.0099 Y11.3705
G01 X53.0025 Y11.3624
G01 X52.9956 Y11.3539
G01 X52.9914 Y11.3479
G01 X52.9839 Y11.3355
G01 X52.9507 Y11.2699
G01 X52.9461 Y11.2597
G01 X52.9410 Y11.2457
G01 X52.9374 Y11.2312
G01 X52.9353 Y11.2165
G01 X52.9346 Y11.2016
G01 X52.9354 Y11.1868
G01 X52.9426 Y11.1173
G01 X52.9441 Y11.1062
G01 X52.9456 Y11.0989
G01 X52.9475 Y11.0917
G01 X52.9510 Y11.0811
G01 X52.9568 Y11.0673
G01 X52.9639 Y11.0543
G01 X52.9723 Y11.0420
G01 X53.0205 Y10.9817
G01 X53.0277 Y10.9738
G01 X53.0354 Y10.9663
G01 X53.0436 Y10.9595
G01 X53.0494 Y10.9552
G01 X53.2243 Y10.8328
G01 X53.3728 Y10.6843
G01 X53.4932 Y10.5123
G01 X53.5455 Y10.4002
G01 X53.3209 Y10.4002
G01 X53.2815 Y10.4656
G01 X53.2230 Y10.5444
G01 X53.1571 Y10.6171
G01 X53.0900 Y10.6782
G01 X53.0786 Y10.6875
G01 X53.0116 Y10.7372
G01 X52.9994 Y10.7454
G01 X52.9214 Y10.7919
G01 X52.8394 Y10.8309
G01 X52.8258 Y10.8365
G01 X52.7403 Y10.8669
G01 X52.6451 Y10.8908
G01 X52.5480 Y10.9052
G01 X52.4574 Y10.9098
G01 X52.4426 Y10.9098
G01 X52.3593 Y10.9057
G01 X52.3447 Y10.9043
G01 X52.2549 Y10.8908
G01 X52.1668 Y10.8689
G01 X52.1533 Y10.8648
G01 X52.0673 Y10.8339
G01 X51.9786 Y10.7919
G01 X51.8944 Y10.7415
G01 X51.8214 Y10.6875
G01 X51.8100 Y10.6782
G01 X51.7482 Y10.6222
G01 X51.7378 Y10.6118
G01 X51.6770 Y10.5444
G01 X51.6185 Y10.4656
G01 X51.5681 Y10.3814
G01 X51.5341 Y10.3100
G01 X51.3148 Y10.3100
G01 X51.3181 Y10.3220
G01 X51.4068 Y10.5123
G01 X51.5272 Y10.6843
G01 X51.6757 Y10.8328
G01 X51.8538 Y10.9575
G01 X51.8628 Y10.9648
G01 X51.8821 Y10.9815
G01 X51.8926 Y10.9915
G01 X51.8998 Y10.9997
G01 X51.9043 Y11.0054
G01 X51.9105 Y11.0143
G01 X51.9142 Y11.0206
G01 X51.9509 Y11.0929
G01 X51.9553 Y11.1031
G01 X51.9590 Y11.1137
G01 X51.9618 Y11.1245
G01 X51.9643 Y11.1392
G01 X51.9654 Y11.1540
G01 X51.9650 Y11.1689
G01 X51.9574 Y11.2421
G01 X51.9565 Y11.2495
G01 X51.9544 Y11.2605
G01 X51.9514 Y11.2713
G01 X51.9490 Y11.2783
G01 X51.9463 Y11.2853
G01 X51.9416 Y11.2954
G01 X51.9380 Y11.3019
G01 X51.9320 Y11.3114
G01 X51.9254 Y11.3203
G01 X51.8795 Y11.3777
G01 X51.8723 Y11.3856
G01 X51.8672 Y11.3906
G01 X51.8619 Y11.3954
G01 X51.8535 Y11.4021
G01 X51.6754 Y11.5269
G01 X51.5301 Y11.6721
G01 X51.5210 Y11.6800
G01 X51.4975 Y11.6989
G01 X51.4885 Y11.7053
G01 X51.4790 Y11.7110
G01 X51.4658 Y11.7175
G01 X51.4521 Y11.7227
G01 X51.3815 Y11.7434
G01 X51.3711 Y11.7461
G01 X51.3606 Y11.7480
G01 X51.3535 Y11.7488
G01 X51.3428 Y11.7495
G01 X49.2913 Y11.7495
G01 X49.2774 Y11.7489
G01 X49.2601 Y11.7462
G01 X49.2063 Y11.7347
G01 X49.1962 Y11.7320
G01 X49.1835 Y11.7274
G01 X49.0289 Y11.6945
G01 X48.8711 Y11.6945
G01 X48.7168 Y11.7273
G01 X48.5727 Y11.7915
G01 X48.4451 Y11.8842
G01 X48.3395 Y12.0014
G01 X48.2542 Y12.1491
G01 X48.2480 Y12.1585
G01 X48.2271 Y12.1861
G01 X48.2224 Y12.1920
G01 X48.2149 Y12.2003
G01 X42.7527 Y17.7966
G01 X42.7028 Y17.8466
G01 X42.6656 Y17.9038
G01 X42.6268 Y17.9618
G01 X42.6009 Y18.0266
G01 X42.5748 Y18.0897
G01 X42.5623 Y18.1569
G01 X42.5487 Y18.2253
G01 X42.5495 Y18.2960
G01 X42.5495 Y19.3874
G01 X42.5489 Y19.4053
G01 X42.5478 Y19.4163
G01 X42.5459 Y19.4273
G01 X42.5432 Y19.4381
G01 X42.5397 Y19.4486
G01 X42.5125 Y19.5210
G01 X42.5077 Y19.5311
G01 X42.5041 Y19.5376
G01 X42.4981 Y19.5470
G01 X42.4937 Y19.5530
G01 X42.4841 Y19.5644
G01 X42.4788 Y19.5697
G01 X42.4705 Y19.5771
G01 X42.4087 Y19.6236
G01 X42.3995 Y19.6300
G01 X42.3899 Y19.6356
G01 X42.3833 Y19.6390
G01 X42.3730 Y19.6434
G01 X42.3660 Y19.6459
G01 X42.3589 Y19.6481
G01 X42.3480 Y19.6507
G01 X42.3332 Y19.6528
G01 X42.2598 Y19.6581
G01 X42.2450 Y19.6585
G01 X42.2338 Y19.6577
G01 X42.2227 Y19.6562
G01 X42.2118 Y19.6538
G01 X42.2011 Y19.6506
G01 X42.1907 Y19.6466
G01 X42.1805 Y19.6419
G01 X42.1128 Y19.6049
G01 X42.1037 Y19.5993
G01 X42.0951 Y19.5929
G01 X42.0896 Y19.5884
G01 X42.0818 Y19.5811
G01 X39.5107 Y17.0101
G01 X39.5000 Y16.9981
G01 X39.4834 Y16.9775
G01 X39.4768 Y16.9687
G01 X39.4708 Y16.9594
G01 X39.4656 Y16.9496
G01 X39.4625 Y16.9429
G01 X39.4585 Y16.9327
G01 X39.4347 Y16.8517
G01 X39.4326 Y16.8412
G01 X39.4316 Y16.8342
G01 X39.4309 Y16.8271
G01 X39.4305 Y16.8164
G01 X39.4305 Y11.6110
G01 X39.4036 Y11.4757
G01 X39.3508 Y11.3482
G01 X39.2741 Y11.2335
G01 X34.1442 Y6.1035
G01 X34.1367 Y6.0955
G01 X34.1321 Y6.0899
G01 X34.1237 Y6.0780
G01 X34.0874 Y6.0176
G01 X34.0842 Y6.0112
G01 X34.0799 Y6.0013
G01 X34.0774 Y5.9945
G01 X34.0743 Y5.9842
G01 X34.0713 Y5.9701
G01 X34.0698 Y5.9558
G01 X34.0686 Y5.8712
G01 X34.0698 Y5.8564
G01 X34.0726 Y5.8418
G01 X34.0767 Y5.8275
G01 X34.0823 Y5.8136
G01 X34.0874 Y5.8037
G01 X34.0911 Y5.7973
G01 X34.1301 Y5.7348
G01 X34.1389 Y5.7228
G01 X34.1488 Y5.7117
G01 X34.1570 Y5.7041
G01 X34.1687 Y5.6949
G01 X34.1780 Y5.6887
G01 X34.1911 Y5.6817
G01 X34.2543 Y5.6518
G01 X34.2674 Y5.6463
G01 X34.2776 Y5.6430
G01 X34.2915 Y5.6398
G01 X34.3976 Y5.6229
G01 X34.5623 Y5.5694
G01 X34.7165 Y5.4908
G01 X34.8566 Y5.3890
G01 X34.9790 Y5.2666
G01 X35.0808 Y5.1265
G01 X35.1594 Y4.9723
G01 X35.2129 Y4.8076
G01 X35.2300 Y4.7000
G01 X35.0267 Y4.7000
G01 X35.0234 Y4.7220
G01 X35.0219 Y4.7292
G01 X35.0023 Y4.8077
G01 X34.9989 Y4.8182
G01 X34.9741 Y4.8875
G01 X34.9700 Y4.8978
G01 X34.9370 Y4.9677
G01 X34.9301 Y4.9807
G01 X34.8883 Y5.0500
G01 X34.8380 Y5.1181
G01 X34.8309 Y5.1265
G01 X34.7764 Y5.1864
G01 X34.7165 Y5.2409
G01 X34.7051 Y5.2502
G01 X34.6400 Y5.2983
G01 X34.5707 Y5.3401
G01 X34.5577 Y5.3470
G01 X34.4844 Y5.3815
G01 X34.4013 Y5.4112
G01 X34.3228 Y5.4311
G01 X34.3083 Y5.4340
G01 X34.2355 Y5.4448
G01 X34.2209 Y5.4462
G01 X34.1400 Y5.4500
G01 X34.0591 Y5.4462
G01 X34.0445 Y5.4448
G01 X33.9644 Y5.4327
G01 X33.8787 Y5.4112
G01 X33.7956 Y5.3815
G01 X33.7223 Y5.3470
G01 X33.7125 Y5.3420
G01 X33.6400 Y5.2983
G01 X33.5690 Y5.2457
G01 X33.5036 Y5.1864
G01 X33.4491 Y5.1265
G01 X33.4398 Y5.1151
G01 X33.3917 Y5.0500
G01 X33.3499 Y4.9807
G01 X33.3430 Y4.9677
G01 X33.3115 Y4.9011
G01 X33.3059 Y4.8875
G01 X33.2788 Y4.8113
G01 X33.2589 Y4.7328
G01 X33.2560 Y4.7183
G01 X33.2452 Y4.6455
G01 X33.2440 Y4.6345
G01 X33.2400 Y4.5500
G01 X33.2400 Y4.0500
G01 X33.2443 Y3.9618
G01 X33.2560 Y3.8817
G01 X33.2589 Y3.8672
G01 X33.2788 Y3.7887
G01 X33.3059 Y3.7125
G01 X33.3115 Y3.6989
G01 X33.3463 Y3.6257
G01 X33.3897 Y3.5531
G01 X33.3959 Y3.5440
G01 X33.4398 Y3.4849
G01 X33.4491 Y3.4735
G01 X33.5036 Y3.4136
G01 X33.5662 Y3.3567
G01 X33.5749 Y3.3498
G01 X33.6340 Y3.3059
G01 X33.6431 Y3.2997
G01 X33.7125 Y3.2580
G01 X33.7190 Y3.2546
G01 X33.7400 Y3.2446
G01 X33.7400 Y3.0234
G01 X33.7177 Y3.0306
G01 X33.5635 Y3.1092
G01 X33.4234 Y3.2110
G01 X33.3010 Y3.3334
G01 X33.1992 Y3.4735
G01 X33.1833 Y3.5047
G01 X33.1781 Y3.5140
G01 X33.1653 Y3.5350
G01 X33.1590 Y3.5437
G01 X33.1545 Y3.5492
G01 X33.1472 Y3.5571
G01 X33.1368 Y3.5667
G01 X33.0764 Y3.6148
G01 X33.0641 Y3.6231
G01 X33.0510 Y3.6303
G01 X33.0373 Y3.6361
G01 X33.0266 Y3.6395
G01 X33.0194 Y3.6413
G01 X33.0047 Y3.6439
G01 X32.9315 Y3.6514
G01 X32.9204 Y3.6521
G01 X32.9092 Y3.6520
G01 X32.8944 Y3.6505
G01 X32.8834 Y3.6485
G01 X32.8762 Y3.6467
G01 X32.8620 Y3.6419
G01 X32.8484 Y3.6359
G01 X32.7862 Y3.6042
G01 X32.7732 Y3.5968
G01 X32.7611 Y3.5882
G01 X32.7526 Y3.5809
G01 X32.7447 Y3.5730
G01 X32.7373 Y3.5646
G01 X32.7306 Y3.5557
G01 X32.7246 Y3.5462
G01 X32.6894 Y3.4859
G01 X32.6841 Y3.4761
G01 X32.6796 Y3.4659
G01 X32.6748 Y3.4519
G01 X32.6619 Y3.4008
G01 X32.5952 Y3.2662
G01 X32.5010 Y3.1490
G01 X32.3838 Y3.0548
G01 X32.2492 Y2.9881
G01 X32.1003 Y2.9510
G01 X32.0776 Y2.9495
G01 X31.1224 Y2.9495
G01 X31.0997 Y2.9510
G01 X30.9508 Y2.9881
G01 X30.8162 Y3.0548
G01 X30.6990 Y3.1490
G01 X30.6048 Y3.2662
G01 X30.5381 Y3.4008
G01 X30.5010 Y3.5496
G01 X30.4995 Y3.5724
G01 X30.4995 Y5.0276
G01 X30.5010 Y5.0504
G01 X30.5381 Y5.1992
G01 X30.6048 Y5.3338
G01 X30.6990 Y5.4510
G01 X30.8162 Y5.5452
G01 X30.9508 Y5.6119
G01 X31.0996 Y5.6490
G01 X31.1224 Y5.6505
G01 X31.5963 Y5.6505
G01 X31.6084 Y5.6510
G01 X31.6424 Y5.6546
G01 X31.6533 Y5.6565
G01 X31.6675 Y5.6602
G01 X31.6779 Y5.6639
G01 X31.6913 Y5.6700
G01 X31.7621 Y5.7087
G01 X31.7739 Y5.7167
G01 X31.7849 Y5.7258
G01 X37.9492 Y11.8899
G01 X37.9574 Y11.8988
G01 X37.9811 Y11.9283
G01 X37.9892 Y11.9406
G01 X37.9944 Y11.9504
G01 X37.9989 Y11.9604
G01 X38.0027 Y11.9708
G01 X38.0253 Y12.0483
G01 X38.0274 Y12.0588
G01 X38.0284 Y12.0658
G01 X38.0291 Y12.0729
G01 X38.0295 Y12.0837
G01 X38.0295 Y17.2890
G01 X38.0564 Y17.4243
G01 X38.1092 Y17.5518
G01 X38.1859 Y17.6665
G01 X41.2701 Y20.7508
G01 X41.2803 Y20.7628
G01 X41.3022 Y20.7913
G01 X41.3083 Y20.8004
G01 X41.3795 Y20.9236
G01 X41.4851 Y21.0408
G01 X41.6127 Y21.1335
G01 X41.7568 Y21.1977
G01 X41.9111 Y21.2305
G01 X42.0689 Y21.2305
G01 X42.2185 Y21.1987
G01 X42.2388 Y21.1952
G01 X42.2535 Y21.1940
G01 X42.2645 Y21.1941
G01 X42.2756 Y21.1950
G01 X42.3484 Y21.2054
G01 X42.3630 Y21.2083
G01 X42.3702 Y21.2103
G01 X42.3807 Y21.2139
G01 X42.3944 Y21.2199
G01 X42.4042 Y21.2253
G01 X42.4135 Y21.2314
G01 X42.4224 Y21.2381
G01 X42.4836 Y21.2913
G01 X42.4938 Y21.3021
G01 X42.5029 Y21.3139
G01 X42.5089 Y21.3233
G01 X42.5143 Y21.3331
G01 X42.5188 Y21.3433
G01 X42.5226 Y21.3538
G01 X42.5444 Y21.4279
G01 X42.5474 Y21.4418
G01 X42.5491 Y21.4560
G01 X42.5495 Y21.4667
G01 X42.5495 Y39.9441
G01 X42.5486 Y39.9601
G01 X42.5432 Y40.0006
G01 X42.5419 Y40.0078
G01 X42.5392 Y40.0186
G01 X42.5343 Y40.0326
G01 X42.5298 Y40.0428
G01 X42.5227 Y40.0557
G01 X42.4840 Y40.1183
G01 X42.4775 Y40.1274
G01 X42.4729 Y40.1332
G01 X42.4653 Y40.1415
G01 X42.4544 Y40.1516
G01 X42.4425 Y40.1605
G01 X42.4297 Y40.1683
G01 X42.3533 Y40.2048
G01 X42.3463 Y40.2075
G01 X42.3357 Y40.2110
G01 X42.3212 Y40.2142
G01 X42.3101 Y40.2158
G01 X42.3027 Y40.2163
G01 X42.2915 Y40.2164
G01 X42.2803 Y40.2157
G01 X42.2036 Y40.2061
G01 X42.1890 Y40.2031
G01 X42.1748 Y40.1988
G01 X42.1644 Y40.1946
G01 X42.1577 Y40.1913
G01 X42.1480 Y40.1859
G01 X42.1387 Y40.1797
G01 X42.1298 Y40.1729
G01 X42.0762 Y40.1281
G01 X42.0682 Y40.1209
G01 X42.0585 Y40.1105
G01 X42.0492 Y40.0986
G01 X39.5108 Y37.5601
G01 X39.5000 Y37.5481
G01 X39.4811 Y37.5246
G01 X39.4747 Y37.5156
G01 X39.4690 Y37.5062
G01 X39.4640 Y37.4963
G01 X39.4598 Y37.4861
G01 X39.4573 Y37.4792
G01 X39.4347 Y37.4017
G01 X39.4332 Y37.3947
G01 X39.4316 Y37.3842
G01 X39.4309 Y37.3771
G01 X39.4305 Y37.3663
G01 X39.4305 Y31.5710
G01 X39.4036 Y31.4357
G01 X39.3508 Y31.3082
G01 X39.2741 Y31.1935
G01 X34.1787 Y26.0981
G01 X34.1689 Y26.0873
G01 X34.1623 Y26.0786
G01 X34.1582 Y26.0725
G01 X34.1237 Y26.0153
G01 X34.1172 Y26.0025
G01 X34.1119 Y25.9891
G01 X34.1080 Y25.9752
G01 X34.1059 Y25.9646
G01 X34.1043 Y25.9503
G01 X34.1031 Y25.8658
G01 X34.1044 Y25.8509
G01 X34.1071 Y25.8363
G01 X34.1101 Y25.8255
G01 X34.1153 Y25.8116
G01 X34.1201 Y25.8015
G01 X34.1257 Y25.7918
G01 X34.1667 Y25.7263
G01 X34.1711 Y25.7202
G01 X34.1782 Y25.7117
G01 X34.1833 Y25.7062
G01 X34.1915 Y25.6986
G01 X34.2002 Y25.6916
G01 X34.2063 Y25.6873
G01 X34.2125 Y25.6833
G01 X34.2223 Y25.6779
G01 X34.2888 Y25.6463
G01 X34.2986 Y25.6421
G01 X34.3054 Y25.6396
G01 X34.3156 Y25.6366
G01 X34.3261 Y25.6343
G01 X34.3976 Y25.6229
G01 X34.5623 Y25.5694
G01 X34.7165 Y25.4908
G01 X34.8566 Y25.3890
G01 X34.9790 Y25.2666
G01 X35.0808 Y25.1265
G01 X35.1594 Y24.9723
G01 X35.2129 Y24.8076
G01 X35.2300 Y24.7000
G01 X35.0267 Y24.7000
G01 X35.0234 Y24.7220
G01 X35.0219 Y24.7292
G01 X35.0032 Y24.8042
G01 X35.0001 Y24.8148
G01 X34.9715 Y24.8944
G01 X34.9354 Y24.9710
G01 X34.9301 Y24.9807
G01 X34.8923 Y25.0438
G01 X34.8841 Y25.0560
G01 X34.8357 Y25.1210
G01 X34.7790 Y25.1838
G01 X34.7711 Y25.1915
G01 X34.7165 Y25.2409
G01 X34.7051 Y25.2502
G01 X34.6400 Y25.2983
G01 X34.5643 Y25.3437
G01 X34.4911 Y25.3785
G01 X34.4775 Y25.3841
G01 X34.4013 Y25.4112
G01 X34.3228 Y25.4311
G01 X34.3083 Y25.4340
G01 X34.2355 Y25.4448
G01 X34.2209 Y25.4462
G01 X34.1400 Y25.4500
G01 X34.0591 Y25.4462
G01 X34.0445 Y25.4448
G01 X33.9644 Y25.4327
G01 X33.8858 Y25.4132
G01 X33.8718 Y25.4089
G01 X33.7956 Y25.3815
G01 X33.7223 Y25.3470
G01 X33.7093 Y25.3401
G01 X33.6400 Y25.2983
G01 X33.5749 Y25.2502
G01 X33.5635 Y25.2409
G01 X33.5036 Y25.1864
G01 X33.4491 Y25.1265
G01 X33.4398 Y25.1151
G01 X33.3917 Y25.0500
G01 X33.3499 Y24.9807
G01 X33.3430 Y24.9677
G01 X33.3085 Y24.8944
G01 X33.2811 Y24.8182
G01 X33.2768 Y24.8042
G01 X33.2589 Y24.7328
G01 X33.2566 Y24.7220
G01 X33.2443 Y24.6382
G01 X33.2400 Y24.5537
G01 X33.2400 Y24.0500
G01 X33.2438 Y23.9691
G01 X33.2452 Y23.9545
G01 X33.2560 Y23.8817
G01 X33.2589 Y23.8672
G01 X33.2788 Y23.7887
G01 X33.3059 Y23.7125
G01 X33.3115 Y23.6989
G01 X33.3463 Y23.6257
G01 X33.3877 Y23.5562
G01 X33.3938 Y23.5470
G01 X33.4398 Y23.4849
G01 X33.4491 Y23.4735
G01 X33.5036 Y23.4136
G01 X33.5662 Y23.3567
G01 X33.5749 Y23.3498
G01 X33.6340 Y23.3059
G01 X33.6431 Y23.2997
G01 X33.7125 Y23.2580
G01 X33.7190 Y23.2546
G01 X33.7400 Y23.2446
G01 X33.7400 Y23.0234
G01 X33.7177 Y23.0306
G01 X33.5635 Y23.1092
G01 X33.4234 Y23.2110
G01 X33.3010 Y23.3334
G01 X33.1992 Y23.4735
G01 X33.1833 Y23.5047
G01 X33.1781 Y23.5140
G01 X33.1653 Y23.5350
G01 X33.1590 Y23.5437
G01 X33.1545 Y23.5492
G01 X33.1447 Y23.5596
G01 X33.1368 Y23.5667
G01 X33.0764 Y23.6148
G01 X33.0672 Y23.6212
G01 X33.0609 Y23.6250
G01 X33.0476 Y23.6318
G01 X33.0337 Y23.6373
G01 X33.0194 Y23.6413
G01 X33.0047 Y23.6439
G01 X32.9315 Y23.6514
G01 X32.9241 Y23.6520
G01 X32.9129 Y23.6521
G01 X32.9018 Y23.6514
G01 X32.8944 Y23.6505
G01 X32.8798 Y23.6476
G01 X32.8655 Y23.6433
G01 X32.8586 Y23.6406
G01 X32.8484 Y23.6359
G01 X32.7862 Y23.6042
G01 X32.7732 Y23.5968
G01 X32.7640 Y23.5904
G01 X32.7554 Y23.5834
G01 X32.7472 Y23.5757
G01 X32.7373 Y23.5646
G01 X32.7306 Y23.5557
G01 X32.7246 Y23.5462
G01 X32.6894 Y23.4859
G01 X32.6841 Y23.4761
G01 X32.6796 Y23.4659
G01 X32.6748 Y23.4519
G01 X32.6619 Y23.4008
G01 X32.5952 Y23.2662
G01 X32.5010 Y23.1490
G01 X32.3838 Y23.0548
G01 X32.2492 Y22.9881
G01 X32.1003 Y22.9510
G01 X32.0776 Y22.9495
G01 X31.1224 Y22.9495
G01 X31.0997 Y22.9510
G01 X30.9508 Y22.9881
G01 X30.8162 Y23.0548
G01 X30.6990 Y23.1490
G01 X30.6048 Y23.2662
G01 X30.5381 Y23.4008
G01 X30.5010 Y23.5496
G01 X30.4995 Y23.5724
G01 X30.4995 Y25.0276
G01 X30.5010 Y25.0504
G01 X30.5381 Y25.1992
G01 X30.6048 Y25.3338
G01 X30.6990 Y25.4510
G01 X30.8162 Y25.5452
G01 X30.9508 Y25.6119
G01 X31.0996 Y25.6490
G01 X31.1224 Y25.6505
G01 X31.6363 Y25.6505
G01 X31.6524 Y25.6514
G01 X31.6824 Y25.6546
G01 X31.6933 Y25.6565
G01 X31.7075 Y25.6602
G01 X31.7213 Y25.6653
G01 X31.7346 Y25.6717
G01 X31.7990 Y25.7069
G01 X31.8110 Y25.7146
G01 X31.8223 Y25.7235
G01 X31.8301 Y25.7308
G01 X37.9492 Y31.8499
G01 X37.9574 Y31.8588
G01 X37.9789 Y31.8854
G01 X37.9853 Y31.8944
G01 X37.9927 Y31.9071
G01 X37.9989 Y31.9204
G01 X38.0027 Y31.9308
G01 X38.0244 Y32.0048
G01 X38.0261 Y32.0118
G01 X38.0280 Y32.0223
G01 X38.0291 Y32.0329
G01 X38.0295 Y32.0437
G01 X38.0295 Y37.8390
G01 X38.0564 Y37.9743
G01 X38.1092 Y38.1018
G01 X38.1859 Y38.2165
G01 X41.0585 Y41.0891
G01 X41.1732 Y41.1658
G01 X41.3007 Y41.2186
G01 X41.4360 Y41.2455
G01 X41.5740 Y41.2455
G01 X41.7093 Y41.2186
G01 X41.8368 Y41.1658
G01 X41.9515 Y41.0891
G01 X42.0493 Y40.9914
G01 X42.0573 Y40.9808
G01 X42.0868 Y40.9475
G01 X42.0977 Y40.9375
G01 X42.1064 Y40.9306
G01 X42.1125 Y40.9264
G01 X42.1221 Y40.9207
G01 X42.1320 Y40.9158
G01 X42.1955 Y40.8867
G01 X42.2059 Y40.8825
G01 X42.2165 Y40.8790
G01 X42.2273 Y40.8763
G01 X42.2421 Y40.8740
G01 X42.2532 Y40.8733
G01 X42.2644 Y40.8733
G01 X42.2755 Y40.8742
G01 X42.3520 Y40.8852
G01 X42.3666 Y40.8884
G01 X42.3772 Y40.8918
G01 X42.3842 Y40.8945
G01 X42.3944 Y40.8991
G01 X42.4009 Y40.9026
G01 X42.4073 Y40.9064
G01 X42.4165 Y40.9128
G01 X42.4252 Y40.9198
G01 X42.4780 Y40.9655
G01 X42.4836 Y40.9705
G01 X42.4913 Y40.9786
G01 X42.5007 Y40.9901
G01 X42.5050 Y40.9962
G01 X42.5108 Y41.0058
G01 X42.5174 Y41.0191
G01 X42.5202 Y41.0260
G01 X42.5237 Y41.0366
G01 X42.5444 Y41.1071
G01 X42.5468 Y41.1175
G01 X42.5488 Y41.1317
G01 X42.5495 Y41.1459
G01 X42.5495 Y59.7281
G01 X42.5484 Y59.7426
G01 X42.5459 Y59.7569
G01 X42.5308 Y59.8184
G01 X42.5266 Y59.8322
G01 X42.5212 Y59.8455
G01 X42.5145 Y59.8582
G01 X42.5066 Y59.8703
G01 X42.5023 Y59.8760
G01 X42.4952 Y59.8842
G01 X42.4387 Y59.9422
G01 X42.4331 Y59.9471
G01 X42.4243 Y59.9540
G01 X42.4150 Y59.9602
G01 X42.4086 Y59.9639
G01 X42.3952 Y59.9704
G01 X42.3883 Y59.9732
G01 X42.3777 Y59.9766
G01 X42.2988 Y59.9951
G01 X42.2840 Y59.9974
G01 X42.2692 Y59.9982
G01 X42.2617 Y59.9981
G01 X42.2506 Y59.9972
G01 X42.2359 Y59.9947
G01 X42.2287 Y59.9929
G01 X42.2180 Y59.9895
G01 X42.1489 Y59.9648
G01 X42.1358 Y59.9590
G01 X42.1233 Y59.9521
G01 X42.1144 Y59.9461
G01 X41.9773 Y59.8465
G01 X41.9477 Y59.8332
G01 X41.9339 Y59.8257
G01 X41.8869 Y59.7936
G01 X41.8806 Y59.7888
G01 X41.8718 Y59.7810
G01 X39.5107 Y57.4201
G01 X39.5026 Y57.4112
G01 X39.4789 Y57.3817
G01 X39.4708 Y57.3694
G01 X39.4640 Y57.3563
G01 X39.4611 Y57.3496
G01 X39.4573 Y57.3392
G01 X39.4356 Y57.2652
G01 X39.4332 Y57.2547
G01 X39.4316 Y57.2442
G01 X39.4309 Y57.2371
G01 X39.4305 Y57.2264
G01 X39.4305 Y51.3410
G01 X39.4036 Y51.2057
G01 X39.3508 Y51.0782
G01 X39.2741 Y50.9635
G01 X34.3635 Y46.0529
G01 X34.3563 Y46.0451
G01 X34.3497 Y46.0369
G01 X34.3198 Y45.9949
G01 X34.3123 Y45.9819
G01 X34.3076 Y45.9717
G01 X34.3025 Y45.9576
G01 X34.2997 Y45.9468
G01 X34.2852 Y45.8632
G01 X34.2841 Y45.8483
G01 X34.2845 Y45.8335
G01 X34.2858 Y45.8224
G01 X34.2879 Y45.8114
G01 X34.2908 Y45.8006
G01 X34.2945 Y45.7901
G01 X34.3246 Y45.7188
G01 X34.3314 Y45.7056
G01 X34.3395 Y45.6931
G01 X34.3463 Y45.6842
G01 X34.3538 Y45.6760
G01 X34.3619 Y45.6683
G01 X34.3706 Y45.6612
G01 X34.4343 Y45.6174
G01 X34.4466 Y45.6098
G01 X34.4596 Y45.6034
G01 X34.4698 Y45.5995
G01 X34.5623 Y45.5694
G01 X34.7165 Y45.4908
G01 X34.8566 Y45.3890
G01 X34.9790 Y45.2666
G01 X35.0808 Y45.1265
G01 X35.1594 Y44.9723
G01 X35.2129 Y44.8076
G01 X35.2300 Y44.7000
G01 X35.0267 Y44.7000
G01 X35.0234 Y44.7220
G01 X35.0219 Y44.7292
G01 X35.0032 Y44.8042
G01 X35.0001 Y44.8148
G01 X34.9715 Y44.8944
G01 X34.9354 Y44.9710
G01 X34.9301 Y44.9807
G01 X34.8923 Y45.0438
G01 X34.8841 Y45.0560
G01 X34.8357 Y45.1210
G01 X34.7790 Y45.1838
G01 X34.7711 Y45.1915
G01 X34.7165 Y45.2409
G01 X34.7051 Y45.2502
G01 X34.6400 Y45.2983
G01 X34.5643 Y45.3437
G01 X34.4911 Y45.3785
G01 X34.4775 Y45.3841
G01 X34.4013 Y45.4112
G01 X34.3228 Y45.4311
G01 X34.3083 Y45.4340
G01 X34.2355 Y45.4448
G01 X34.2209 Y45.4462
G01 X34.1400 Y45.4500
G01 X34.0591 Y45.4462
G01 X34.0445 Y45.4448
G01 X33.9644 Y45.4327
G01 X33.8858 Y45.4132
G01 X33.8718 Y45.4089
G01 X33.7956 Y45.3815
G01 X33.7223 Y45.3470
G01 X33.7093 Y45.3401
G01 X33.6400 Y45.2983
G01 X33.5749 Y45.2502
G01 X33.5635 Y45.2409
G01 X33.5036 Y45.1864
G01 X33.4491 Y45.1265
G01 X33.4398 Y45.1151
G01 X33.3917 Y45.0500
G01 X33.3499 Y44.9807
G01 X33.3430 Y44.9677
G01 X33.3085 Y44.8944
G01 X33.2811 Y44.8182
G01 X33.2768 Y44.8042
G01 X33.2589 Y44.7328
G01 X33.2566 Y44.7220
G01 X33.2443 Y44.6382
G01 X33.2400 Y44.5537
G01 X33.2400 Y44.0500
G01 X33.2438 Y43.9691
G01 X33.2452 Y43.9545
G01 X33.2560 Y43.8817
G01 X33.2589 Y43.8672
G01 X33.2788 Y43.7887
G01 X33.3059 Y43.7125
G01 X33.3115 Y43.6989
G01 X33.3463 Y43.6257
G01 X33.3877 Y43.5562
G01 X33.3938 Y43.5470
G01 X33.4398 Y43.4849
G01 X33.4491 Y43.4735
G01 X33.5036 Y43.4136
G01 X33.5662 Y43.3567
G01 X33.5749 Y43.3498
G01 X33.6340 Y43.3059
G01 X33.6431 Y43.2997
G01 X33.7125 Y43.2580
G01 X33.7190 Y43.2546
G01 X33.7400 Y43.2446
G01 X33.7400 Y43.0234
G01 X33.7177 Y43.0306
G01 X33.5635 Y43.1092
G01 X33.4234 Y43.2110
G01 X33.3010 Y43.3334
G01 X33.1992 Y43.4735
G01 X33.1833 Y43.5047
G01 X33.1781 Y43.5140
G01 X33.1653 Y43.5350
G01 X33.1612 Y43.5409
G01 X33.1545 Y43.5492
G01 X33.1472 Y43.5571
G01 X33.1368 Y43.5667
G01 X33.0764 Y43.6148
G01 X33.0641 Y43.6231
G01 X33.0510 Y43.6303
G01 X33.0373 Y43.6361
G01 X33.0266 Y43.6395
G01 X33.0194 Y43.6413
G01 X33.0047 Y43.6439
G01 X32.9315 Y43.6514
G01 X32.9204 Y43.6521
G01 X32.9129 Y43.6521
G01 X32.9055 Y43.6518
G01 X32.8944 Y43.6505
G01 X32.8798 Y43.6476
G01 X32.8690 Y43.6445
G01 X32.8620 Y43.6419
G01 X32.8484 Y43.6359
G01 X32.7862 Y43.6042
G01 X32.7732 Y43.5968
G01 X32.7640 Y43.5904
G01 X32.7554 Y43.5834
G01 X32.7472 Y43.5757
G01 X32.7373 Y43.5646
G01 X32.7306 Y43.5557
G01 X32.7246 Y43.5462
G01 X32.6894 Y43.4859
G01 X32.6841 Y43.4761
G01 X32.6796 Y43.4659
G01 X32.6748 Y43.4519
G01 X32.6619 Y43.4008
G01 X32.5952 Y43.2662
G01 X32.5010 Y43.1490
G01 X32.3838 Y43.0548
G01 X32.2492 Y42.9881
G01 X32.1003 Y42.9510
G01 X32.0776 Y42.9495
G01 X31.1224 Y42.9495
G01 X31.0997 Y42.9510
G01 X30.9508 Y42.9881
G01 X30.8162 Y43.0548
G01 X30.6990 Y43.1490
G01 X30.6048 Y43.2662
G01 X30.5381 Y43.4008
G01 X30.5010 Y43.5496
G01 X30.4995 Y43.5724
G01 X30.4995 Y45.0276
G01 X30.5010 Y45.0504
G01 X30.5381 Y45.1992
G01 X30.6048 Y45.3338
G01 X30.6990 Y45.4510
G01 X30.8162 Y45.5452
G01 X30.9508 Y45.6119
G01 X31.0996 Y45.6490
G01 X31.1224 Y45.6505
G01 X31.8663 Y45.6505
G01 X31.8784 Y45.6510
G01 X31.9124 Y45.6546
G01 X31.9233 Y45.6565
G01 X31.9375 Y45.6602
G01 X31.9513 Y45.6653
G01 X31.9646 Y45.6717
G01 X32.0290 Y45.7069
G01 X32.0410 Y45.7146
G01 X32.0523 Y45.7235
G01 X32.0601 Y45.7308
G01 X37.9492 Y51.6199
G01 X37.9574 Y51.6288
G01 X37.9789 Y51.6554
G01 X37.9853 Y51.6644
G01 X37.9927 Y51.6771
G01 X37.9975 Y51.6871
G01 X38.0027 Y51.7008
G01 X38.0244 Y51.7748
G01 X38.0268 Y51.7853
G01 X38.0284 Y51.7958
G01 X38.0293 Y51.8065
G01 X38.0295 Y51.8137
G01 X38.0295 Y57.6990
G01 X38.0564 Y57.8343
G01 X38.1092 Y57.9618
G01 X38.1859 Y58.0765
G01 X40.8773 Y60.7680
G01 X40.8828 Y60.7737
G01 X40.8903 Y60.7828
G01 X40.9122 Y60.8113
G01 X40.9183 Y60.8204
G01 X40.9895 Y60.9436
G01 X41.0951 Y61.0608
G01 X41.2227 Y61.1535
G01 X41.3668 Y61.2177
G01 X41.5211 Y61.2505
G01 X41.6789 Y61.2505
G01 X41.8332 Y61.2177
G01 X41.9773 Y61.1535
G01 X42.1144 Y61.0539
G01 X42.1268 Y61.0458
G01 X42.1366 Y61.0406
G01 X42.1462 Y61.0363
G01 X42.2048 Y61.0125
G01 X42.2150 Y61.0091
G01 X42.2220 Y61.0072
G01 X42.2361 Y61.0044
G01 X42.2505 Y61.0030
G01 X42.2649 Y61.0030
G01 X42.2792 Y61.0044
G01 X42.3557 Y61.0155
G01 X42.3630 Y61.0172
G01 X42.3737 Y61.0202
G01 X42.3807 Y61.0227
G01 X42.3910 Y61.0271
G01 X42.4042 Y61.0341
G01 X42.4135 Y61.0402
G01 X42.4195 Y61.0447
G01 X42.4836 Y61.1002
G01 X42.4888 Y61.1055
G01 X42.4962 Y61.1139
G01 X42.5050 Y61.1259
G01 X42.5126 Y61.1387
G01 X42.5188 Y61.1522
G01 X42.5237 Y61.1663
G01 X42.5444 Y61.2367
G01 X42.5468 Y61.2472
G01 X42.5484 Y61.2578
G01 X42.5491 Y61.2649
G01 X42.5495 Y61.2756
G01 X42.5495 Y79.6026
G01 X42.5485 Y79.6164
G01 X42.5422 Y79.6610
G01 X42.5386 Y79.6755
G01 X42.5337 Y79.6896
G01 X42.5291 Y79.6998
G01 X42.5218 Y79.7128
G01 X42.4825 Y79.7751
G01 X42.4760 Y79.7842
G01 X42.4713 Y79.7899
G01 X42.4610 Y79.8007
G01 X42.4497 Y79.8105
G01 X42.4375 Y79.8190
G01 X42.4279 Y79.8246
G01 X42.3511 Y79.8606
G01 X42.3371 Y79.8655
G01 X42.3226 Y79.8690
G01 X42.3115 Y79.8707
G01 X42.3004 Y79.8716
G01 X42.2892 Y79.8716
G01 X42.2781 Y79.8708
G01 X42.2016 Y79.8606
G01 X42.1876 Y79.8577
G01 X42.1774 Y79.8547
G01 X42.1673 Y79.8509
G01 X42.1313 Y79.8349
G01 X42.1173 Y79.8277
G01 X42.1073 Y79.8215
G01 X42.0669 Y79.7936
G01 X42.0606 Y79.7888
G01 X42.0518 Y79.7810
G01 X39.6207 Y77.3501
G01 X39.6100 Y77.3381
G01 X39.5911 Y77.3146
G01 X39.5847 Y77.3056
G01 X39.5790 Y77.2962
G01 X39.5740 Y77.2863
G01 X39.5698 Y77.2761
G01 X39.5673 Y77.2692
G01 X39.5447 Y77.1917
G01 X39.5432 Y77.1847
G01 X39.5416 Y77.1742
G01 X39.5407 Y77.1635
G01 X39.5405 Y77.1564
G01 X39.5405 Y71.5110
G01 X39.5136 Y71.3757
G01 X39.4608 Y71.2482
G01 X39.3841 Y71.1335
G01 X34.3182 Y66.0676
G01 X34.3110 Y66.0599
G01 X34.3044 Y66.0517
G01 X34.2787 Y66.0159
G01 X34.2706 Y66.0032
G01 X34.2654 Y65.9933
G01 X34.2623 Y65.9865
G01 X34.2584 Y65.9759
G01 X34.2552 Y65.9651
G01 X34.2529 Y65.9541
G01 X34.2399 Y65.8779
G01 X34.2388 Y65.8631
G01 X34.2390 Y65.8519
G01 X34.2396 Y65.8445
G01 X34.2411 Y65.8334
G01 X34.2435 Y65.8225
G01 X34.2467 Y65.8118
G01 X34.2492 Y65.8048
G01 X34.2809 Y65.7302
G01 X34.2880 Y65.7171
G01 X34.2964 Y65.7048
G01 X34.3035 Y65.6961
G01 X34.3086 Y65.6907
G01 X34.3166 Y65.6830
G01 X34.3253 Y65.6759
G01 X34.3890 Y65.6321
G01 X34.3982 Y65.6263
G01 X34.4045 Y65.6228
G01 X34.4143 Y65.6181
G01 X34.4245 Y65.6142
G01 X34.5623 Y65.5694
G01 X34.7165 Y65.4908
G01 X34.8566 Y65.3890
G01 X34.9790 Y65.2666
G01 X35.0808 Y65.1265
G01 X35.1594 Y64.9723
G01 X35.2129 Y64.8076
G01 X35.2300 Y64.7000
G01 X35.0267 Y64.7000
G01 X35.0234 Y64.7220
G01 X35.0219 Y64.7292
G01 X35.0032 Y64.8042
G01 X35.0001 Y64.8148
G01 X34.9715 Y64.8944
G01 X34.9354 Y64.9710
G01 X34.9301 Y64.9807
G01 X34.8923 Y65.0438
G01 X34.8841 Y65.0560
G01 X34.8357 Y65.1210
G01 X34.7790 Y65.1838
G01 X34.7711 Y65.1915
G01 X34.7165 Y65.2409
G01 X34.7051 Y65.2502
G01 X34.6400 Y65.2983
G01 X34.5643 Y65.3437
G01 X34.4911 Y65.3785
G01 X34.4775 Y65.3841
G01 X34.4013 Y65.4112
G01 X34.3228 Y65.4311
G01 X34.3083 Y65.4340
G01 X34.2355 Y65.4448
G01 X34.2209 Y65.4462
G01 X34.1400 Y65.4500
G01 X34.0591 Y65.4462
G01 X34.0445 Y65.4448
G01 X33.9644 Y65.4327
G01 X33.8858 Y65.4132
G01 X33.8718 Y65.4089
G01 X33.7956 Y65.3815
G01 X33.7223 Y65.3470
G01 X33.7093 Y65.3401
G01 X33.6400 Y65.2983
G01 X33.5749 Y65.2502
G01 X33.5635 Y65.2409
G01 X33.5036 Y65.1864
G01 X33.4491 Y65.1265
G01 X33.4398 Y65.1151
G01 X33.3917 Y65.0500
G01 X33.3499 Y64.9807
G01 X33.3430 Y64.9677
G01 X33.3085 Y64.8944
G01 X33.2811 Y64.8182
G01 X33.2768 Y64.8042
G01 X33.2589 Y64.7328
G01 X33.2566 Y64.7220
G01 X33.2443 Y64.6382
G01 X33.2400 Y64.5537
G01 X33.2400 Y64.0500
G01 X33.2438 Y63.9691
G01 X33.2452 Y63.9545
G01 X33.2560 Y63.8817
G01 X33.2589 Y63.8672
G01 X33.2788 Y63.7887
G01 X33.3059 Y63.7125
G01 X33.3115 Y63.6989
G01 X33.3463 Y63.6257
G01 X33.3877 Y63.5562
G01 X33.3938 Y63.5470
G01 X33.4398 Y63.4849
G01 X33.4491 Y63.4735
G01 X33.5036 Y63.4136
G01 X33.5662 Y63.3567
G01 X33.5749 Y63.3498
G01 X33.6340 Y63.3059
G01 X33.6431 Y63.2997
G01 X33.7125 Y63.2580
G01 X33.7190 Y63.2546
G01 X33.7400 Y63.2446
G01 X33.7400 Y63.0234
G01 X33.7177 Y63.0306
G01 X33.5635 Y63.1092
G01 X33.4234 Y63.2110
G01 X33.3010 Y63.3334
G01 X33.1992 Y63.4735
G01 X33.1833 Y63.5047
G01 X33.1781 Y63.5140
G01 X33.1653 Y63.5350
G01 X33.1612 Y63.5409
G01 X33.1545 Y63.5492
G01 X33.1472 Y63.5571
G01 X33.1368 Y63.5667
G01 X33.0764 Y63.6148
G01 X33.0641 Y63.6231
G01 X33.0510 Y63.6303
G01 X33.0373 Y63.6361
G01 X33.0266 Y63.6395
G01 X33.0194 Y63.6413
G01 X33.0047 Y63.6439
G01 X32.9315 Y63.6514
G01 X32.9204 Y63.6521
G01 X32.9129 Y63.6521
G01 X32.9055 Y63.6518
G01 X32.8944 Y63.6505
G01 X32.8798 Y63.6476
G01 X32.8690 Y63.6445
G01 X32.8620 Y63.6419
G01 X32.8484 Y63.6359
G01 X32.7862 Y63.6042
G01 X32.7732 Y63.5968
G01 X32.7640 Y63.5904
G01 X32.7554 Y63.5834
G01 X32.7472 Y63.5757
G01 X32.7373 Y63.5646
G01 X32.7306 Y63.5557
G01 X32.7246 Y63.5462
G01 X32.6894 Y63.4859
G01 X32.6841 Y63.4761
G01 X32.6796 Y63.4659
G01 X32.6748 Y63.4519
G01 X32.6619 Y63.4008
G01 X32.5952 Y63.2662
G01 X32.5010 Y63.1490
G01 X32.3838 Y63.0548
G01 X32.2492 Y62.9881
G01 X32.1003 Y62.9510
G01 X32.0776 Y62.9495
G01 X31.1224 Y62.9495
G01 X31.0997 Y62.9510
G01 X30.9508 Y62.9881
G01 X30.8162 Y63.0548
G01 X30.6990 Y63.1490
G01 X30.6048 Y63.2662
G01 X30.5381 Y63.4008
G01 X30.5010 Y63.5496
G01 X30.4995 Y63.5724
G01 X30.4995 Y65.0276
G01 X30.5010 Y65.0504
G01 X30.5381 Y65.1992
G01 X30.6048 Y65.3338
G01 X30.6990 Y65.4510
G01 X30.8162 Y65.5452
G01 X30.9508 Y65.6119
G01 X31.0996 Y65.6490
G01 X31.1224 Y65.6505
G01 X31.8063 Y65.6505
G01 X31.8184 Y65.6510
G01 X31.8524 Y65.6546
G01 X31.8633 Y65.6565
G01 X31.8775 Y65.6602
G01 X31.8913 Y65.6653
G01 X31.9046 Y65.6717
G01 X31.9690 Y65.7069
G01 X31.9810 Y65.7146
G01 X31.9923 Y65.7235
G01 X32.0001 Y65.7308
G01 X38.0592 Y71.7899
G01 X38.0700 Y71.8019
G01 X38.0866 Y71.8225
G01 X38.0932 Y71.8313
G01 X38.0992 Y71.8406
G01 X38.1044 Y71.8504
G01 X38.1102 Y71.8639
G01 X38.1137 Y71.8744
G01 X38.1353 Y71.9483
G01 X38.1368 Y71.9553
G01 X38.1384 Y71.9658
G01 X38.1393 Y71.9765
G01 X38.1395 Y71.9837
G01 X38.1395 Y77.6290
G01 X38.1664 Y77.7643
G01 X38.2192 Y77.8918
G01 X38.2959 Y78.0065
G01 X41.0601 Y80.7708
G01 X41.0703 Y80.7828
G01 X41.0922 Y80.8113
G01 X41.0983 Y80.8204
G01 X41.1695 Y80.9436
G01 X41.2751 Y81.0608
G01 X41.4027 Y81.1535
G01 X41.5468 Y81.2177
G01 X41.7011 Y81.2505
G01 X41.8589 Y81.2505
G01 X42.0132 Y81.2177
G01 X42.1704 Y81.1479
G01 X42.1802 Y81.1444
G01 X42.2163 Y81.1340
G01 X42.2235 Y81.1321
G01 X42.2345 Y81.1299
G01 X42.2419 Y81.1290
G01 X42.2531 Y81.1282
G01 X42.2606 Y81.1281
G01 X42.2718 Y81.1288
G01 X42.3484 Y81.1396
G01 X42.3630 Y81.1424
G01 X42.3772 Y81.1467
G01 X42.3910 Y81.1524
G01 X42.4042 Y81.1594
G01 X42.4165 Y81.1677
G01 X42.4252 Y81.1747
G01 X42.4808 Y81.2229
G01 X42.4888 Y81.2307
G01 X42.4985 Y81.2421
G01 X42.5050 Y81.2511
G01 X42.5126 Y81.2640
G01 X42.5174 Y81.2740
G01 X42.5215 Y81.2845
G01 X42.5444 Y81.3620
G01 X42.5468 Y81.3725
G01 X42.5480 Y81.3795
G01 X42.5491 Y81.3901
G01 X42.5495 Y81.4008
G01 X42.5495 Y99.6227
G01 X42.5484 Y99.6372
G01 X42.5459 Y99.6516
G01 X42.5308 Y99.7130
G01 X42.5266 Y99.7268
G01 X42.5227 Y99.7368
G01 X42.5196 Y99.7434
G01 X42.5127 Y99.7559
G01 X42.5045 Y99.7678
G01 X42.4976 Y99.7762
G01 X42.4927 Y99.7814
G01 X42.4387 Y99.8368
G01 X42.4331 Y99.8417
G01 X42.4243 Y99.8486
G01 X42.4182 Y99.8528
G01 X42.4086 Y99.8585
G01 X42.3952 Y99.8650
G01 X42.3848 Y99.8690
G01 X42.3777 Y99.8712
G01 X42.2951 Y99.8904
G01 X42.2803 Y99.8924
G01 X42.2654 Y99.8928
G01 X42.2506 Y99.8918
G01 X42.2359 Y99.8893
G01 X42.2287 Y99.8875
G01 X42.2180 Y99.8841
G01 X42.1522 Y99.8606
G01 X42.1423 Y99.8567
G01 X42.1295 Y99.8503
G01 X42.1203 Y99.8448
G01 X42.0673 Y99.8065
G01 X42.0377 Y99.7932
G01 X42.0273 Y99.7877
G01 X42.0206 Y99.7836
G01 X41.9769 Y99.7536
G01 X41.9676 Y99.7463
G01 X41.9618 Y99.7410
G01 X39.5307 Y97.3101
G01 X39.5200 Y97.2981
G01 X39.5034 Y97.2775
G01 X39.4968 Y97.2687
G01 X39.4927 Y97.2625
G01 X39.4873 Y97.2529
G01 X39.4825 Y97.2429
G01 X39.4785 Y97.2327
G01 X39.4547 Y97.1517
G01 X39.4526 Y97.1412
G01 X39.4516 Y97.1342
G01 X39.4509 Y97.1271
G01 X39.4505 Y97.1163
G01 X39.4505 Y91.9510
G01 X39.4236 Y91.8157
G01 X39.3708 Y91.6882
G01 X39.2941 Y91.5735
G01 X33.7810 Y86.0604
G01 X33.7708 Y86.0491
G01 X33.7619 Y86.0368
G01 X33.7263 Y85.9768
G01 X33.7211 Y85.9671
G01 X33.7152 Y85.9536
G01 X33.7117 Y85.9432
G01 X33.7082 Y85.9289
G01 X33.7066 Y85.9180
G01 X33.7059 Y85.9107
G01 X33.7056 Y85.8997
G01 X33.7061 Y85.8261
G01 X33.7069 Y85.8149
G01 X33.7085 Y85.8039
G01 X33.7109 Y85.7929
G01 X33.7154 Y85.7787
G01 X33.7197 Y85.7684
G01 X33.7247 Y85.7584
G01 X33.7285 Y85.7520
G01 X33.7400 Y85.7342
G01 X33.7400 Y85.3554
G01 X33.7190 Y85.3454
G01 X33.7125 Y85.3420
G01 X33.6462 Y85.3023
G01 X33.6370 Y85.2962
G01 X33.5690 Y85.2457
G01 X33.5089 Y85.1915
G01 X33.5010 Y85.1838
G01 X33.4443 Y85.1210
G01 X33.3917 Y85.0500
G01 X33.3463 Y84.9743
G01 X33.3115 Y84.9011
G01 X33.3071 Y84.8910
G01 X33.2788 Y84.8113
G01 X33.2589 Y84.7328
G01 X33.2560 Y84.7183
G01 X33.2452 Y84.6455
G01 X33.2440 Y84.6345
G01 X33.2400 Y84.5500
G01 X33.2400 Y84.0500
G01 X33.2443 Y83.9618
G01 X33.2560 Y83.8817
G01 X33.2589 Y83.8672
G01 X33.2788 Y83.7887
G01 X33.3059 Y83.7125
G01 X33.3115 Y83.6989
G01 X33.3463 Y83.6257
G01 X33.3897 Y83.5531
G01 X33.3959 Y83.5440
G01 X33.4398 Y83.4849
G01 X33.4491 Y83.4735
G01 X33.5036 Y83.4136
G01 X33.5662 Y83.3567
G01 X33.5749 Y83.3498
G01 X33.6340 Y83.3059
G01 X33.6431 Y83.2997
G01 X33.7125 Y83.2580
G01 X33.7190 Y83.2546
G01 X33.7400 Y83.2446
G01 X33.7400 Y83.0234
G01 X33.7177 Y83.0306
G01 X33.5635 Y83.1092
G01 X33.4234 Y83.2110
G01 X33.3010 Y83.3334
G01 X33.1992 Y83.4735
G01 X33.1833 Y83.5047
G01 X33.1781 Y83.5140
G01 X33.1653 Y83.5350
G01 X33.1612 Y83.5409
G01 X33.1545 Y83.5492
G01 X33.1472 Y83.5571
G01 X33.1368 Y83.5667
G01 X33.0764 Y83.6148
G01 X33.0672 Y83.6212
G01 X33.0609 Y83.6250
G01 X33.0476 Y83.6318
G01 X33.0337 Y83.6373
G01 X33.0194 Y83.6413
G01 X33.0047 Y83.6439
G01 X32.9315 Y83.6514
G01 X32.9241 Y83.6520
G01 X32.9129 Y83.6521
G01 X32.8981 Y83.6510
G01 X32.8870 Y83.6492
G01 X32.8798 Y83.6476
G01 X32.8726 Y83.6456
G01 X32.8620 Y83.6419
G01 X32.8484 Y83.6359
G01 X32.7862 Y83.6042
G01 X32.7732 Y83.5968
G01 X32.7640 Y83.5904
G01 X32.7526 Y83.5809
G01 X32.7447 Y83.5730
G01 X32.7373 Y83.5646
G01 X32.7306 Y83.5557
G01 X32.7246 Y83.5462
G01 X32.6894 Y83.4859
G01 X32.6841 Y83.4761
G01 X32.6782 Y83.4625
G01 X32.6748 Y83.4519
G01 X32.6619 Y83.4008
G01 X32.5952 Y83.2662
G01 X32.5010 Y83.1490
G01 X32.3838 Y83.0548
G01 X32.2492 Y82.9881
G01 X32.1003 Y82.9510
G01 X32.0776 Y82.9495
G01 X31.1224 Y82.9495
G01 X31.0997 Y82.9510
G01 X30.9508 Y82.9881
G01 X30.8162 Y83.0548
G01 X30.6990 Y83.1490
G01 X30.6048 Y83.2662
G01 X30.5381 Y83.4008
G01 X30.5010 Y83.5496
G01 X30.4995 Y83.5724
G01 X30.4995 Y85.0275
G01 X30.5010 Y85.0504
G01 X30.5381 Y85.1992
G01 X30.6048 Y85.3338
G01 X30.6990 Y85.4510
G01 X30.8162 Y85.5452
G01 X30.9508 Y85.6119
G01 X31.0996 Y85.6490
G01 X31.1224 Y85.6505
G01 X31.2804 Y85.6506
G01 X31.2924 Y85.6514
G01 X31.3187 Y85.6542
G01 X31.3297 Y85.6558
G01 X31.3369 Y85.6573
G01 X31.3440 Y85.6591
G01 X31.3545 Y85.6626
G01 X31.3647 Y85.6668
G01 X31.3746 Y85.6717
G01 X31.4421 Y85.7087
G01 X31.4510 Y85.7146
G01 X31.4568 Y85.7189
G01 X31.4675 Y85.7283
G01 X37.9692 Y92.2299
G01 X37.9774 Y92.2388
G01 X37.9989 Y92.2654
G01 X38.0073 Y92.2775
G01 X38.0127 Y92.2871
G01 X38.0189 Y92.3004
G01 X38.0227 Y92.3108
G01 X38.0444 Y92.3848
G01 X38.0468 Y92.3953
G01 X38.0480 Y92.4023
G01 X38.0491 Y92.4129
G01 X38.0495 Y92.4237
G01 X38.0495 Y97.5890
G01 X38.0764 Y97.7243
G01 X38.1292 Y97.8518
G01 X38.2059 Y97.9665
G01 X40.9673 Y100.7280
G01 X40.9728 Y100.7337
G01 X40.9803 Y100.7428
G01 X41.0022 Y100.7714
G01 X41.0083 Y100.7805
G01 X41.0795 Y100.9036
G01 X41.1851 Y101.0208
G01 X41.3127 Y101.1135
G01 X41.4568 Y101.1777
G01 X41.6111 Y101.2105
G01 X41.7689 Y101.2105
G01 X41.9232 Y101.1777
G01 X42.0673 Y101.1135
G01 X42.1175 Y101.0772
G01 X42.1268 Y101.0712
G01 X42.1366 Y101.0660
G01 X42.1462 Y101.0617
G01 X42.2048 Y101.0379
G01 X42.2150 Y101.0345
G01 X42.2255 Y101.0318
G01 X42.2361 Y101.0298
G01 X42.2469 Y101.0286
G01 X42.2577 Y101.0282
G01 X42.2685 Y101.0286
G01 X42.2792 Y101.0298
G01 X42.3557 Y101.0409
G01 X42.3702 Y101.0445
G01 X42.3842 Y101.0495
G01 X42.3944 Y101.0541
G01 X42.4009 Y101.0576
G01 X42.4135 Y101.0656
G01 X42.4252 Y101.0748
G01 X42.4808 Y101.1230
G01 X42.4888 Y101.1309
G01 X42.4962 Y101.1393
G01 X42.5050 Y101.1513
G01 X42.5108 Y101.1608
G01 X42.5159 Y101.1708
G01 X42.5202 Y101.1811
G01 X42.5237 Y101.1917
G01 X42.5434 Y101.2587
G01 X42.5468 Y101.2726
G01 X42.5488 Y101.2867
G01 X42.5495 Y101.3010
G01 X42.5495 Y119.7778
G01 X42.5480 Y119.8030
G01 X42.5466 Y119.8140
G01 X42.5435 Y119.8286
G01 X42.5389 Y119.8428
G01 X42.5052 Y119.9205
G01 X42.4980 Y119.9335
G01 X42.4917 Y119.9428
G01 X42.4871 Y119.9487
G01 X42.4798 Y119.9571
G01 X42.4745 Y119.9624
G01 X42.4690 Y119.9674
G01 X42.4603 Y119.9744
G01 X42.3931 Y120.0196
G01 X42.3801 Y120.0270
G01 X42.3665 Y120.0330
G01 X42.3559 Y120.0366
G01 X42.3414 Y120.0402
G01 X42.3304 Y120.0419
G01 X42.3193 Y120.0428
G01 X42.2457 Y120.0443
G01 X42.2345 Y120.0440
G01 X42.2197 Y120.0425
G01 X42.2051 Y120.0395
G01 X42.1909 Y120.0350
G01 X42.1772 Y120.0292
G01 X42.1642 Y120.0220
G01 X42.1047 Y119.9853
G01 X42.0929 Y119.9773
G01 X42.0846 Y119.9705
G01 X42.0768 Y119.9632
G01 X42.0549 Y119.9392
G01 X41.9409 Y119.8563
G01 X41.9142 Y119.8335
G01 X39.4907 Y117.4101
G01 X39.4826 Y117.4012
G01 X39.4589 Y117.3717
G01 X39.4508 Y117.3594
G01 X39.4456 Y117.3496
G01 X39.4411 Y117.3396
G01 X39.4373 Y117.3292
G01 X39.4156 Y117.2552
G01 X39.4139 Y117.2482
G01 X39.4120 Y117.2377
G01 X39.4109 Y117.2271
G01 X39.4105 Y117.2163
G01 X39.4105 Y111.7910
G01 X39.3836 Y111.6557
G01 X39.3308 Y111.5282
G01 X39.2541 Y111.4135
G01 X33.8202 Y105.9796
G01 X33.8095 Y105.9676
G01 X33.7906 Y105.9441
G01 X33.7842 Y105.9351
G01 X33.7785 Y105.9257
G01 X33.7751 Y105.9191
G01 X33.7706 Y105.9091
G01 X33.7668 Y105.8987
G01 X33.7451 Y105.8247
G01 X33.7421 Y105.8107
G01 X33.7404 Y105.7966
G01 X33.7400 Y105.7859
G01 X33.7400 Y105.3554
G01 X33.7190 Y105.3454
G01 X33.7125 Y105.3420
G01 X33.6431 Y105.3003
G01 X33.6340 Y105.2941
G01 X33.5749 Y105.2502
G01 X33.5662 Y105.2433
G01 X33.5036 Y105.1864
G01 X33.4491 Y105.1265
G01 X33.4398 Y105.1151
G01 X33.3959 Y105.0560
G01 X33.3897 Y105.0469
G01 X33.3463 Y104.9743
G01 X33.3115 Y104.9011
G01 X33.3059 Y104.8875
G01 X33.2788 Y104.8113
G01 X33.2589 Y104.7328
G01 X33.2560 Y104.7183
G01 X33.2443 Y104.6382
G01 X33.2400 Y104.5537
G01 X33.2400 Y104.0500
G01 X33.2438 Y103.9691
G01 X33.2452 Y103.9545
G01 X33.2573 Y103.8744
G01 X33.2768 Y103.7958
G01 X33.2799 Y103.7852
G01 X33.3085 Y103.7056
G01 X33.3463 Y103.6257
G01 X33.3917 Y103.5500
G01 X33.4398 Y103.4849
G01 X33.4467 Y103.4762
G01 X33.5036 Y103.4136
G01 X33.5635 Y103.3591
G01 X33.5719 Y103.3520
G01 X33.6340 Y103.3059
G01 X33.6431 Y103.2997
G01 X33.7125 Y103.2580
G01 X33.7190 Y103.2546
G01 X33.7400 Y103.2446
G01 X33.7400 Y103.0234
G01 X33.7177 Y103.0306
G01 X33.5635 Y103.1092
G01 X33.4234 Y103.2110
G01 X33.3010 Y103.3334
G01 X33.1992 Y103.4735
G01 X33.1833 Y103.5047
G01 X33.1781 Y103.5140
G01 X33.1653 Y103.5350
G01 X33.1612 Y103.5409
G01 X33.1545 Y103.5492
G01 X33.1472 Y103.5571
G01 X33.1368 Y103.5667
G01 X33.0764 Y103.6148
G01 X33.0672 Y103.6212
G01 X33.0609 Y103.6250
G01 X33.0476 Y103.6318
G01 X33.0337 Y103.6373
G01 X33.0194 Y103.6413
G01 X33.0047 Y103.6439
G01 X32.9315 Y103.6514
G01 X32.9241 Y103.6520
G01 X32.9129 Y103.6521
G01 X32.8981 Y103.6510
G01 X32.8870 Y103.6492
G01 X32.8798 Y103.6476
G01 X32.8726 Y103.6456
G01 X32.8620 Y103.6419
G01 X32.8484 Y103.6359
G01 X32.7862 Y103.6042
G01 X32.7732 Y103.5968
G01 X32.7640 Y103.5904
G01 X32.7526 Y103.5809
G01 X32.7447 Y103.5730
G01 X32.7373 Y103.5646
G01 X32.7306 Y103.5557
G01 X32.7246 Y103.5462
G01 X32.6894 Y103.4859
G01 X32.6841 Y103.4761
G01 X32.6782 Y103.4625
G01 X32.6748 Y103.4519
G01 X32.6619 Y103.4008
G01 X32.5952 Y103.2662
G01 X32.5010 Y103.1490
G01 X32.3838 Y103.0548
G01 X32.2492 Y102.9881
G01 X32.1003 Y102.9510
G01 X32.0776 Y102.9495
G01 X31.1224 Y102.9495
G01 X31.0997 Y102.9510
G01 X30.9508 Y102.9881
G01 X30.8162 Y103.0548
G01 X30.6990 Y103.1490
G01 X30.6048 Y103.2662
G01 X30.5381 Y103.4008
G01 X30.5010 Y103.5496
G01 X30.4995 Y103.5724
G01 X30.4995 Y105.0276
G01 X30.5010 Y105.0504
G01 X30.5381 Y105.1992
G01 X30.6048 Y105.3338
G01 X30.6990 Y105.4510
G01 X30.8162 Y105.5452
G01 X30.9508 Y105.6119
G01 X31.0996 Y105.6490
G01 X31.1224 Y105.6505
G01 X31.4004 Y105.6506
G01 X31.4124 Y105.6514
G01 X31.4387 Y105.6542
G01 X31.4497 Y105.6558
G01 X31.4605 Y105.6582
G01 X31.4710 Y105.6613
G01 X31.4813 Y105.6653
G01 X31.4913 Y105.6700
G01 X31.5621 Y105.7087
G01 X31.5739 Y105.7167
G01 X31.5849 Y105.7258
G01 X37.9292 Y112.0699
G01 X37.9374 Y112.0788
G01 X37.9589 Y112.1054
G01 X37.9653 Y112.1144
G01 X37.9727 Y112.1271
G01 X37.9775 Y112.1371
G01 X37.9827 Y112.1508
G01 X38.0044 Y112.2248
G01 X38.0061 Y112.2318
G01 X38.0080 Y112.2423
G01 X38.0091 Y112.2529
G01 X38.0095 Y112.2637
G01 X38.0095 Y117.6890
G01 X38.0364 Y117.8243
G01 X38.0892 Y117.9518
G01 X38.1659 Y118.0665
G01 X40.7947 Y120.6954
G01 X40.8019 Y120.7036
G01 X40.8106 Y120.7153
G01 X40.8460 Y120.7729
G01 X40.8540 Y120.7886
G01 X40.8578 Y120.7985
G01 X40.8606 Y120.8069
G01 X40.9395 Y120.9436
G01 X41.0451 Y121.0608
G01 X41.1727 Y121.1535
G01 X41.3168 Y121.2177
G01 X41.4711 Y121.2505
G01 X41.6289 Y121.2505
G01 X41.7832 Y121.2177
G01 X41.9273 Y121.1535
G01 X42.0549 Y121.0608
G01 X42.0740 Y121.0397
G01 X42.0920 Y121.0220
G01 X42.1035 Y121.0123
G01 X42.1159 Y121.0038
G01 X42.1224 Y121.0000
G01 X42.1320 Y120.9952
G01 X42.1955 Y120.9662
G01 X42.2059 Y120.9619
G01 X42.2165 Y120.9584
G01 X42.2310 Y120.9550
G01 X42.2421 Y120.9534
G01 X42.2532 Y120.9527
G01 X42.2644 Y120.9527
G01 X42.2755 Y120.9536
G01 X42.3557 Y120.9653
G01 X42.3666 Y120.9679
G01 X42.3807 Y120.9725
G01 X42.3944 Y120.9785
G01 X42.4042 Y120.9839
G01 X42.4165 Y120.9922
G01 X42.4252 Y120.9992
G01 X42.4808 Y121.0474
G01 X42.4913 Y121.0580
G01 X42.4962 Y121.0636
G01 X42.5029 Y121.0726
G01 X42.5108 Y121.0852
G01 X42.5143 Y121.0918
G01 X42.5188 Y121.1020
G01 X42.5237 Y121.1160
G01 X42.5453 Y121.1900
G01 X42.5474 Y121.2005
G01 X42.5484 Y121.2075
G01 X42.5491 Y121.2146
G01 X42.5495 Y121.2253
G01 X42.5495 Y130.9256
G01 X42.5491 Y130.9359
G01 X42.5481 Y130.9462
G01 X42.5422 Y130.9874
G01 X42.5406 Y130.9947
G01 X42.5375 Y131.0055
G01 X42.5322 Y131.0195
G01 X42.5274 Y131.0296
G01 X42.5218 Y131.0393
G01 X42.4825 Y131.1015
G01 X42.4782 Y131.1076
G01 X42.4713 Y131.1164
G01 X42.4637 Y131.1246
G01 X42.4526 Y131.1346
G01 X42.4437 Y131.1413
G01 X42.4311 Y131.1493
G01 X42.4212 Y131.1544
G01 X42.3545 Y131.1855
G01 X42.3441 Y131.1896
G01 X42.3299 Y131.1939
G01 X42.3189 Y131.1961
G01 X42.3078 Y131.1975
G01 X42.2967 Y131.1981
G01 X42.2855 Y131.1979
G01 X42.2744 Y131.1968
G01 X42.2051 Y131.1875
G01 X42.1911 Y131.1850
G01 X42.1808 Y131.1822
G01 X42.1673 Y131.1773
G01 X42.0661 Y131.1323
G01 X41.9118 Y131.0995
G01 X41.7541 Y131.0995
G01 X41.5997 Y131.1323
G01 X41.4556 Y131.1965
G01 X41.3280 Y131.2892
G01 X41.2224 Y131.4064
G01 X41.1435 Y131.5431
G01 X41.0948 Y131.6931
G01 X41.0783 Y131.8500
G01 X41.0948 Y132.0069
G01 X41.1436 Y132.1569
G01 X41.2145 Y132.2800
G01 X41.2193 Y132.2896
G01 X41.2234 Y132.2994
G01 X41.2278 Y132.3130
G01 X41.2461 Y132.3820
G01 X41.2474 Y132.3890
G01 X41.2488 Y132.3996
G01 X41.2495 Y132.4139
G01 X41.2495 Y138.3173
G01 X41.2489 Y138.3353
G01 X41.2483 Y138.3426
G01 X41.2467 Y138.3536
G01 X41.2442 Y138.3645
G01 X41.2397 Y138.3786
G01 X41.2125 Y138.4510
G01 X41.2094 Y138.4578
G01 X41.2041 Y138.4676
G01 X41.2002 Y138.4739
G01 X41.1937 Y138.4830
G01 X41.1890 Y138.4888
G01 X41.1815 Y138.4971
G01 X41.1733 Y138.5047
G01 X41.1676 Y138.5095
G01 X41.1027 Y138.5579
G01 X41.0932 Y138.5638
G01 X41.0866 Y138.5674
G01 X41.0799 Y138.5706
G01 X41.0695 Y138.5747
G01 X41.0624 Y138.5771
G01 X41.0516 Y138.5799
G01 X41.0369 Y138.5824
G01 X40.9524 Y138.5885
G01 X40.9375 Y138.5881
G01 X40.9227 Y138.5862
G01 X40.9118 Y138.5838
G01 X40.9047 Y138.5818
G01 X40.8907 Y138.5766
G01 X40.8773 Y138.5702
G01 X40.8128 Y138.5349
G01 X40.8008 Y138.5272
G01 X40.7923 Y138.5207
G01 X40.7818 Y138.5111
G01 X39.4680 Y137.1972
G01 X39.4600 Y137.1882
G01 X39.4389 Y137.1617
G01 X39.4308 Y137.1494
G01 X39.4240 Y137.1363
G01 X39.4198 Y137.1261
G01 X39.4173 Y137.1192
G01 X39.3956 Y137.0452
G01 X39.3932 Y137.0347
G01 X39.3916 Y137.0242
G01 X39.3909 Y137.0171
G01 X39.3905 Y137.0063
G01 X39.3905 Y132.0310
G01 X39.3636 Y131.8957
G01 X39.3108 Y131.7682
G01 X39.2341 Y131.6535
G01 X33.6721 Y126.0915
G01 X33.6629 Y126.0813
G01 X33.6408 Y126.0536
G01 X33.6324 Y126.0412
G01 X33.6253 Y126.0280
G01 X33.6208 Y126.0177
G01 X33.6171 Y126.0070
G01 X33.5974 Y125.9361
G01 X33.5948 Y125.9253
G01 X33.5926 Y125.9105
G01 X33.5919 Y125.8957
G01 X33.5926 Y125.8808
G01 X33.5942 Y125.8697
G01 X33.5957 Y125.8624
G01 X33.5986 Y125.8516
G01 X33.6216 Y125.7778
G01 X33.6258 Y125.7675
G01 X33.6290 Y125.7608
G01 X33.6326 Y125.7542
G01 X33.6385 Y125.7447
G01 X33.6429 Y125.7387
G01 X33.6499 Y125.7300
G01 X33.6550 Y125.7246
G01 X33.6631 Y125.7169
G01 X33.7222 Y125.6671
G01 X33.7312 Y125.6604
G01 X33.7400 Y125.6549
G01 X33.7400 Y125.3554
G01 X33.7190 Y125.3454
G01 X33.7125 Y125.3420
G01 X33.6462 Y125.3023
G01 X33.6370 Y125.2962
G01 X33.5690 Y125.2457
G01 X33.5089 Y125.1915
G01 X33.5010 Y125.1838
G01 X33.4443 Y125.1210
G01 X33.3917 Y125.0500
G01 X33.3463 Y124.9743
G01 X33.3115 Y124.9011
G01 X33.3071 Y124.8910
G01 X33.2788 Y124.8113
G01 X33.2589 Y124.7328
G01 X33.2560 Y124.7183
